/* XPM */
static const char *ordexcoin16[] = {
/* columns rows colors chars-per-pixel */
"16 16 147 2 ",
"   c #171713",
".  c #171715",
"X  c #181715",
"o  c #181815",
"O  c #191917",
"+  c #1A1A16",
"@  c #1A1A17",
"#  c #1D1B16",
"$  c #1D1C17",
"%  c #1D1D1A",
"&  c #1E1D1A",
"*  c #1F1E1A",
"=  c #201E17",
"-  c #211F17",
";  c #221F18",
":  c #232017",
">  c #232119",
",  c #26231A",
"<  c #25231D",
"1  c #28251C",
"2  c #28261E",
"3  c #2F2A1E",
"4  c #312C1E",
"5  c #332E1E",
"6  c #332E1F",
"7  c #342E1F",
"8  c #242420",
"9  c #242421",
"0  c #252521",
"q  c #272623",
"w  c #272724",
"e  c #272725",
"r  c #2B2A23",
"t  c #292824",
"y  c #292925",
"u  c #292926",
"i  c #282827",
"p  c #2A2926",
"a  c #2A2927",
"s  c #2B2B27",
"d  c #2B2A28",
"f  c #2B2B28",
"g  c #2A2A29",
"h  c #2B2B29",
"j  c #2E2E2B",
"k  c #2F2E2B",
"l  c #312D21",
"z  c #342E20",
"x  c #322D24",
"c  c #302E29",
"v  c #363020",
"b  c #373121",
"n  c #363122",
"m  c #373223",
"M  c #373224",
"N  c #393221",
"B  c #393322",
"V  c #3B3421",
"C  c #3B3422",
"Z  c #3B3423",
"A  c #3C3522",
"S  c #3C3523",
"D  c #3C3623",
"F  c #3D3623",
"G  c #383325",
"H  c #3B3424",
"J  c #3C3524",
"K  c #3F3724",
"L  c #3D3626",
"P  c #32312B",
"I  c #373328",
"U  c #36332A",
"Y  c #37342B",
"T  c #33322D",
"R  c #393528",
"E  c #3A362B",
"W  c #39362E",
"Q  c #3F3928",
"!  c #3F3A29",
"~  c #3E382A",
"^  c #3F3A2D",
"/  c #3A3730",
"(  c #423A25",
")  c #443C26",
"_  c #473E28",
"`  c #473E2A",
"'  c #403B2D",
"]  c #403B2E",
"[  c #463E2D",
"{  c #453F2F",
"}  c #4B3F2B",
"|  c #433C30",
" . c #423C31",
".. c #433E34",
"X. c #4A412D",
"o. c #4D442E",
"O. c #494131",
"+. c #4B4433",
"@. c #4E4631",
"#. c #4F4432",
"$. c #4E4733",
"%. c #4B4534",
"&. c #4F4833",
"*. c #504734",
"=. c #504832",
"-. c #514833",
";. c #514936",
":. c #524A36",
">. c #544B38",
",. c #564B39",
"<. c #544C38",
"1. c #564C3C",
"2. c #5A503F",
"3. c #645439",
"4. c #4B4740",
"5. c #514C41",
"6. c #685D4B",
"7. c #7A6546",
"8. c #72604B",
"9. c #696054",
"0. c #726654",
"q. c #6A6660",
"w. c #92774D",
"e. c #847357",
"r. c #8B7656",
"t. c #977D5B",
"y. c #A8875C",
"u. c #AB865D",
"i. c #B4925F",
"p. c #9B856E",
"a. c #AE8C64",
"s. c #B08F6A",
"d. c #B09266",
"f. c #BE9D69",
"g. c #A48E73",
"h. c #A69276",
"j. c #A5917F",
"k. c #B49874",
"l. c #C79C58",
"z. c #C4A066",
"x. c #C6A370",
"c. c #BFA483",
"v. c #BBA187",
"b. c #B6A596",
"n. c #BAA999",
"m. c #BDAB99",
"M. c None",
/* pixels */
"M.M.M.M.M.M.M.M.M.M.M.M.M.M.M.M.",
"M.M.M.M.M.< l m m 3 > M.M.M.M.M.",
"M.M.M.M.G o.X.! H S ( 7 M.M.M.M.",
"M.M.M.! =.U y 9 % O ; S C M.M.M.",
"M.M.R &.c f f y >.7.} $ S m M.M.",
"M.M.$.Y y y k 0.x.u.a. .- ) 2 M.",
"M.U $.y e e q.m.s.t.k.1.  S z M.",
"M.^ +.y 9 6.b.j.8.v.h.x . 6 N M.",
"M.' %.y $.z.p.u.g.n.4.. X 6 N M.",
"M.R ;.f 3.l.r.d.c.9.% O O C 6 M.",
"M.M.;.W  .w.i.f.e.r % O - ( : M.",
"M.M.' <.T ..2.5.P 9 % # S 6 M.M.",
"M.M.M.{ >./ k f y 9 2 L C M.M.M.",
"M.M.M.M.! =.*.O.{ ` ` m M.M.M.M.",
"M.M.M.M.M.M.M L L z , M.M.M.M.M.",
"M.M.M.M.M.M.M.M.M.M.M.M.M.M.M.M."
};
