/* XPM */
static const char *ordexcoin128[] = {
/* columns rows colors chars-per-pixel */
"128 128 248 2 ",
"   c #171714",
".  c #181713",
"X  c #171815",
"o  c #1B1A16",
"O  c #1D1D19",
"+  c #221E15",
"@  c #201F1A",
"#  c #291F11",
"$  c #281F0F",
"%  c #1F201D",
"&  c #2D220F",
"*  c #32250F",
"=  c #262015",
"-  c #2A2213",
";  c #23221D",
":  c #2A251B",
">  c #2E281D",
",  c #312612",
"<  c #362913",
"1  c #3A2C13",
"2  c #332B1C",
"3  c #3A2E1B",
"4  c #312718",
"5  c #3D311E",
"6  c #3F3015",
"7  c #262522",
"8  c #282723",
"9  c #272824",
"0  c #2A2925",
"q  c #2D2C29",
"w  c #332D23",
"e  c #302F2B",
"r  c #382F21",
"t  c #363025",
"y  c #3B3324",
"u  c #33312C",
"i  c #3B352B",
"p  c #3E382C",
"a  c #343532",
"s  c #3B3933",
"d  c #2F302C",
"f  c #423216",
"g  c #43341B",
"h  c #4C3C1C",
"j  c #47381B",
"k  c #513E1D",
"l  c #423624",
"z  c #453925",
"x  c #4B3C24",
"c  c #433A2B",
"v  c #4A3D29",
"b  c #413729",
"n  c #433D33",
"m  c #53411E",
"M  c #4F401E",
"N  c #4D4129",
"B  c #544324",
"V  c #5B4A26",
"C  c #53442A",
"Z  c #5C4B2B",
"A  c #584726",
"S  c #494338",
"D  c #574B36",
"F  c #5C513B",
"G  c #624D29",
"H  c #64532C",
"J  c #69572E",
"K  c #6C5B34",
"L  c #675636",
"P  c #725D36",
"I  c #775C2C",
"U  c #74643A",
"Y  c #78663A",
"T  c #4C4B48",
"R  c #595449",
"E  c #595855",
"W  c #504E45",
"Q  c #6A5C47",
"!  c #6A5B4D",
"~  c #7D6C42",
"^  c #776447",
"/  c #696155",
"(  c #786B58",
")  c #76684E",
"_  c #756B66",
"`  c #79746C",
"'  c #7C7976",
"]  c #696764",
"[  c #996B1A",
"{  c #875A37",
"}  c #876738",
"|  c #987439",
" . c #93682F",
".. c #A57A38",
"X. c #AA712F",
"o. c #B87D16",
"O. c #855C48",
"+. c #846A45",
"@. c #857345",
"#. c #8B7B4B",
"$. c #887549",
"%. c #967849",
"&. c #876857",
"*. c #887457",
"=. c #977A58",
"-. c #986A46",
";. c #A77A46",
":. c #A77959",
">. c #AD7553",
",. c #8A7965",
"<. c #957B67",
"1. c #8C7872",
"2. c #A37961",
"3. c #C07D55",
"4. c #AD823D",
"5. c #B68739",
"6. c #B78227",
"7. c #CA953A",
"8. c #D19332",
"9. c #DFA339",
"0. c #E9A937",
"q. c #EFAE36",
"w. c #E39E19",
"e. c #93814E",
"r. c #948353",
"t. c #9B8A56",
"y. c #9C8B5A",
"u. c #998556",
"i. c #8F8050",
"p. c #AB8448",
"a. c #B78A48",
"s. c #A68859",
"d. c #B48B58",
"f. c #A3925C",
"g. c #A7985D",
"h. c #B8935B",
"j. c #BD9148",
"k. c #988567",
"l. c #8A847A",
"z. c #988878",
"x. c #A78966",
"c. c #B58A67",
"v. c #AB9B64",
"b. c #AA9766",
"n. c #B79767",
"m. c #A68B78",
"M. c #A89478",
"N. c #B69877",
"B. c #B68D77",
"V. c #B4A46C",
"C. c #B7A76B",
"Z. c #BCAC73",
"A. c #BAA37A",
"S. c #B8AA70",
"D. c #C79545",
"F. c #C89956",
"G. c #CC934C",
"H. c #DBA448",
"J. c #D6A558",
"K. c #CFA359",
"L. c #E6AB49",
"P. c #EAB558",
"I. c #EBB151",
"U. c #C49B67",
"Y. c #C59C78",
"T. c #C18B6A",
"R. c #C9A367",
"E. c #D6AA69",
"W. c #DBB16A",
"Q. c #C8A777",
"!. c #D4AB76",
"~. c #C9BB7D",
"^. c #C4B579",
"/. c #D8B37A",
"(. c #E9B869",
"). c #E7BB79",
"_. c #F0B96B",
"`. c #E39E48",
"'. c #F3C279",
"]. c #EAC27C",
"[. c #CFC07F",
"{. c #958C89",
"}. c #9B938A",
"|. c #9B9596",
" X c #8D8989",
".X c #A99787",
"XX c #B79B87",
"oX c #A89B95",
"OX c #AB948C",
"+X c #BAA58A",
"@X c #AAA199",
"#X c #B8A798",
"$X c #9C9BA5",
"%X c #A9A4A5",
"&X c #B6ABA6",
"*X c #B9B2AB",
"=X c #B9B5B5",
"-X c #AFADB2",
";X c #A29FA4",
":X c #C7A987",
">X c #CBBC82",
",X c #CBB687",
"<X c #D7B789",
"1X c #C5AC96",
"2X c #C7B39A",
"3X c #D5B998",
"4X c #D4AD88",
"5X c #E3BB85",
"6X c #E3BD95",
"7X c #C7B7A8",
"8X c #D4BAA6",
"9X c #C6BCB5",
"0X c #C8B1A7",
"qX c #C29B83",
"wX c #CDC085",
"eX c #D2C485",
"rX c #D4C58A",
"tX c #D6C98B",
"yX c #D9CA8A",
"uX c #DBD08F",
"iX c #D8C995",
"pX c #DDD194",
"aX c #EBC488",
"sX c #F4C787",
"dX c #E8C998",
"fX c #F4CC96",
"gX c #F3D198",
"hX c #D8C4A9",
"jX c #CBC2BA",
"kX c #D9C7B6",
"lX c #DFD2BD",
"zX c #E8CBA4",
"xX c #F5D5A6",
"cX c #E1CCB6",
"vX c #E7D5B9",
"bX c #EED7B0",
"nX c #CBC9C5",
"mX c #DBD1C8",
"MX c #E8DAC9",
"NX c #E7DBD4",
"BX c #F3E3C7",
"VX c #EAE3D8",
"CX c #F4E8D5",
"ZX c #F9F0CA",
"AX c #F7F4E7",
"SX c #BBBCC0",
"DX c None",
"FX c black",
/* pixels */
"DXDXDXDXDXDXDXDXDXDXDXDXDXDXDXDXDXDXDXDXDXDXDXDXDXDXDXDXDXDXDXDXDXDXDXDXDXDXDXDXDXDXDXDXDXDXDXDXDXDXDXDXDXDXDXDXDXDXDXDXDXDXDXDXDXDXDXDXDXDXDXDXDXDXDXDXDXDXDXDXDXDXDXDXDXDXDXDXDXDXDXDXDXDXDXDXDXDXDXDXDXDXDXDXDXDXDXDXDXDXDXDXDXDXDXDXDXDXDXDXDXDXDXDXDXDXDXDX",
"DXDXDXDXDXDXDXDXDXDXDXDXDXDXDXDXDXDXDXDXDXDXDXDXDXDXDXDXDXDXDXDXDXDXDXDXDXDXDXDXDXDXDXDXDXDXDXDXDXDXDXDXDXDXDXDXDXDXDXDXDXDXDXDXDXDXDXDXDXDXDXDXDXDXDXDXDXDXDXDXDXDXDXDXDXDXDXDXDXDXDXDXDXDXDXDXDXDXDXDXDXDXDXDXDXDXDXDXDXDXDXDXDXDXDXDXDXDXDXDXDXDXDXDXDXDXDXDX",
"DXDXDXDXDXDXDXDXDXDXDXDXDXDXDXDXDXDXDXDXDXDXDXDXDXDXDXDXDXDXDXDXDXDXDXDXDXDXDXDXDXDXDXDXDXDXDXDXDXDXDXDXDXDXDXDXDXDXDXDXDXDXDXDXDXDXDXDXDXDXDXDXDXDXDXDXDXDXDXDXDXDXDXDXDXDXDXDXDXDXDXDXDXDXDXDXDXDXDXDXDXDXDXDXDXDXDXDXDXDXDXDXDXDXDXDXDXDXDXDXDXDXDXDXDXDXDXDX",
"DXDXDXDXDXDXDXDXDXDXDXDXDXDXDXDXDXDXDXDXDXDXDXDXDXDXDXDXDXDXDXDXDXDXDXDXDXDXDXDXDXDXDXDXDXDXDXDXDXDXDXDXDXDXDXDXDXDXDXDXDXDXDXDXDXDXDXDXDXDXDXDXDXDXDXDXDXDXDXDXDXDXDXDXDXDXDXDXDXDXDXDXDXDXDXDXDXDXDXDXDXDXDXDXDXDXDXDXDXDXDXDXDXDXDXDXDXDXDXDXDXDXDXDXDXDXDXDX",
"DXDXDXDXDXDXDXDXDXDXDXDXDXDXDXDXDXDXDXDXDXDXDXDXDXDXDXDXDXDXDXDXDXDXDXDXDXDXDXDXDXDXDXDXDXDXDXDXDXDXDXDXDXDXDXDXDXDXDXDXDXDXDXDXDXDXDXDXDXDXDXDXDXDXDXDXDXDXDXDXDXDXDXDXDXDXDXDXDXDXDXDXDXDXDXDXDXDXDXDXDXDXDXDXDXDXDXDXDXDXDXDXDXDXDXDXDXDXDXDXDXDXDXDXDXDXDXDX",
"DXDXDXDXDXDXDXDXDXDXDXDXDXDXDXDXDXDXDXDXDXDXDXDXDXDXDXDXDXDXDXDXDXDXDXDXDXDXDXDXDXDXDXDXDXDXDXDXDXDXDXDXDXDXDXDXDXDXDXDXDXDXDXDXDXDXDXDXDXDXDXDXDXDXDXDXDXDXDXDXDXDXDXDXDXDXDXDXDXDXDXDXDXDXDXDXDXDXDXDXDXDXDXDXDXDXDXDXDXDXDXDXDXDXDXDXDXDXDXDXDXDXDXDXDXDXDXDX",
"DXDXDXDXDXDXDXDXDXDXDXDXDXDXDXDXDXDXDXDXDXDXDXDXDXDXDXDXDXDXDXDXDXDXDXDXDXDXDXDXDXDXDXDXDXDXDXDXDXDXDXDXDXDXDXDXDXDXDXDXDXDXDXDXDXDXDXDXDXDXDXDXDXDXDXDXDXDXDXDXDXDXDXDXDXDXDXDXDXDXDXDXDXDXDXDXDXDXDXDXDXDXDXDXDXDXDXDXDXDXDXDXDXDXDXDXDXDXDXDXDXDXDXDXDXDXDXDX",
"DXDXDXDXDXDXDXDXDXDXDXDXDXDXDXDXDXDXDXDXDXDXDXDXDXDXDXDXDXDXDXDXDXDXDXDXDXDXDXDXDXDXDXDXDXDXDXDXDXDXDXDXDXDXDXDXDXDXDXDXDXDXDXDXDXDXDXDXDXDXDXDXDXDXDXDXDXDXDXDXDXDXDXDXDXDXDXDXDXDXDXDXDXDXDXDXDXDXDXDXDXDXDXDXDXDXDXDXDXDXDXDXDXDXDXDXDXDXDXDXDXDXDXDXDXDXDXDX",
"DXDXDXDXDXDXDXDXDXDXDXDXDXDXDXDXDXDXDXDXDXDXDXDXDXDXDXDXDXDXDXDXDXDXDXDXDXDXDXDXDXDXDXDXDXDXDXDXDXDXDXDXDXDXDXDXDX; ; % O O O O O O O O O O ; DXDXDXDXDXDXDXDXDXDXDXDXDXDXDXDXDXDXDXDXDXDXDXDXDXDXDXDXDXDXDXDXDXDXDXDXDXDXDXDXDXDXDXDXDXDXDXDXDXDXDXDXDXDXDXDXDX",
"DXDXDXDXDXDXDXDXDXDXDXDXDXDXDXDXDXDXDXDXDXDXDXDXDXDXDXDXDXDXDXDXDXDXDXDXDXDXDXDXDXDXDXDXDXDXDXDXDXDXDXDXO O O ; ; ; ; ; ; ; ; @ @ @ @ O O O % % O O O O O DXDXDXDXDXDXDXDXDXDXDXDXDXDXDXDXDXDXDXDXDXDXDXDXDXDXDXDXDXDXDXDXDXDXDXDXDXDXDXDXDXDXDXDXDXDXDXDXDXDXDX",
"DXDXDXDXDXDXDXDXDXDXDXDXDXDXDXDXDXDXDXDXDXDXDXDXDXDXDXDXDXDXDXDXDXDXDXDXDXDXDXDXDXDXDXDXDXDXDXDX; ; ; ; ; ; ; @ O O O O O o . . . O + + + @ @ ; ; ; ; O O % O O O DXDXDXDXDXDXDXDXDXDXDXDXDXDXDXDXDXDXDXDXDXDXDXDXDXDXDXDXDXDXDXDXDXDXDXDXDXDXDXDXDXDXDXDXDXDXDX",
"DXDXDXDXDXDXDXDXDXDXDXDXDXDXDXDXDXDXDXDXDXDXDXDXDXDXDXDXDXDXDXDXDXDXDXDXDXDXDXDXDXDXDXDXDX; ; ; ; ; @ O o . . o o o O O O o O O O O O O O o o . o . O + ; ; ; O O O O O DXDXDXDXDXDXDXDXDXDXDXDXDXDXDXDXDXDXDXDXDXDXDXDXDXDXDXDXDXDXDXDXDXDXDXDXDXDXDXDXDXDXDXDX",
"DXDXDXDXDXDXDXDXDXDXDXDXDXDXDXDXDXDXDXDXDXDXDXDXDXDXDXDXDXDXDXDXDXDXDXDXDXDXDXDXDXDX; 7 7 ; % O o . . o O @ O ; ; ; ; ; ; ; ; ; ; ; ; ; ; + @ O O o o o . . O + ; @ O O O O DXDXDXDXDXDXDXDXDXDXDXDXDXDXDXDXDXDXDXDXDXDXDXDXDXDXDXDXDXDXDXDXDXDXDXDXDXDXDXDXDXDX",
"DXDXDXDXDXDXDXDXDXDXDXDXDXDXDXDXDXDXDXDXDXDXDXDXDXDXDXDXDXDXDXDXDXDXDXDXDXDXDXDXO 7 7 ; ; O . . O O 7 ; ; 7 ; ; : : : : : : : : : : : : : = = = + @ O O O o o . . + ; ; ; O O O DXDXDXDXDXDXDXDXDXDXDXDXDXDXDXDXDXDXDXDXDXDXDXDXDXDXDXDXDXDXDXDXDXDXDXDXDXDXDXDX",
"DXDXDXDXDXDXDXDXDXDXDXDXDXDXDXDXDXDXDXDXDXDXDXDXDXDXDXDXDXDXDXDXDXDXDXDXDXDX; ; % ; O O . O ; ; 7 ; 8 : > > > > : > > 4 4 - - - - - - - - - = = = = = = + + + O o o . . = : ; O O O DXDXDXDXDXDXDXDXDXDXDXDXDXDXDXDXDXDXDXDXDXDXDXDXDXDXDXDXDXDXDXDXDXDXDXDXDXDX",
"DXDXDXDXDXDXDXDXDXDXDXDXDXDXDXDXDXDXDXDXDXDXDXDXDXDXDXDXDXDXDXDXDXDXDXDXDX7 7 ; O . . O ; 7 ; 8 : > > > 2 < < < 3 g x V H K U Y Y U U J Z B g 3 < , - = = + + + + + o o . . = : ; O o O DXDXDXDXDXDXDXDXDXDXDXDXDXDXDXDXDXDXDXDXDXDXDXDXDXDXDXDXDXDXDXDXDXDXDXDX",
"DXDXDXDXDXDXDXDXDXDXDXDXDXDXDXDXDXDXDXDXDXDXDXDXDXDXDXDXDXDXDXDXDXDXDX; 7 7 O . . O ; ; 8 : > 2 2 2 < 3 j G Y t.V.~.eXyXtXeXeXeXeXeXeXrXrXeXwX^.v.#.K h 1 , - - = # + + O . . . = : ; O O O DXDXDXDXDXDXDXDXDXDXDXDXDXDXDXDXDXDXDXDXDXDXDXDXDXDXDXDXDXDXDXDXDXDX",
"DXDXDXDXDXDXDXDXDXDXDXDXDXDXDXDXDXDXDXDXDXDXDXDXDXDXDXDXDXDXDXDXDX7 ; ; @ o . ; ; 8 : : 2 2 2 < g V ~ g.~.yXeXZ.g.#.U H A k h j j g h h B H Y #.b.^.eXeX^.t.K f & - - # + + . o . . ; : ; O o DXDXDXDXDXDXDXDXDXDXDXDXDXDXDXDXDXDXDXDXDXDXDXDXDXDXDXDXDXDXDXDXDX",
"DXDXDXDXDXDXDXDXDXDXDXDXDXDXDXDXDXDXDXDXDXDXDXDXDXDXDXDXDXDXDXDX; 7 ; o . O 7 8 > w 2 2 2 3 x Y C.uXtXC.$.H h g 3 3 < < 4 4 4 4 4 4 , , , , , , * 1 h J #.Z.rXwXf.J 3 & $ # # + o o o o : ; O o O DXDXDXDXDXDXDXDXDXDXDXDXDXDXDXDXDXDXDXDXDXDXDXDXDXDXDXDXDXDXDX",
"DXDXDXDXDXDXDXDXDXDXDXDXDXDXDXDXDXDXDXDXDXDXDXDXDXDXDXDXDXDX7 7 7 @ . . ; ; 0 > w 2 3 5 H f.eXeXv.Y B g 5 3 2 2 2 2 2 2 > : : : : : : : : - = = = - - - , 1 h Y V.rX^.$.h & - # # + o o . + > @ O o DXDXDXDXDXDXDXDXDXDXDXDXDXDXDXDXDXDXDXDXDXDXDXDXDXDXDXDXDXDX",
"DXDXDXDXDXDXDXDXDXDXDXDXDXDXDXDXDXDXDXDXDXDXDXDXDXDXDXDXDX; 7 ; O . @ 8 : > > w 3 g J v.uX^.$.A g 3 5 3 r w w 2 0 0 > > : : : : : ; ; ; ; ; ; ; = = = = = - - - 1 B #.~.rXt.B & - # + + o o + > : O o DXDXDXDXDXDXDXDXDXDXDXDXDXDXDXDXDXDXDXDXDXDXDXDXDXDXDXDXDX",
"DXDXDXDXDXDXDXDXDXDXDXDXDXDXDXDXDXDXDXDXDXDXDXDXDXDXDXDX7 7 ; . o ; 8 0 > w 2 3 Z v.uXZ.Y x 5 5 y w w w w w 0 0 8 8 8 8 7 7 ; ; ; ; ; ; ; ; ; ; @ @ + + + = = = - - - f U ^.iXu.h & - + + o o . : 0 O o o DXDXDXDXDXDXDXDXDXDXDXDXDXDXDXDXDXDXDXDXDXDXDXDXDXDXDX",
"DXDXDXDXDXDXDXDXDXDXDXDXDXDXDXDXDXDXDXDXDXDXDXDXDXDXDX7 7 ; . o 7 8 w 2 t 3 x r.tX^.Y x 5 y y t w w w 0 0 0 8 8 8 7 7 7 7 7 ; ; ; ; ; ; ; ; ; @ O O O @ + + + + + = - - & f U ^.>X~ 1 $ # + O O . ; 0 O o o DXDXDXDXDXDXDXDXDXDXDXDXDXDXDXDXDXDXDXDXDXDXDXDXDXDX",
"DXDXDXDXDXDXDXDXDXDXDXDXDXDXDXDXDXDXDXDXDXDXDXDXDXDX7 7 ; . O 8 : 0 2 y g U ^.eX$.x y y y t w e q 0 0 0 0 8 8 8 7 7 7 7 7 7 ; ; ; ; ; ; ; @ @ O O O O O O O O O + + + # = - & f $.rXZ.Z & - # + o o + w ; o o DXDXDXDXDXDXDXDXDXDXDXDXDXDXDXDXDXDXDXDXDXDXDXDXDX",
"DXDXDXDXDXDXDXDXDXDXDXDXDXDXDXDXDXDXDXDXDXDXDXDXDX7 7 @ . ; 7 8 w 2 2 x u.uXV.G g y y t t e e q 0 0 0 0 0 8 9 7 7 7 7 7 7 ; ; ; ; ; ; ; O O O O O O O O O O O O O O O + + = = - & B v.iX$.1 - + + o o + w ; o o DXDXDXDXDXDXDXDXDXDXDXDXDXDXDXDXDXDXDXDXDXDXDXDX",
"DXDXDXDXDXDXDXDXDXDXDXDXDXDXDXDXDXDXDXDXDXDXDXDX7 7 @ . ; 8 0 > w 5 Z Z.tX@.x l y y t e e q q 0 0 0 0 0 0 0 7 7 7 7 7 7 7 7 ; ; ; ; ; ; O O O O O O O O O O O O O O O O O + + # - - 1 +.iXv.j $ # + . o + 2 ; o o DXDXDXDXDXDXDXDXDXDXDXDXDXDXDXDXDXDXDXDXDXDXDX",
"DXDXDXDXDXDXDXDXDXDXDXDXDXDXDXDXDXDXDXDXDXDXDX7 9 ; . ; ; 0 2 w 5 U eXZ.H l y y y t e q q q 0 0 0 0 0 0 0 0 7 7 7 7 7 7 7 7 ; ; ; ; ; @ O O O O O O O O O O O o O O O O O O O + # # - & V ^.>XV & - # o . . 2 ; o o DXDXDXDXDXDXDXDXDXDXDXDXDXDXDXDXDXDXDXDXDXDX",
"DXDXDXDXDXDXDXDXDXDXDXDXDXDXDXDXDXDXDXDXDXDX7 9 ; . ; 8 0 > w g $.uXb.B l y y t t e e q 0 q 0 0 0 0 0 0 0 0 9 9 7 7 7 7 7 7 ; ; ; ; ; @ O O O O O O O O O O o o o o O O O O O O + + # - - f b.rXK * - + . . + w ; o o DXDXDXDXDXDXDXDXDXDXDXDXDXDXDXDXDXDXDXDXDX",
"DXDXDXDXDXDXDXDXDXDXDXDXDXDXDXDXDXDXDXDXDX9 9 ; . @ 8 0 2 2 5 i.uXe.x l y y t e e q q q q q 0 0 0 0 0 0 0 0 9 9 7 7 7 7 7 7 7 ; ; ; ; @ @ @ O O O O O O O O O o o O o o o o o O O O + # = - 1 r.iX~ & # + O . + w O o DXDXDXDXDXDXDXDXDXDXDXDXDXDXDXDXDXDXDXDXDX",
"DXDXDXDXDXDXDXDXDXDXDXDXDXDXDXDXDXDXDXDX9 0 ; . O 7 8 w r g t.uX@.x l y t w e e q q q q q q q 0 0 0 0 0 0 0 9 9 7 7 7 7 7 7 7 7 ; ; ; ; @ @ O O O O O O O o o o o o o o o o o o O O O + + = - , @.iX~ & = + + . = w O o DXDXDXDXDXDXDXDXDXDXDXDXDXDXDXDXDXDXDXDX",
"DXDXDXDXDXDXDXDXDXDXDXDXDXDXDXDXDXDXDXDX9 7 o O 7 8 w w j t.uXY z y y t t e q q q q q q q 0 q 0 q q 0 0 0 0 9 0 9 7 7 7 7 7 7 7 ; ; ; ; ; @ O O O O O O O o O O o o o o o o o o o o O O + + # - * Y iX~ & - + O o : 0 o o DXDXDXDXDXDXDXDXDXDXDXDXDXDXDXDXDXDXDX",
"DXDXDXDXDXDXDXDXDXDXDXDXDXDXDXDXDXDXDX9 9 O o 9 8 0 w 5 r.uXY z y y t t e e q q q q q q q 0 0 q q q 0 0 0 0 0 0 9 7 7 7 7 7 7 7 ; ; ; ; ; @ O O O O O O o O O o o o o o o o o o o o o o O O + # - * ~ iXU - = + O o w 8 o o DXDXDXDXDXDXDXDXDXDXDXDXDXDXDXDXDXDX",
"DXDXDXDXDXDXDXDXDXDXDXDXDXDXDXDXDXDX9 0 ; . 7 8 w w 5 @.uX@.z y y t u e e q q q q q q 0 0 q q q 0 q 0 0 0 0 0 0 0 7 9 7 7 7 7 7 7 ; ; ; % O O O O O O O O O O o o o o o o o o o o o o o O O O + = - , #.iXJ $ # + O + w ; o DXDXDXDXDXDXDXDXDXDXDXDXDXDXDXDXDXDX",
"DXDXDXDXDXDXDXDXDXDXDXDXDXDXDXDXDX0 0 7 . ; 8 w w 5 K uXr.z l y t e e q q q q q q q q 0 0 q q q 0 q q 0 0 0 0 0 9 9 9 9 7 7 7 7 7 ; ; ; % ; : ; O O O O O O O : : o o o o o O o o o o o o O O O + = = 1 y.>Xh - = O o ; t O o DXDXDXDXDXDXDXDXDXDXDXDXDXDXDXDXDX",
"DXDXDXDXDXDXDXDXDXDXDXDXDXDXDXDXDX0 0 O o 7 0 2 y A wXv.x y y t u e q q q q q q q q q q 0 q q q q q q q q 0 0 0 0 9 9 9 7 7 7 7 7 7 ; ; ; C : O O ; ; ; @ o o < : o o o o O O O o o o o o o O O O + = = 6 V.S.6 - + O o > 0 o o DXDXDXDXDXDXDXDXDXDXDXDXDXDXDXDX",
"DXDXDXDXDXDXDXDXDXDXDXDXDXDXDXDX0 0 ; . 7 8 0 t x V.~.C y y t u q q q q q q q q q q 0 q q q q q q q q q q q 0 0 0 0 9 9 9 7 7 7 7 7 ; ; ; L L O : 5 8 c v 5 G m 2 ; O o o o O o o o o o o O O O O O + = - M wXr., = + O O t ; o DXDXDXDXDXDXDXDXDXDXDXDXDXDXDXDX",
"DXDXDXDXDXDXDXDXDXDXDXDXDXDXDXDX0 9 . ; 8 0 w 5 i.uXL y y t e e q q q q q q q q q q q q q q q q q q q q q q 0 0 0 0 9 9 9 7 7 7 7 ; ; 7 w +.L s ) =.k.z.M.n.F...%.Z w % o o o o o o o o o o o o O O + + = - K uXL - = O o : t O O DXDXDXDXDXDXDXDXDXDXDXDXDXDXDX",
"DXDXDXDXDXDXDXDXDXDXDXDXDXDXDX0 q @ o 7 q w y L uX#.l y t u e q q q q q q q q q q q q q q q q q q q q q q q q 0 0 0 0 9 9 7 7 7 7 7 ; w i Q m.<XaX).<X3X6XfXfXaX5X*.p 7 y z o o o o o o o o o o O O O + + - , t.>Xj = + O o w : O O DXDXDXDXDXDXDXDXDXDXDXDXDXDX",
"DXDXDXDXDXDXDXDXDXDXDXDXDXDX0 0 7 . ; 0 0 y x Z.V.x y y t e q q q q q q q q q 0 q q q q q q q q q q q q q q q 0 q 0 0 0 9 7 7 8 p i w S k.zXxXsXsX).3X<X).).sXsXsX5XN.^ t v ; o o o o o o o o o o o O O + = - f >Xt.& = + O = y O O DXDXDXDXDXDXDXDXDXDXDXDXDXDX",
"DXDXDXDXDXDXDXDXDXDXDXDXDXDXq q O O 7 8 w y #.uXH y y t e q q q q q q 0 q q 0 q 0 q q q q q q q q q q q q q q q 0 0 0 0 0 7 7 0 $.P ~ <XgXxX5X(.fXfX<XQ.I.J.'._.P.(.dX:Xk.p o ; o o o o o o o o o o o O O + = - K tXZ - = + + w 8 o o DXDXDXDXDXDXDXDXDXDXDXDXDX",
"DXDXDXDXDXDXDXDXDXDXDXDXDXDXq 7 . @ 8 w y A eXu.z y t u e q q q q 0 q q q q q q q 0 q q q q q q q q q q q q q q 0 q 0 0 0 p S 7 c d.fXxXfXE.W.'.fXaXR.s.p.a.P.L.D.P._.5X4XN.I l O O o o o o o o o o o O O + + = < v.V.< = = + = t O O DXDXDXDXDXDXDXDXDXDXDXDXDX",
"DXDXDXDXDXDXDXDXDXDXDXDXDXq q @ o 8 0 2 y y.wXC l i t e q q q q q q 0 0 0 0 q 0 q q 0 q q q q q q q q q q q q q 0 0 0 0 0 c p q ,.zXxXsX_.L.W._.K.h.s.+.` =.J.G...I.I.0.H.E./.D ; y + o o o o o o o o o O O + = - V tXU - = + O w : o o DXDXDXDXDXDXDXDXDXDXDXDX",
"DXDXDXDXDXDXDXDXDXDXDXDXDXq 0 . 7 8 0 w A tX$.l y t u q q q q q q q 0 0 0 0 0 0 0 0 q 0 q q q q q q q q q q q q q 0 0 p ^ t e ,.dXaXsX(.W.E.j.j.a.a.p.%.m.Y.Y.=.-.a.9.q.I.).fXM.: @ o o o o o o o o o o O O O + = , f.Z.1 = + O ; t O O DXDXDXDXDXDXDXDXDXDXDXDX",
"DXDXDXDXDXDXDXDXDXDXDXDXq q ; . 7 0 w 5 t.~.B y i t u q q q q q 0 0 0 0 0 0 0 0 0 0 0 0 0 0 q q q q q q q q q q q 0 e F %.D l.bXfX_.I.).zXW.D.j.F.4.X...<.*.m.&.O.&.;.I.I._.fXzX! o 8 : ; t o o o o o o o O O + = - A tXK - = + o t ; O DXDXDXDXDXDXDXDXDXDXDXDX",
"DXDXDXDXDXDXDXDXDXDXDXDXq 0 . ; 0 0 t B eX#.l y t u q q q q q 0 0 0 0 0 0 0 0 0 0 0 0 0 0 q q q q q q q q q q q q F L t P R.zXgXaXW.'.).)._.).h.| ..} } / ] &.Q { :.2.F.'._.5XbX2Xi D *.: y o o o o o o o o O O + - , g.V., = + O : w o o DXDXDXDXDXDXDXDXDXDXDX",
"DXDXDXDXDXDXDXDXDXDXDXDXq 9 . ; 8 w y @.eXA y i u e q q q q 0 0 0 0 0 0 0 0 0 0 0 0 0 q 0 q q q q q q q q q q q u +.P t ( dXiX<X<XR.n.F._.sX!.n.a.d.s.z.l.1.,._ O.{ <.4X<X+X2XdX8X+X( ^ O X o o o o o o o o O O + = - H tXV = = O + t O O DXDXDXDXDXDXDXDXDXDXDX",
"DXDXDXDXDXDXDXDXDXDXDXq q ; o 7 0 t z ^.f.l y t u q q q q q 0 0 0 0 0 0 0 0 0 0 0 0 0 q q 0 q q q q q q q q q q i p S _ kXzX1XB.,XQ.d.).'.(.Q.n.N.7Xz. X}.M.<.x.<.&.1.}.&X7X2X<X2Xm.! P ; o o o o o o o o o o O O + = 1 Z.t., - ; O 2 ; o DXDXDXDXDXDXDXDXDXDXDX",
"DXDXDXDXDXDXDXDXDXDXDXq q O ; 8 0 t L uXP y y t e q q q 0 0 0 0 0 0 0 0 0 9 9 0 0 0 0 0 q q q q q q q q q q q s s u / vXbX3X9X#X.X+X/._.J.Q.n.hXNX%XE H y G } %.u.z.m.c.#X7X7X2X:X*.D V @ o o o o o o o o o o o O + = - @.>Xg = + O : w o o DXDXDXDXDXDXDXDXDXDX",
"DXDXDXDXDXDXDXDXDXDXDXq 8 . 7 8 w y t.~.B y i u q q q q q 0 0 0 0 0 0 9 0 0 9 0 9 0 9 0 0 q q q q q q q q u W ' |.}.8XBXhXnXjX3X2X!.N.Y..XOX.X:XF.J @ @ O 2 A { p.x.N.Q.1X7X8X3XQ.@.Q = o o o o o o o o o o o o O + + - h rXP - = + O t O o DXDXDXDXDXDXDXDXDXDX",
"DXDXDXDXDXDXDXDXDXDXq q ; o 9 q t z ^.t.z y t e q q q 0 0 0 0 0 0 0 9 9 9 9 0 9 9 9 9 0 0 9 0 0 q q q q q u T E 9XCXBXcXmXnX.Xc.5XsXU.z..Xz.x.X.X.x.0 o o 4 I ! #Xh.x.XX4X4X/.6XXXR ( O o o o o o o o o o o o o o O + = < V.f., = ; O 2 ; o DXDXDXDXDXDXDXDXDXDX",
"DXDXDXDXDXDXDXDXDXDXq u + @ 8 w y H uXK l i t e q q q q 0 0 0 0 0 9 9 9 9 9 9 9 9 9 9 9 0 0 0 0 0 q q q q T S &XVXBXcXjXmX9XXX/.sXaX+X X*.d.;.X.F./ @ K c X 7 W M.s.1.<.<.d.L.).XX( ,.; o o o o o o o o o o o o o O + - - } ~.f = = O : 0 o o DXDXDXDXDXDXDXDXDX",
"DXDXDXDXDXDXDXDXDXDXu q o ; 8 e y #.eXC y i t e q q q q 0 0 0 0 0 9 9 9 9 7 7 7 9 9 7 7 7 9 0 0 0 0 q q a ] T mXCXvXkXjX&X#X<XsX5X!.{.l.}  . .F.R.c J a.R.N R oX;.s.z.:.x.p.E.6X!.3XM.t X o o o o o o o o o o o o o + + - B eXV - = O + w o o DXDXDXDXDXDXDXDXDX",
"DXDXDXDXDXDXDXDXDXDXu 0 o 8 0 w y V.V.x y i u q q q q 0 0 0 0 0 0 9 9 9 7 7 7 7 7 7 7 7 7 7 9 0 0 q q q '  X=XBXMXkX9X&X#X.Xx.E.n.=.z.=.|  ...U.:X*.a.D.n.p l.cXp.u.l.x.n.k.M.3X1X3X+Xy 3 o o o o o o o o o o o o O O + - 1 ^.$., = + O w O o DXDXDXDXDXDXDXDXDX",
"DXDXDXDXDXDXDXDXDXq u 7 O 8 0 t x ~.i.z y t u q q q q 0 0 0 0 0 0 9 9 9 7 7 7 7 7 7 7 7 7 7 7 9 0 ] s s -XnXCXvXvX8X0X7X#X+Xl.,.z.=.-.:.U.d.h.n.R.n.F.W.Q R nXdXx.z.k.s.F.J.+X9X1Xz.( > 3 o o o o o o o o o o o o o O + - , g.v.< = + O 2 ; o DXDXDXDXDXDXDXDXDX",
"DXDXDXDXDXDXDXDXDXq u ; O 0 e y Z tXU l i t u q q q 0 0 0 0 0 0 9 9 9 7 7 7 7 7 7 7 7 7 7 7 7 7 0 T u E %XmXvXMXhX1X&X7X*X&XoXz..XN.>.>.:.c.n.n.n.c.!.yX2XvXbX).n.,.k.a.(.].hXkX<Xk.q o o o o o o o o o o o o o o o O + = - @.~.6 = = O > : o DXDXDXDXDXDXDXDXDX",
"DXDXDXDXDXDXDXDXDXq u ; ; 0 w y U tXZ l i t e q q q 0 0 0 0 0 0 0 9 9 7 7 7 7 7 7 7 7 7 7 7 7 q T 9 E -X' jXvXvX0X#X7X*X&XoX}.+X3X3XiXT.-.&.=.:.c.N.!.<XiX<X(.E.R.n.*.a.P.<XhXzXW.,.O   o o o o o o o o o o o o o o O O = - H eXM = = O : 8 o o DXDXDXDXDXDXDXDX",
"DXDXDXDXDXDXDXDXDXu u O ; 8 w y #.wXB y i u q q q q 0 0 0 0 0 0 0 0 9 7 7 7 7 7 7 ; 7 7 7 7 ; s ] ` -XnXnXVXcX2XXX3X7X|.{.}..X3X+X/ *X,XY.>.{ { x.N.:X<X<X4X<XQ.R.U.!.Q.1X7XhX/.5X%.= : o o o o o o o o o o o o o o o O # - h eXH = = O + 0 o o DXDXDXDXDXDXDXDX",
"DXDXDXDXDXDXDXDXDXa q O 7 0 w l f.^.x p i u e q q q 0 0 0 0 0 0 9 9 7 7 7 7 7 7 7 ; ; 7 0 q S u T -XjXVXMXkX2XoXOX0X-X{.1.XX8X2XR O / l.k.Y.>. .-.k.%X1X1X:X3X!.R.N.iX5X1X@X!.R.m.y P %.o o o o o o o o o o o o o o o O + - f ~.Y - = @ + 0 o o DXDXDXDXDXDXDXDX",
"DXDXDXDXDXDXDXDXDXa q O ; 8 w l V.v.x y t u q q q q q 0 0 0 0 9 9 9 7 7 7 7 7 7 ; ; % y ^ R ] E =XjXVXmX#X8X#X-X-X%XoXm.XX3X2X( D O ; a u N.:X:.{ { .X@X*X=X+XA.M.#X2X<X!.s.a.4XS ; t w o o o o X X o o o o o o o o o o + - < Z.#.- = O o w o o DXDXDXDXDXDXDXDX",
"DXDXDXDXDXDXDXDXDXa q O 9 q y z ^.f.x c t u e q q q 0 0 0 0 0 9 9 9 7 7 7 7 7 7 7 ; 8 v c i E nXVXMXNX9X0X3XXXOX*X%X&XOX4X+XR i 0 O o   X S +XQ.>.{ -.OXoX9XoX+XoX@X&X:X/.N.4X*.S ; X o o o o o X X o o o o o o o o o o + - * v.y., = @ + 2 O o DXDXDXDXDXDXDXDX",
"DXDXDXDXDXDXDXDXa a 0 O 0 q y x ~.e.c y t u q q q q q 0 0 0 9 9 9 9 7 7 7 7 7 7 7 8 c w e L 3XBXMXvXjX0X&X2X.X1.oX@X*X#X3X<.S 0 ; o o o o X u x.Q.>.X.2.XX#X-X#X#XoX#X:X2X7X,.D L o o o X X X X X X o o o o o o o o o o + - * f.b., = + + 2 O X DXDXDXDXDXDXDXDX",
"DXDXDXDXDXDXDXDXa a 0 o 8 e y C eX#.c y u u e q q q 0 0 0 0 9 9 9 7 7 7 7 7 7 7 7 S p q Q W._.aXcX8X&X-X%X#X.X<..X7X9X1X<X:XS 9 O X . o o O : k.!.U.m.B.#X*X9X*X2X*XiX,X0Xz.e : > o o X X X X X X o o o o o o o o o o o + - , u.C.< = + O 2 O X DXDXDXDXDXDXDXDX",
"DXDXDXDXDXDXDXDXa a 0 O 0 e y C eX@.c y t u e q q q 0 0 0 0 9 9 9 7 7 7 7 7 7 ; 0 R i / hXaX(.5X<X<X&X$X|.m.XXc.T.XX1X1X4XdX,.7 o X o O y 0 ) +X:Xn.OXoX#X*XjX0XkXmXdXfXM.L $.l O o o o X X X X o o o o o o o o o o o o + = , i.Z.< = = O > O X DXDXDXDXDXDXDXDX",
"DXDXDXDXDXDXDXDXa a 8 o 8 w y Z tX@.c y u u e q q q 0 0 0 0 0 9 9 9 7 7 7 7 7 ; 0 ; / lXBX).].E.).hX=X$X{.{.N.Y.3.>.B.3X<X).aXk.; o o ; N C k.4X!.n.}.oXXX2XnXjXcXVXiXdXQ 2 +.l X o o X X X X o o o o o o o o o o o o o + = , #.Z.1 = + o > O X DXDXDXDXDXDXDXDX",
"DXDXDXDXDXDXDXDXa a 8 O 0 e y A tX@.c y u u e q q q q q 0 0 0 0 9 9 7 7 7 7 7 R Q S hXbXgXsX/.h.!.8X*X$X Xz.1.c.U.c.B.:X3X3X6XdXM.t O O y n.+XU.!.:XoX&X7X8XNXmXMXAXjX) y ; + o o o X X X X X X o o o o o o o o o o o o + - , #.Z.1 - = O > O X DXDXDXDXDXDXDXDX",
"DXDXDXDXDXDXDXDXDXa 0 O 8 e y C eX@.c y i u u q q q 0 0 0 0 0 0 9 9 7 7 7 7 7 *.*.#XxXL.L.(.<Xm.N.XXB.OX1.l.,.O.d.U.c.d.Y.1X8X6XdXA.S c N A.:X/.1X#XOXB.3XcXCXNXCXVXE o 8 ; o o o o X X X X X X o o o o o o o o o o o o + - * i.Z.1 - + o : O X DXDXDXDXDXDXDXDX",
"DXDXDXDXDXDXDXDXDXa 0 O 7 0 y C eX#.c p i u u q q q q 0 0 0 0 0 9 9 9 7 7 0 S J R.gXL.8.0.L.E.1XoXoXm.m.1.{.R b >.G.a.;.>.XX0X8X3X6X,X*.$.Q.4X#X*X*X0X:X3XbXBXCXAX@X7 ; O o o o o o o o o o X X o o o o o o o o o o o o + - * t.C.< - + O > O X DXDXDXDXDXDXDXDX",
"DXDXDXDXDXDXDXDXDXa q O 0 q y x ~.r.v c i u u q q q q q q 0 0 0 0 9 9 9 7 0 L 4._.P.7.0.0.I.J.3X#X X|.l.{.] s ^ D.D.G.G.;.:.B.#X0X8X1X+XQ.+X0X7X*XXX1X2X3XbXZXAXAX' o O o o o o o o o o o o o o X o o o o o o o o o o o + - * f.v.< - ; O : o X DXDXDXDXDXDXDXDX",
"DXDXDXDXDXDXDXDXDXa e o 7 0 t z ^.f.v c i u u q q q q q q q 0 0 0 9 9 9 7 7 G P.'.J.H.0.q.H.U.hX&X|.{.;X_ 0 L D.8.J.U.F.G.;.+.z.#X:X+X+X+X#X#X2XoXoXSXjX6XzXZXVX X0 o o o o o o X o o o o o o o X X X o o o o o o o o o + - * v.t., = + O : o X DXDXDXDXDXDXDXDX",
"DXDXDXDXDXDXDXDXDXa u O 9 0 t z V.v.v c i u e q q q q q q q q 0 9 9 9 n n 7 D zX].(.I.0.q.H.1X#X|.|.|.oX' Q G.8.(.3X,.h.G.X.I ^ z.n.b..X+X:X+X+X9X=X=X8X6XvXAX XO o o o o o o o o o o o o o X X X X o o o o o o o o o o + - 1 Z.#.- = ; + : o X DXDXDXDXDXDXDXDX",
"DXDXDXDXDXDXDXDXDXa u + 7 0 w l f.Z.x c i u u q q q q q q q q q 9 9 9 i S s ,.xX).].L.0.0.E.#X;X{.b.k.` }.d.7.`.aXk.n h.G.8.;.^ ^ +.=.A.Q.!.+X-X=X-X&X1X8XCX-X0 o O o o o o o o o o o o X X X X o o o o o o o o o o o o + - f ~.U - + O + : o o DXDXDXDXDXDXDXDX",
"DXDXDXDXDXDXDXDXDXa a @ ; 0 w l #.~.C c i u u q q q q q q q q q 9 9 9 q D Q !.(.L.P.H.I.).1X|.;X@X.X/ n R c ;.J.=.F s.G.8.G.n.>.-.^ d.Q./.R.1X9X-XoX0X0XcXjXT T O O O o o o o o o o o o X X X X o o o o o o o o o o o o # - M eXH = = O + : o o DXDXDXDXDXDXDXDX",
"DXDXDXDXDXDXDXDXDXa a ; ; q t y U tXH c p u u e q q q q q q q q q 9 9 S *.L P.L.0.H.L.P.Q..X@X%XoXA.~ 8 ; o y Z y =.J.`.R.L =.d.%.d.d.!.Q.N.oX&XoXXX:XcXkX@X X|.; O O O o o o o o o o o o o o o o X o o o o o o o o o o # - J eXM = + O + ; o DXDXDXDXDXDXDXDXDX",
"DXDXDXDXDXDXDXDXDXa a 7 @ 8 w y Z yXU c y u u e q q q q q q q 0 q 0 9 S Q I I.L.8.L.q.q./.:X#X#X#XQ.@.e O O O O F G.`.W.) *.x.d.U.Q.n.d.b.z.#XoXB.T.3XvX@XS a s O O O O O o o o o o o o o o o o o o o o o o o o o o o + = & @.^.f = + O = O o DXDXDXDXDXDXDXDXDX",
"DXDXDXDXDXDXDXDXDXDXa q + 0 e y N >Xr.c y u u q q q q q q q q 0 0 0 0 u n Z E.L.9.P.q.q.!.U.Q.#X3X*.*.y o O O % 8 $.W.k.M.Q.R./.:X+XY.=.|.' oX:XqX3XzX1.S ; O ; O O O O o o o o o o o o o o o o o o o o o o o o o o O + - * b.g., = = O ; O X DXDXDXDXDXDXDXDXDX",
"DXDXDXDXDXDXDXDXDXDXa u . ; 0 t z V.V.v p i u u q q q q q q q 0 0 0 0 i n D W.(.7.H.8.8.F.D.F.2XdXk./ 0 O O O % ; 8 / +X:X<X5X<XN.+X<X3X-X$XXXQ.3XvX{.q ; ; ; O O O O O O O o o o o o o o o o o o o o o o o o o o o O + - f ~.Y - = + O : o X DXDXDXDXDXDXDXDXDX",
"DXDXDXDXDXDXDXDXDXDXa a + ; 8 w l #.eXC c i u u q q q q q q q q 0 0 0 0 q D ].(.H.a.} ..;.7.K.Q.3X/.#.2 w ; O O 0 E jXcX:X6X5X!.<.A.:X<X2X&XB.Y.bXkX( F 8 ; ; O O O O O O o o o o o o o o o o o o o o o o o o o . o o # - V tXV - = + + ; o X DXDXDXDXDXDXDXDXDX",
"DXDXDXDXDXDXDXDXDXDXa a ; O 0 t y L uXU c y i u u q q q q q q q q 0 0 0 u S <X(.7.D.5...5.H.7.h.+X3XN.+.y N T ` &XVXBX8X7X+X).<XU.E.#X#X:XY.B.3XvX_ Q p 8 ; ; ; O O O O O O o o o o o o o o o o o o o o o o o o . o o = & @.~.f = = O + ; o DXDXDXDXDXDXDXDXDXDX",
"DXDXDXDXDXDXDXDXDXDXDXa 0 O 8 w y x ^.f.v p i u e q q q q q q q q 0 q q q u ,X'.7.5.8.8.4.a.D.J.<X:Xh.x.h.R.iXbXaX<X<X+X#X}.m.W.sX5X&X%X%X4X6XvXA.N N z 7 ; ; ; O O O O O O o o o o o o o o o o o o o o o o o o o o + - < V.t., - + o = O X DXDXDXDXDXDXDXDXDXDX",
"DXDXDXDXDXDXDXDXDXDXDXa u + 9 0 w l t.>XC c i u u u q q q q q q q q q q q n N.fX!.h.D.9.4...j.L.W.!.M.h.F.E.W.K.H.5.F.Q.hX+Xk.J.'.aX1X|.jXkXvX}.C t y w 7 ; ; ; ; O O O O O O o o o o o o o o o o o o o o o o o o o # - h eXJ - = ; o ; o   DXDXDXDXDXDXDXDXDXDX",
"DXDXDXDXDXDXDXDXDXDXDXa a ; @ 0 e y L pXU c p i u u q q q q q q q q q q q n *.'.).E.5.7.o.[ %.h.U.:X9X,XE.E.D.7.9.J.E.+X,XE.H.I.P.).+X#XcXzX#XD w y 0 7 7 ; ; ; ; O O O O O O O O o o o o o o o o o o o o o o o o + # & @.^.6 - + o + @ o X DXDXDXDXDXDXDXDXDXDX",
"DXDXDXDXDXDXDXDXDXDXDXa a 8 O 7 e y N ^.b.v c i u u e q q q q q q q q q q q F n.Q.!.a.p.[ o...n.E.A.2X<XK.J.a.D.P.).aXhXN.L.0.0.I./.2XkXbX3XF [ [ t 7 7 7 ; ; ; ; ; O O O O O O O o o o o o o o o o o o o o o o o + - 1 ^.e.- = O o = O o DXDXDXDXDXDXDXDXDXDXDX",
"DXDXDXDXDXDXDXDXDXDXDXDXa u O 8 e t z @.eXZ c p i u u e q q q q q q q q q p } $.k.F.D.s.%.;.p.c.:X+Xm.Q.E.U./.).aX<X5XfXN.H.q.q.q.F.F.rXcX( 0 B G 8 7 7 7 7 ; ; ; ; O O O O O O o o o o o o o o o o o o o o o o + # - J tXB - = O . ; o o DXDXDXDXDXDXDXDXDXDXDX",
"DXDXDXDXDXDXDXDXDXDXDXDXa a ; O 0 t y C >Xr.v c i u u u q q q q q q q q q c | F *. .o.s.k.,.,.M.Q.n.=.h.(.W.aX!.n.n.U._.J...8.w.K.:X!.hXz.J t e 9 9 7 7 ; ; ; ; ; ; O O O O O O O o o o o o o o o o o o o o o o + - * v.V., = + o + @ o X DXDXDXDXDXDXDXDXDXDXDX",
"DXDXDXDXDXDXDXDXDXDXDXDXDXa q @ 8 0 t z u.eXZ c p i u u u q q q q q q q q i U n R ) | 4.u.Q &.M.M.s.p.8.P.P.9.a.u.N.=.9.I.p.s.n.+XN.,X{.u t q 0 9 7 7 7 7 ; ; ; ; ; O O O O O O o o o o o o o o o o o o o o O + # - V tXJ - = + o + o X DXDXDXDXDXDXDXDXDXDXDXDX",
"DXDXDXDXDXDXDXDXDXDXDXDXDXa a ; ; 0 e y Z iX=.v c i i u u u e q q q q q q q q i C $..Xs.;.*.%.%.( ( } [ 7.9.7.a...h.*.%.d.p.M.@X@X7X}.s t q 0 0 9 7 7 7 7 7 ; ; ; ; O O O O O O O o o o o o o o o o o o o o O + - * f.S.< - + o . = o X DXDXDXDXDXDXDXDXDXDXDXDX",
"DXDXDXDXDXDXDXDXDXDXDXDXDXa a 0 O 7 e i z t.rXZ c p i u u u u d q q q q q q q u u S l.}.e.=.,.<.,.R %.-.=.| | #.p.p.=.k.+Xz.}.@X=X<X .q u q 0 0 7 7 7 7 7 7 ; ; ; ; O O O O O O O o o o o o o o o o o o o O + = - V tXJ - = + O = O X DXDXDXDXDXDXDXDXDXDXDXDXDX",
"DXDXDXDXDXDXDXDXDXDXDXDXDXDXa u + 7 0 w c Z wXy.v c p u u u u u q q q q q q q q q i D E }.( =.s.k.1.=.,._ +.^ *.z.m.x.x.,XM.@X*X` 7.4.u 0 0 0 0 0 7 7 7 7 7 ; ; ; ; O O O O O O O o o o o o o o o o o o o o + - < V.V.< - + O . = o o DXDXDXDXDXDXDXDXDXDXDXDXDX",
"DXDXDXDXDXDXDXDXDXDXDXDXDXDXa a 8 + 0 e y z $.uXP c p i i u u u u q q q q q q q q q C D T ` x.8.5.p.,.z.+.^ ! / _ .X3X7X<X,Xm.T u F L e 0 0 0 0 0 7 7 7 7 7 ; ; ; ; @ O O O O O O o o o o o o o o o o o O + = & U tXV - = + . + O X DXDXDXDXDXDXDXDXDXDXDXDXDXDX",
"DXDXDXDXDXDXDXDXDXDXDXDXDXDXDXa a ; ; q t y C Z.Z.C c p i u u u u u e q q q e q q q i D s P +.=./.N..XQ.6.| ,.k.|.=XjX=Xl.W S t q q q q 0 0 0 0 0 7 7 7 7 7 ; ; ; ; @ O O O O O o o o o o o o o o o o o + # - g >Xu., = + o . + o X DXDXDXDXDXDXDXDXDXDXDXDXDXDX",
"DXDXDXDXDXDXDXDXDXDXDXDXDXDXDXa a q + 8 0 t y K uX=.v c p i u u u u e u e e q q q q q q q D S +.U.( l.z.u.z.{.' l.` E S a q A Z q q q q 0 0 0 0 0 7 7 7 7 7 ; ; ; ; ; O O O O O O o o o o o o o o o o O + - , t.~.g - + O o + o X DXDXDXDXDXDXDXDXDXDXDXDXDXDXDX",
"DXDXDXDXDXDXDXDXDXDXDXDXDXDXDXDXa a ; ; 0 e y z r.iXP c c i i u u u u u u u q q q q q q q q i ....e c p i L S a i q 0 u S u t i q q q q 0 0 0 0 0 7 7 7 7 ; ; ; ; ; @ @ O O O O O o o o o o o o o o O + = & K tXL - = + o o +   X DXDXDXDXDXDXDXDXDXDXDXDXDXDXDX",
"DXDXDXDXDXDXDXDXDXDXDXDXDXDXDXDXDXa u O ; q e y C Z.>XZ c c i i a u u u u u q u q q q q q q u i i q e q q y q q q q q q L L q q q q q q 0 0 0 9 9 7 7 7 7 7 ; ; ; ; @ O O O O O O O o o o o o o o O + = - B wXi., = = o . + o X DXDXDXDXDXDXDXDXDXDXDXDXDXDXDXDX",
"DXDXDXDXDXDXDXDXDXDXDXDXDXDXDXDXDXa a 8 @ 8 q t b H eXv.N c c i a a u u u u u u d q e e e q q q q q q q q q q q q q q q u t q q q q q q 0 0 0 9 9 7 7 7 7 ; ; ; ; ; O O O O O O O O o o o o o O O + = - f Z.V.6 - = O o + O X o DXDXDXDXDXDXDXDXDXDXDXDXDXDXDXDX",
"DXDXDXDXDXDXDXDXDXDXDXDXDXDXDXDXDXDXa a ; ; 0 q i l U uXu.v c p i i i u u u u u u u u u q q q q q q q q q q q q q q q q q q q q q q q q 0 0 0 9 9 7 7 7 7 ; ; ; ; ; @ O O O O O O O o o o O O O + = - 1 b.>Xh - = + O . + o X DXDXDXDXDXDXDXDXDXDXDXDXDXDXDXDXDX",
"DXDXDXDXDXDXDXDXDXDXDXDXDXDXDXDXDXDXDXs u + 7 q 0 y l $.pX$.v c p i i u u u u u u u u u u q q q q q q q q q q q q q q q q q q q q q q q q 0 0 7 7 7 7 7 7 7 ; ; ; ; ; O O O O O O O o O O O O + = - < r.rXZ - = = O . + o   DXDXDXDXDXDXDXDXDXDXDXDXDXDXDXDXDXDX",
"DXDXDXDXDXDXDXDXDXDXDXDXDXDXDXDXDXDXDXa a 0 @ ; q w y x u.pX+.v c p i i a u a u u u u d q q q q q q q q u q q q q q q q q q q q q q q q 0 0 0 9 7 7 7 7 7 ; ; ; ; ; ; O O O O O O O O O O O + # - , #.iXK - = ; O o + o   DXDXDXDXDXDXDXDXDXDXDXDXDXDXDXDXDXDXDX",
"DXDXDXDXDXDXDXDXDXDXDXDXDXDXDXDXDXDXDXDXa a ; @ 7 0 e y x y.iX~ v c p i i a a u a u u u u d e q q q q e q q q q q q q q q q q q q q q q 0 0 0 0 9 7 7 7 7 ; ; ; ; ; ; O O O O O O O O O + + # - , #.iXU , - = O O + O o   DXDXDXDXDXDXDXDXDXDXDXDXDXDXDXDXDXDXDX",
"DXDXDXDXDXDXDXDXDXDXDXDXDXDXDXDXDXDXDXDXDXa u @ ; 0 q t y x y.iX@.v c c p i i u u u u u u u u u e q q q q u u q q q q q q q q q q q q q 0 0 0 0 9 7 7 7 7 ; ; ; ; ; ; ; O O O O O O O + + = - 1 r.iXU , - = @ O o + o   DXDXDXDXDXDXDXDXDXDXDXDXDXDXDXDXDXDXDXDX",
"DXDXDXDXDXDXDXDXDXDXDXDXDXDXDXDXDXDXDXDXDXa a q + ; 0 8 e y x t.pX#.v c c p i i i u u u u u u u u u u q u u e q q q q q q q q q q q q q 0 0 0 0 0 9 7 7 7 7 ; ; ; ; ; ; @ O @ O @ @ + = = - f b.rXL & = = ; O . + o   DXDXDXDXDXDXDXDXDXDXDXDXDXDXDXDXDXDXDXDXDX",
"DXDXDXDXDXDXDXDXDXDXDXDXDXDXDXDXDXDXDXDXDXDXa a q + ; 8 8 e y x #.pXf.C c c p p i a u a u a u u u u u e u u e q q q q q q q q q q q q q 0 0 0 0 8 7 7 7 7 7 7 ; ; ; ; ; ; @ @ ; @ = = = - h S.>XH , = + ; O + + o   DXDXDXDXDXDXDXDXDXDXDXDXDXDXDXDXDXDXDXDXDXDX",
"DXDXDXDXDXDXDXDXDXDXDXDXDXDXDXDXDXDXDXDXDXDXDXa a 0 O ; 0 0 w y l ~ rXZ.L v c c i i a a a u u u u u u u u u e q q q q e q q q q q q q q 0 0 0 0 0 7 7 7 7 7 7 ; ; ; ; ; ; ; ; ; = = - , J >XS.k , - = ; o + + o X DXDXDXDXDXDXDXDXDXDXDXDXDXDXDXDXDXDXDXDXDXDXDX",
"DXDXDXDXDXDXDXDXDXDXDXDXDXDXDXDXDXDXDXDXDXDXDXDXa u 8 + ; 8 0 w t y L ^.iX@.v c c p i i i u u u u u u u u e e q q q q e q q q q q q q q 0 0 0 0 0 8 7 7 7 7 7 ; ; ; ; ; ; ; = = - - f #.tXt.f - = : @ O + + o X DXDXDXDXDXDXDXDXDXDXDXDXDXDXDXDXDXDXDXDXDXDXDXDX",
"DXDXDXDXDXDXDXDXDXDXDXDXDXDXDXDXDXDXDXDXDXDXDXDXDXu u 0 + ; 7 0 0 t y C f.pXb.Z c c c p i i i i u u u u u u e u q e q q q q q q q q q q 0 0 0 0 0 8 7 7 7 7 7 7 ; ; ; : : : - - < H Z.wXU 1 - = ; ; @ + = o   DXDXDXDXDXDXDXDXDXDXDXDXDXDXDXDXDXDXDXDXDXDXDXDXDX",
"DXDXDXDXDXDXDXDXDXDXDXDXDXDXDXDXDXDXDXDXDXDXDXDXDXDXu a q + ; ; 0 0 t y z U ~.eX$.C c c p p i i u u u u u u u u u u e e q q q q q q q q 0 0 0 0 0 8 8 8 7 7 ; : : : : : 4 , , h t.tXb.M , - = ; + O = ; o X DXDXDXDXDXDXDXDXDXDXDXDXDXDXDXDXDXDXDXDXDXDXDXDXDXDX",
"DXDXDXDXDXDXDXDXDXDXDXDXDXDXDXDXDXDXDXDXDXDXDXDXDXDXDXu u 0 + @ ; 0 0 w w y B t.iXZ.^ N c c c y i i i u u u u u u u u u e e q q q q q q q 0 0 0 0 0 8 8 8 : > > : > 4 4 < h @.>X^.U 1 - = : ; @ O + ; o o DXDXDXDXDXDXDXDXDXDXDXDXDXDXDXDXDXDXDXDXDXDXDXDXDXDXDX",
"DXDXDXDXDXDXDXDXDXDXDXDXDXDXDXDXDXDXDXDXDXDXDXDXDXDXDXDXq d q ; + ; 8 0 w w y l J v.iXZ.^ C z c c c p p i i u u u u u u u e e u u e e e q 0 0 0 0 0 0 0 > > 2 4 4 4 < M #.~.wX$.f - - = ; ; ; + = @ o X DXDXDXDXDXDXDXDXDXDXDXDXDXDXDXDXDXDXDXDXDXDXDXDXDXDXDXDX",
"DXDXDXDXDXDXDXDXDXDXDXDXDXDXDXDXDXDXDXDXDXDXDXDXDXDXDXDXDXDXq q 8 = ; ; 8 0 w y y z K V.iXZ.@.Z x v c c c y y i i i i t t t t t t t t w w w w w w w 2 2 2 2 3 1 f Z t.[.>X#.h , - - = ; @ + = : O o X DXDXDXDXDXDXDXDXDXDXDXDXDXDXDXDXDXDXDXDXDXDXDXDXDXDXDXDXDX",
"DXDXDXDXDXDXDXDXDXDXDXDXDXDXDXDXDXDXDXDXDXDXDXDXDXDXDXDXDXDXDXq u q ; + ; 0 8 e w y y g H f.eXrXv.~ Z x z l c c y y y y y y y y y y y y y w r y y 5 3 3 3 g V $.Z.yXZ.Y g , , - - ; ; O + : ; o o X DXDXDXDXDXDXDXDXDXDXDXDXDXDXDXDXDXDXDXDXDXDXDXDXDXDXDXDXDXDX",
"DXDXDXDXDXDXDXDXDXDXDXDXDXDXDXDXDXDXDXDXDXDXDXDXDXDXDXDXDXDXDXDXq q q : = ; 8 8 0 > w w r 5 A @.Z.rXeXV.#.P A x z z z z z l l l y y l l l 5 5 5 g h A U t.^.rX>Xt.H 1 , - - = : ; @ + = : @ o X DXDXDXDXDXDXDXDXDXDXDXDXDXDXDXDXDXDXDXDXDXDXDXDXDXDXDXDXDXDXDXDX",
"DXDXDXDXDXDXDXDXDXDXDXDXDXDXDXDXDXDXDXDXDXDXDXDXDXDXDXDXDXDXDXDXDXDXq q 0 : ; ; 7 : 8 0 w r r 5 g A ~ b.>XtXeX^.b.r.+.U J H A A A A V G J U @.t.V.~.rXeXZ.i.H f 1 , 4 = = ; ; ; @ = : ; o X X DXDXDXDXDXDXDXDXDXDXDXDXDXDXDXDXDXDXDXDXDXDXDXDXDXDXDXDXDXDXDXDXDX",
"DXDXDXDXDXDXDXDXDXDXDXDXDXDXDXDXDXDXDXDXDXDXDXDXDXDXDXDXDXDXDXDXDXDXDXq q q 8 : + ; ; 8 0 w w 2 w 2 3 g h Z Y u.V.^.eXrXrXrXrXrXeXeXrXtXtXrX>XZ.f.@.J k f < , : - : : ; ; @ @ + : : @ o o DXDXDXDXDXDXDXDXDXDXDXDXDXDXDXDXDXDXDXDXDXDXDXDXDXDXDXDXDXDXDXDXDXDXDX",
"DXDXDXDXDXDXDXDXDXDXDXDXDXDXDXDXDXDXDXDXDXDXDXDXDXDXDXDXDXDXDXDXDXDXDXDXDXq q 0 8 ; ; ; 8 7 8 : 0 0 2 w 2 2 3 3 g h B A G J P U U P K H V k h f 1 < , , 4 - : : = ; ; ; + = : : O o o o DXDXDXDXDXDXDXDXDXDXDXDXDXDXDXDXDXDXDXDXDXDXDXDXDXDXDXDXDXDXDXDXDXDXDXDX",
"DXDXDXDXDXDXDXDXDXDXDXDXDXDXDXDXDXDXDXDXDXDXDXDXDXDXDXDXDXDXDXDXDXDXDXDXDXDXDXq 0 0 8 : : ; ; ; ; 8 : 0 > > 2 2 2 2 < < < < < 3 3 < < 4 4 4 4 4 4 > : : : ; : ; ; + + : : : @ o o o DXDXDXDXDXDXDXDXDXDXDXDXDXDXDXDXDXDXDXDXDXDXDXDXDXDXDXDXDXDXDXDXDXDXDXDXDXDX",
"DXDXDXDXDXDXDXDXDXDXDXDXDXDXDXDXDXDXDXDXDXDXDXDXDXDXDXDXDXDXDXDXDXDXDXDXDXDXDXDXDXq 0 0 8 : : : : ; ; ; 7 ; 0 > > > : > : : 2 2 2 2 : : : : : : : : ; ; ; ; ; ; : : : ; O O O o DXDXDXDXDXDXDXDXDXDXDXDXDXDXDXDXDXDXDXDXDXDXDXDXDXDXDXDXDXDXDXDXDXDXDXDXDXDXDXDX",
"DXDXDXDXDXDXDXDXDXDXDXDXDXDXDXDXDXDXDXDXDXDXDXDXDXDXDXDXDXDXDXDXDXDXDXDXDXDXDXDXDXDXDX9 0 9 9 8 : : : = ; ; ; 7 ; 7 ; ; ; ; : : : > : : ; ; ; ; ; ; ; ; ; : : : ; @ O O o o DXDXDXDXDXDXDXDXDXDXDXDXDXDXDXDXDXDXDXDXDXDXDXDXDXDXDXDXDXDXDXDXDXDXDXDXDXDXDXDXDXDX",
"DXDXDXDXDXDXDXDXDXDXDXDXDXDXDXDXDXDXDXDXDXDXDXDXDXDXDXDXDXDXDXDXDXDXDXDXDXDXDXDXDXDXDXDXDX7 7 9 7 7 7 ; : > : : ; : ; ; ; ; ; ; ; ; ; : ; ; ; : : > > > : ; O O O O o DXDXDXDXDXDXDXDXDXDXDXDXDXDXDXDXDXDXDXDXDXDXDXDXDXDXDXDXDXDXDXDXDXDXDXDXDXDXDXDXDXDXDXDXDX",
"DXDXDXDXDXDXDXDXDXDXDXDXDXDXDXDXDXDXDXDXDXDXDXDXDXDXDXDXDXDXDXDXDXDXDXDXDXDXDXDXDXDXDXDXDXDXDXDX7 ; 7 7 7 7 ; ; ; : : : > > > : > > > > > : : ; ; % O O O O o o DXDXDXDXDXDXDXDXDXDXDXDXDXDXDXDXDXDXDXDXDXDXDXDXDXDXDXDXDXDXDXDXDXDXDXDXDXDXDXDXDXDXDXDXDXDXDXDX",
"DXDXDXDXDXDXDXDXDXDXDXDXDXDXDXDXDXDXDXDXDXDXDXDXDXDXDXDXDXDXDXDXDXDXDXDXDXDXDXDXDXDXDXDXDXDXDXDXDXDXDXDXDX; ; ; ; ; ; ; ; ; ; % % O O O O O O O O o o o DXDXDXDXDXDXDXDXDXDXDXDXDXDXDXDXDXDXDXDXDXDXDXDXDXDXDXDXDXDXDXDXDXDXDXDXDXDXDXDXDXDXDXDXDXDXDXDXDXDXDXDX",
"DXDXDXDXDXDXDXDXDXDXDXDXDXDXDXDXDXDXDXDXDXDXDXDXDXDXDXDXDXDXDXDXDXDXDXDXDXDXDXDXDXDXDXDXDXDXDXDXDXDXDXDXDXDXDXDXDXDXDX% % O O O O O O O O DXDXDXDXDXDXDXDXDXDXDXDXDXDXDXDXDXDXDXDXDXDXDXDXDXDXDXDXDXDXDXDXDXDXDXDXDXDXDXDXDXDXDXDXDXDXDXDXDXDXDXDXDXDXDXDXDXDXDX",
"DXDXDXDXDXDXDXDXDXDXDXDXDXDXDXDXDXDXDXDXDXDXDXDXDXDXDXDXDXDXDXDXDXDXDXDXDXDXDXDXDXDXDXDXDXDXDXDXDXDXDXDXDXDXDXDXDXDXDXDXDXDXDXDXDXDXDXDXDXDXDXDXDXDXDXDXDXDXDXDXDXDXDXDXDXDXDXDXDXDXDXDXDXDXDXDXDXDXDXDXDXDXDXDXDXDXDXDXDXDXDXDXDXDXDXDXDXDXDXDXDXDXDXDXDXDXDXDX",
"DXDXDXDXDXDXDXDXDXDXDXDXDXDXDXDXDXDXDXDXDXDXDXDXDXDXDXDXDXDXDXDXDXDXDXDXDXDXDXDXDXDXDXDXDXDXDXDXDXDXDXDXDXDXDXDXDXDXDXDXDXDXDXDXDXDXDXDXDXDXDXDXDXDXDXDXDXDXDXDXDXDXDXDXDXDXDXDXDXDXDXDXDXDXDXDXDXDXDXDXDXDXDXDXDXDXDXDXDXDXDXDXDXDXDXDXDXDXDXDXDXDXDXDXDXDXDXDX",
"DXDXDXDXDXDXDXDXDXDXDXDXDXDXDXDXDXDXDXDXDXDXDXDXDXDXDXDXDXDXDXDXDXDXDXDXDXDXDXDXDXDXDXDXDXDXDXDXDXDXDXDXDXDXDXDXDXDXDXDXDXDXDXDXDXDXDXDXDXDXDXDXDXDXDXDXDXDXDXDXDXDXDXDXDXDXDXDXDXDXDXDXDXDXDXDXDXDXDXDXDXDXDXDXDXDXDXDXDXDXDXDXDXDXDXDXDXDXDXDXDXDXDXDXDXDXDXDX",
"DXDXDXDXDXDXDXDXDXDXDXDXDXDXDXDXDXDXDXDXDXDXDXDXDXDXDXDXDXDXDXDXDXDXDXDXDXDXDXDXDXDXDXDXDXDXDXDXDXDXDXDXDXDXDXDXDXDXDXDXDXDXDXDXDXDXDXDXDXDXDXDXDXDXDXDXDXDXDXDXDXDXDXDXDXDXDXDXDXDXDXDXDXDXDXDXDXDXDXDXDXDXDXDXDXDXDXDXDXDXDXDXDXDXDXDXDXDXDXDXDXDXDXDXDXDXDXDX",
"DXDXDXDXDXDXDXDXDXDXDXDXDXDXDXDXDXDXDXDXDXDXDXDXDXDXDXDXDXDXDXDXDXDXDXDXDXDXDXDXDXDXDXDXDXDXDXDXDXDXDXDXDXDXDXDXDXDXDXDXDXDXDXDXDXDXDXDXDXDXDXDXDXDXDXDXDXDXDXDXDXDXDXDXDXDXDXDXDXDXDXDXDXDXDXDXDXDXDXDXDXDXDXDXDXDXDXDXDXDXDXDXDXDXDXDXDXDXDXDXDXDXDXDXDXDXDXDX",
"DXDXDXDXDXDXDXDXDXDXDXDXDXDXDXDXDXDXDXDXDXDXDXDXDXDXDXDXDXDXDXDXDXDXDXDXDXDXDXDXDXDXDXDXDXDXDXDXDXDXDXDXDXDXDXDXDXDXDXDXDXDXDXDXDXDXDXDXDXDXDXDXDXDXDXDXDXDXDXDXDXDXDXDXDXDXDXDXDXDXDXDXDXDXDXDXDXDXDXDXDXDXDXDXDXDXDXDXDXDXDXDXDXDXDXDXDXDXDXDXDXDXDXDXDXDXDXDX",
"DXDXDXDXDXDXDXDXDXDXDXDXDXDXDXDXDXDXDXDXDXDXDXDXDXDXDXDXDXDXDXDXDXDXDXDXDXDXDXDXDXDXDXDXDXDXDXDXDXDXDXDXDXDXDXDXDXDXDXDXDXDXDXDXDXDXDXDXDXDXDXDXDXDXDXDXDXDXDXDXDXDXDXDXDXDXDXDXDXDXDXDXDXDXDXDXDXDXDXDXDXDXDXDXDXDXDXDXDXDXDXDXDXDXDXDXDXDXDXDXDXDXDXDXDXDXDXDX",
"DXDXDXDXDXDXDXDXDXDXDXDXDXDXDXDXDXDXDXDXDXDXDXDXDXDXDXDXDXDXDXDXDXDXDXDXDXDXDXDXDXDXDXDXDXDXDXDXDXDXDXDXDXDXDXDXDXDXDXDXDXDXDXDXDXDXDXDXDXDXDXDXDXDXDXDXDXDXDXDXDXDXDXDXDXDXDXDXDXDXDXDXDXDXDXDXDXDXDXDXDXDXDXDXDXDXDXDXDXDXDXDXDXDXDXDXDXDXDXDXDXDXDXDXDXDXDXDX"
};
