/* XPM */
static const char *ordexcoin256[] = {
/* columns rows colors chars-per-pixel */
"256 256 256 2 ",
"   c #16140C",
".  c #19160E",
"X  c #1C190F",
"o  c #161613",
"O  c #191713",
"+  c #171815",
"@  c #1B1A16",
"#  c #1F1F1C",
"$  c #1D1D19",
"%  c #171C18",
"&  c #221E14",
"*  c #201F1A",
"=  c #281F11",
"-  c #281D0D",
";  c #1F201C",
":  c #2E220E",
">  c #34240E",
",  c #3A290E",
"<  c #262015",
"1  c #2B2314",
"2  c #21211E",
"3  c #23221D",
"4  c #2A251B",
"5  c #2E291D",
"6  c #2F2817",
"7  c #322613",
"8  c #342915",
"9  c #3B2B13",
"0  c #332B1C",
"q  c #3A2E1C",
"w  c #312718",
"e  c #3D311E",
"r  c #252522",
"t  c #282723",
"y  c #272824",
"u  c #2A2926",
"i  c #2D2C29",
"p  c #332D23",
"a  c #302F2B",
"s  c #382F21",
"d  c #2F302C",
"f  c #363025",
"g  c #3C3324",
"h  c #33312C",
"j  c #3B352B",
"k  c #3E382C",
"l  c #3E3826",
"z  c #343532",
"x  c #393934",
"c  c #2F3331",
"v  c #1F2020",
"b  c #422E12",
"n  c #43341D",
"m  c #493515",
"M  c #523D17",
"N  c #44300E",
"B  c #423624",
"V  c #443926",
"C  c #4B3B24",
"Z  c #433A2B",
"A  c #4A3D2B",
"S  c #433727",
"D  c #433E33",
"F  c #523E23",
"G  c #5A441A",
"H  c #634C1C",
"J  c #6B531D",
"K  c #574526",
"L  c #484236",
"P  c #574A37",
"I  c #534732",
"U  c #644C25",
"Y  c #6B5427",
"T  c #745B28",
"R  c #685538",
"E  c #775A37",
"W  c #6C4C35",
"Q  c #7A642B",
"!  c #7B6435",
"~  c #595347",
"^  c #52504B",
"/  c #675946",
"(  c #705B4E",
")  c #776449",
"_  c #776856",
"`  c #6E6557",
"'  c #75706C",
"]  c #5F615F",
"[  c #3E403F",
"{  c #895832",
"}  c #86672B",
"|  c #856A35",
" . c #8B7438",
".. c #95783B",
"X. c #976C2F",
"o. c #A77B38",
"O. c #AC7331",
"+. c #A16C1A",
"@. c #876947",
"#. c #967946",
"$. c #856A55",
"%. c #887458",
"&. c #977958",
"*. c #936E4A",
"=. c #A67B45",
"-. c #AB744E",
";. c #897868",
":. c #957966",
">. c #877B77",
",. c #8E746C",
"<. c #A87C67",
"1. c #895D49",
"2. c #C6783A",
"3. c #B88639",
"4. c #B38431",
"5. c #A7812D",
"6. c #D08F16",
"7. c #C89439",
"8. c #D09132",
"9. c #DDA338",
"0. c #EAA628",
"q. c #E7A838",
"w. c #F3B134",
"e. c #E79F21",
"r. c #9B8646",
"t. c #998359",
"y. c #A6884A",
"u. c #B68948",
"i. c #A88758",
"p. c #B58B58",
"a. c #AB9755",
"s. c #B79758",
"d. c #AC924D",
"f. c #B6A35C",
"g. c #998468",
"h. c #8A827A",
"j. c #978677",
"k. c #8F8468",
"l. c #A78967",
"z. c #B58A67",
"x. c #B99768",
"c. c #A68B76",
"v. c #A99478",
"b. c #B89877",
"n. c #B28D73",
"m. c #BBA865",
"M. c #BBA478",
"N. c #C89648",
"B. c #D59C47",
"V. c #C79958",
"C. c #CB8F4F",
"Z. c #D9A347",
"A. c #D7A558",
"S. c #CAA05B",
"D. c #E6AA46",
"F. c #E5AC57",
"G. c #E9B459",
"H. c #F1B64E",
"J. c #C49B67",
"K. c #C69774",
"L. c #C8A669",
"P. c #D7AA67",
"I. c #C6B46C",
"U. c #C9A678",
"Y. c #D5AC77",
"T. c #CAB976",
"R. c #D9B679",
"E. c #DCB26C",
"W. c #E8B769",
"Q. c #F4BC66",
"!. c #E6B977",
"~. c #EBB56F",
"^. c #E19D44",
"/. c #D3C37C",
"(. c #CEC17C",
"). c #F5C579",
"_. c #EFC271",
"`. c #F7C25F",
"'. c #7B7B85",
"]. c #8A8786",
"[. c #968B86",
"{. c #9B938A",
"}. c #9A9696",
"|. c #908D95",
" X c #A58D84",
".X c #A89789",
"XX c #B69B86",
"oX c #A69A96",
"OX c #B49A92",
"+X c #BAA489",
"@X c #ABA29A",
"#X c #B8A798",
"$X c #B9AC98",
"%X c #9999A4",
"&X c #AAA6A6",
"*X c #B6ABA6",
"=X c #BAB2AA",
"-X c #B8B6B6",
";X c #ADAEB4",
":X c #A1A1A8",
">X c #C7A987",
",X c #D8B689",
"<X c #C6AB97",
"1X c #CAB499",
"2X c #D7BA97",
"3X c #D1AE88",
"4X c #E4BC87",
"5X c #E3BA94",
"6X c #C8B7A8",
"7X c #D4BBA6",
"8X c #C6BBB4",
"9X c #C9B4AB",
"0X c #CAA48F",
"qX c #D8C987",
"wX c #DAC697",
"eX c #DDD18F",
"rX c #E9C489",
"tX c #F5C887",
"yX c #E8C797",
"uX c #F4CC95",
"iX c #E5D897",
"pX c #F0D394",
"aX c #EBE29C",
"sX c #D8C3A8",
"dX c #CBC2B9",
"fX c #D7C7B8",
"gX c #D5C9B1",
"hX c #E6CAA6",
"jX c #E9D8A7",
"kX c #F5D4A7",
"lX c #E9D6BA",
"zX c #F4DBB7",
"xX c #E7CDB0",
"cX c #EDE3A7",
"vX c #F2EAAA",
"bX c #F4ECB4",
"nX c #F5EBBA",
"mX c #FAF3BB",
"MX c #F8F3B6",
"NX c #F1EAB2",
"BX c #B9BDC3",
"VX c #D9D8D5",
"CX c #D1CBC7",
"ZX c #E8D9C6",
"AX c #E7DBD0",
"SX c #F4E9C7",
"DX c #F9F3C4",
"FX c #EAE3D9",
"GX c #F3E9D7",
"HX c #F3E9D0",
"JX c #F9F5E9",
"KX c #F2EFEA",
"LX c #C1C0C2",
"PX c None",
"IX c black",
"UX c #827D81",
/* pixels */
"PXPXPXPXPXPXPXPXPXPXPXPXPXPXPXPXPXPXPXPXPXPXPXPXPXPXPXPXPXPXPXPXPXPXPXPXPXPXPXPXPXPXPXPXPXPXPXPXPXPXPXPXPXPXPXPXPXPXPXPXPXPXPXPXPXPXPXPXPXPXPXPXPXPXPXPXPXPXPXPXPXPXPXPXPXPXPXPXPXPXPXPXPXPXPXPXPXPXPXPXPXPXPXPXPXPXPXPXPXPXPXPXPXPXPXPXPXPXPXPXPXPXPXPXPXPXPXPXPXPXPXPXPXPXPXPXPXPXPXPXPXPXPXPXPXPXPXPXPXPXPXPXPXPXPXPXPXPXPXPXPXPXPXPXPXPXPXPXPXPXPXPXPXPXPXPXPXPXPXPXPXPXPXPXPXPXPXPXPXPXPXPXPXPXPXPXPXPXPXPXPXPXPXPXPXPXPXPXPXPXPXPXPXPXPXPXPXPXPXPXPXPXPXPXPXPXPXPXPXPXPXPXPXPXPXPXPXPXPXPXPXPXPXPXPXPXPXPXPXPXPXPXPXPXPXPX",
"PXPXPXPXPXPXPXPXPXPXPXPXPXPXPXPXPXPXPXPXPXPXPXPXPXPXPXPXPXPXPXPXPXPXPXPXPXPXPXPXPXPXPXPXPXPXPXPXPXPXPXPXPXPXPXPXPXPXPXPXPXPXPXPXPXPXPXPXPXPXPXPXPXPXPXPXPXPXPXPXPXPXPXPXPXPXPXPXPXPXPXPXPXPXPXPXPXPXPXPXPXPXPXPXPXPXPXPXPXPXPXPXPXPXPXPXPXPXPXPXPXPXPXPXPXPXPXPXPXPXPXPXPXPXPXPXPXPXPXPXPXPXPXPXPXPXPXPXPXPXPXPXPXPXPXPXPXPXPXPXPXPXPXPXPXPXPXPXPXPXPXPXPXPXPXPXPXPXPXPXPXPXPXPXPXPXPXPXPXPXPXPXPXPXPXPXPXPXPXPXPXPXPXPXPXPXPXPXPXPXPXPXPXPXPXPXPXPXPXPXPXPXPXPXPXPXPXPXPXPXPXPXPXPXPXPXPXPXPXPXPXPXPXPXPXPXPXPXPXPXPXPXPXPXPXPX",
"PXPXPXPXPXPXPXPXPXPXPXPXPXPXPXPXPXPXPXPXPXPXPXPXPXPXPXPXPXPXPXPXPXPXPXPXPXPXPXPXPXPXPXPXPXPXPXPXPXPXPXPXPXPXPXPXPXPXPXPXPXPXPXPXPXPXPXPXPXPXPXPXPXPXPXPXPXPXPXPXPXPXPXPXPXPXPXPXPXPXPXPXPXPXPXPXPXPXPXPXPXPXPXPXPXPXPXPXPXPXPXPXPXPXPXPXPXPXPXPXPXPXPXPXPXPXPXPXPXPXPXPXPXPXPXPXPXPXPXPXPXPXPXPXPXPXPXPXPXPXPXPXPXPXPXPXPXPXPXPXPXPXPXPXPXPXPXPXPXPXPXPXPXPXPXPXPXPXPXPXPXPXPXPXPXPXPXPXPXPXPXPXPXPXPXPXPXPXPXPXPXPXPXPXPXPXPXPXPXPXPXPXPXPXPXPXPXPXPXPXPXPXPXPXPXPXPXPXPXPXPXPXPXPXPXPXPXPXPXPXPXPXPXPXPXPXPXPXPXPXPXPXPXPXPXPX",
"PXPXPXPXPXPXPXPXPXPXPXPXPXPXPXPXPXPXPXPXPXPXPXPXPXPXPXPXPXPXPXPXPXPXPXPXPXPXPXPXPXPXPXPXPXPXPXPXPXPXPXPXPXPXPXPXPXPXPXPXPXPXPXPXPXPXPXPXPXPXPXPXPXPXPXPXPXPXPXPXPXPXPXPXPXPXPXPXPXPXPXPXPXPXPXPXPXPXPXPXPXPXPXPXPXPXPXPXPXPXPXPXPXPXPXPXPXPXPXPXPXPXPXPXPXPXPXPXPXPXPXPXPXPXPXPXPXPXPXPXPXPXPXPXPXPXPXPXPXPXPXPXPXPXPXPXPXPXPXPXPXPXPXPXPXPXPXPXPXPXPXPXPXPXPXPXPXPXPXPXPXPXPXPXPXPXPXPXPXPXPXPXPXPXPXPXPXPXPXPXPXPXPXPXPXPXPXPXPXPXPXPXPXPXPXPXPXPXPXPXPXPXPXPXPXPXPXPXPXPXPXPXPXPXPXPXPXPXPXPXPXPXPXPXPXPXPXPXPXPXPXPXPXPXPXPX",
"PXPXPXPXPXPXPXPXPXPXPXPXPXPXPXPXPXPXPXPXPXPXPXPXPXPXPXPXPXPXPXPXPXPXPXPXPXPXPXPXPXPXPXPXPXPXPXPXPXPXPXPXPXPXPXPXPXPXPXPXPXPXPXPXPXPXPXPXPXPXPXPXPXPXPXPXPXPXPXPXPXPXPXPXPXPXPXPXPXPXPXPXPXPXPXPXPXPXPXPXPXPXPXPXPXPXPXPXPXPXPXPXPXPXPXPXPXPXPXPXPXPXPXPXPXPXPXPXPXPXPXPXPXPXPXPXPXPXPXPXPXPXPXPXPXPXPXPXPXPXPXPXPXPXPXPXPXPXPXPXPXPXPXPXPXPXPXPXPXPXPXPXPXPXPXPXPXPXPXPXPXPXPXPXPXPXPXPXPXPXPXPXPXPXPXPXPXPXPXPXPXPXPXPXPXPXPXPXPXPXPXPXPXPXPXPXPXPXPXPXPXPXPXPXPXPXPXPXPXPXPXPXPXPXPXPXPXPXPXPXPXPXPXPXPXPXPXPXPXPXPXPXPXPXPXPX",
"PXPXPXPXPXPXPXPXPXPXPXPXPXPXPXPXPXPXPXPXPXPXPXPXPXPXPXPXPXPXPXPXPXPXPXPXPXPXPXPXPXPXPXPXPXPXPXPXPXPXPXPXPXPXPXPXPXPXPXPXPXPXPXPXPXPXPXPXPXPXPXPXPXPXPXPXPXPXPXPXPXPXPXPXPXPXPXPXPXPXPXPXPXPXPXPXPXPXPXPXPXPXPXPXPXPXPXPXPXPXPXPXPXPXPXPXPXPXPXPXPXPXPXPXPXPXPXPXPXPXPXPXPXPXPXPXPXPXPXPXPXPXPXPXPXPXPXPXPXPXPXPXPXPXPXPXPXPXPXPXPXPXPXPXPXPXPXPXPXPXPXPXPXPXPXPXPXPXPXPXPXPXPXPXPXPXPXPXPXPXPXPXPXPXPXPXPXPXPXPXPXPXPXPXPXPXPXPXPXPXPXPXPXPXPXPXPXPXPXPXPXPXPXPXPXPXPXPXPXPXPXPXPXPXPXPXPXPXPXPXPXPXPXPXPXPXPXPXPXPXPXPXPXPXPXPX",
"PXPXPXPXPXPXPXPXPXPXPXPXPXPXPXPXPXPXPXPXPXPXPXPXPXPXPXPXPXPXPXPXPXPXPXPXPXPXPXPXPXPXPXPXPXPXPXPXPXPXPXPXPXPXPXPXPXPXPXPXPXPXPXPXPXPXPXPXPXPXPXPXPXPXPXPXPXPXPXPXPXPXPXPXPXPXPXPXPXPXPXPXPXPXPXPXPXPXPXPXPXPXPXPXPXPXPXPXPXPXPXPXPXPXPXPXPXPXPXPXPXPXPXPXPXPXPXPXPXPXPXPXPXPXPXPXPXPXPXPXPXPXPXPXPXPXPXPXPXPXPXPXPXPXPXPXPXPXPXPXPXPXPXPXPXPXPXPXPXPXPXPXPXPXPXPXPXPXPXPXPXPXPXPXPXPXPXPXPXPXPXPXPXPXPXPXPXPXPXPXPXPXPXPXPXPXPXPXPXPXPXPXPXPXPXPXPXPXPXPXPXPXPXPXPXPXPXPXPXPXPXPXPXPXPXPXPXPXPXPXPXPXPXPXPXPXPXPXPXPXPXPXPXPXPXPX",
"PXPXPXPXPXPXPXPXPXPXPXPXPXPXPXPXPXPXPXPXPXPXPXPXPXPXPXPXPXPXPXPXPXPXPXPXPXPXPXPXPXPXPXPXPXPXPXPXPXPXPXPXPXPXPXPXPXPXPXPXPXPXPXPXPXPXPXPXPXPXPXPXPXPXPXPXPXPXPXPXPXPXPXPXPXPXPXPXPXPXPXPXPXPXPXPXPXPXPXPXPXPXPXPXPXPXPXPXPXPXPXPXPXPXPXPXPXPXPXPXPXPXPXPXPXPXPXPXPXPXPXPXPXPXPXPXPXPXPXPXPXPXPXPXPXPXPXPXPXPXPXPXPXPXPXPXPXPXPXPXPXPXPXPXPXPXPXPXPXPXPXPXPXPXPXPXPXPXPXPXPXPXPXPXPXPXPXPXPXPXPXPXPXPXPXPXPXPXPXPXPXPXPXPXPXPXPXPXPXPXPXPXPXPXPXPXPXPXPXPXPXPXPXPXPXPXPXPXPXPXPXPXPXPXPXPXPXPXPXPXPXPXPXPXPXPXPXPXPXPXPXPXPXPXPXPX",
"PXPXPXPXPXPXPXPXPXPXPXPXPXPXPXPXPXPXPXPXPXPXPXPXPXPXPXPXPXPXPXPXPXPXPXPXPXPXPXPXPXPXPXPXPXPXPXPXPXPXPXPXPXPXPXPXPXPXPXPXPXPXPXPXPXPXPXPXPXPXPXPXPXPXPXPXPXPXPXPXPXPXPXPXPXPXPXPXPXPXPXPXPXPXPXPXPXPXPXPXPXPXPXPXPXPXPXPXPXPXPXPXPXPXPXPXPXPXPXPXPXPXPXPXPXPXPXPXPXPXPXPXPXPXPXPXPXPXPXPXPXPXPXPXPXPXPXPXPXPXPXPXPXPXPXPXPXPXPXPXPXPXPXPXPXPXPXPXPXPXPXPXPXPXPXPXPXPXPXPXPXPXPXPXPXPXPXPXPXPXPXPXPXPXPXPXPXPXPXPXPXPXPXPXPXPXPXPXPXPXPXPXPXPXPXPXPXPXPXPXPXPXPXPXPXPXPXPXPXPXPXPXPXPXPXPXPXPXPXPXPXPXPXPXPXPXPXPXPXPXPXPXPXPXPXPX",
"PXPXPXPXPXPXPXPXPXPXPXPXPXPXPXPXPXPXPXPXPXPXPXPXPXPXPXPXPXPXPXPXPXPXPXPXPXPXPXPXPXPXPXPXPXPXPXPXPXPXPXPXPXPXPXPXPXPXPXPXPXPXPXPXPXPXPXPXPXPXPXPXPXPXPXPXPXPXPXPXPXPXPXPXPXPXPXPXPXPXPXPXPXPXPXPXPXPXPXPXPXPXPXPXPXPXPXPXPXPXPXPXPXPXPXPXPXPXPXPXPXPXPXPXPXPXPXPXPXPXPXPXPXPXPXPXPXPXPXPXPXPXPXPXPXPXPXPXPXPXPXPXPXPXPXPXPXPXPXPXPXPXPXPXPXPXPXPXPXPXPXPXPXPXPXPXPXPXPXPXPXPXPXPXPXPXPXPXPXPXPXPXPXPXPXPXPXPXPXPXPXPXPXPXPXPXPXPXPXPXPXPXPXPXPXPXPXPXPXPXPXPXPXPXPXPXPXPXPXPXPXPXPXPXPXPXPXPXPXPXPXPXPXPXPXPXPXPXPXPXPXPXPXPXPXPX",
"PXPXPXPXPXPXPXPXPXPXPXPXPXPXPXPXPXPXPXPXPXPXPXPXPXPXPXPXPXPXPXPXPXPXPXPXPXPXPXPXPXPXPXPXPXPXPXPXPXPXPXPXPXPXPXPXPXPXPXPXPXPXPXPXPXPXPXPXPXPXPXPXPXPXPXPXPXPXPXPXPXPXPXPXPXPXPXPXPXPXPXPXPXPXPXPXPXPXPXPXPXPXPXPXPXPXPXPXPXPXPXPXPXPXPXPXPXPXPXPXPXPXPXPXPXPXPXPXPXPXPXPXPXPXPXPXPXPXPXPXPXPXPXPXPXPXPXPXPXPXPXPXPXPXPXPXPXPXPXPXPXPXPXPXPXPXPXPXPXPXPXPXPXPXPXPXPXPXPXPXPXPXPXPXPXPXPXPXPXPXPXPXPXPXPXPXPXPXPXPXPXPXPXPXPXPXPXPXPXPXPXPXPXPXPXPXPXPXPXPXPXPXPXPXPXPXPXPXPXPXPXPXPXPXPXPXPXPXPXPXPXPXPXPXPXPXPXPXPXPXPXPXPXPXPXPX",
"PXPXPXPXPXPXPXPXPXPXPXPXPXPXPXPXPXPXPXPXPXPXPXPXPXPXPXPXPXPXPXPXPXPXPXPXPXPXPXPXPXPXPXPXPXPXPXPXPXPXPXPXPXPXPXPXPXPXPXPXPXPXPXPXPXPXPXPXPXPXPXPXPXPXPXPXPXPXPXPXPXPXPXPXPXPXPXPXPXPXPXPXPXPXPXPXPXPXPXPXPXPXPXPXPXPXPXPXPXPXPXPXPXPXPXPXPXPXPXPXPXPXPXPXPXPXPXPXPXPXPXPXPXPXPXPXPXPXPXPXPXPXPXPXPXPXPXPXPXPXPXPXPXPXPXPXPXPXPXPXPXPXPXPXPXPXPXPXPXPXPXPXPXPXPXPXPXPXPXPXPXPXPXPXPXPXPXPXPXPXPXPXPXPXPXPXPXPXPXPXPXPXPXPXPXPXPXPXPXPXPXPXPXPXPXPXPXPXPXPXPXPXPXPXPXPXPXPXPXPXPXPXPXPXPXPXPXPXPXPXPXPXPXPXPXPXPXPXPXPXPXPXPXPXPXPX",
"PXPXPXPXPXPXPXPXPXPXPXPXPXPXPXPXPXPXPXPXPXPXPXPXPXPXPXPXPXPXPXPXPXPXPXPXPXPXPXPXPXPXPXPXPXPXPXPXPXPXPXPXPXPXPXPXPXPXPXPXPXPXPXPXPXPXPXPXPXPXPXPXPXPXPXPXPXPXPXPXPXPXPXPXPXPXPXPXPXPXPXPXPXPXPXPXPXPXPXPXPXPXPXPXPXPXPXPXPXPXPXPXPXPXPXPXPXPXPXPXPXPXPXPXPXPXPXPXPXPXPXPXPXPXPXPXPXPXPXPXPXPXPXPXPXPXPXPXPXPXPXPXPXPXPXPXPXPXPXPXPXPXPXPXPXPXPXPXPXPXPXPXPXPXPXPXPXPXPXPXPXPXPXPXPXPXPXPXPXPXPXPXPXPXPXPXPXPXPXPXPXPXPXPXPXPXPXPXPXPXPXPXPXPXPXPXPXPXPXPXPXPXPXPXPXPXPXPXPXPXPXPXPXPXPXPXPXPXPXPXPXPXPXPXPXPXPXPXPXPXPXPXPXPXPXPX",
"PXPXPXPXPXPXPXPXPXPXPXPXPXPXPXPXPXPXPXPXPXPXPXPXPXPXPXPXPXPXPXPXPXPXPXPXPXPXPXPXPXPXPXPXPXPXPXPXPXPXPXPXPXPXPXPXPXPXPXPXPXPXPXPXPXPXPXPXPXPXPXPXPXPXPXPXPXPXPXPXPXPXPXPXPXPXPXPXPXPXPXPXPXPXPXPXPXPXPXPXPXPXPXPXPXPXPXPXPXPXPXPXPXPXPXPXPXPXPXPXPXPXPXPXPXPXPXPXPXPXPXPXPXPXPXPXPXPXPXPXPXPXPXPXPXPXPXPXPXPXPXPXPXPXPXPXPXPXPXPXPXPXPXPXPXPXPXPXPXPXPXPXPXPXPXPXPXPXPXPXPXPXPXPXPXPXPXPXPXPXPXPXPXPXPXPXPXPXPXPXPXPXPXPXPXPXPXPXPXPXPXPXPXPXPXPXPXPXPXPXPXPXPXPXPXPXPXPXPXPXPXPXPXPXPXPXPXPXPXPXPXPXPXPXPXPXPXPXPXPXPXPXPXPXPXPX",
"PXPXPXPXPXPXPXPXPXPXPXPXPXPXPXPXPXPXPXPXPXPXPXPXPXPXPXPXPXPXPXPXPXPXPXPXPXPXPXPXPXPXPXPXPXPXPXPXPXPXPXPXPXPXPXPXPXPXPXPXPXPXPXPXPXPXPXPXPXPXPXPXPXPXPXPXPXPXPXPXPXPXPXPXPXPXPXPXPXPXPXPXPXPXPXPXPXPXPXPXPXPXPXPXPXPXPXPXPXPXPXPXPXPXPXPXPXPXPXPXPXPXPXPXPXPXPXPXPXPXPXPXPXPXPXPXPXPXPXPXPXPXPXPXPXPXPXPXPXPXPXPXPXPXPXPXPXPXPXPXPXPXPXPXPXPXPXPXPXPXPXPXPXPXPXPXPXPXPXPXPXPXPXPXPXPXPXPXPXPXPXPXPXPXPXPXPXPXPXPXPXPXPXPXPXPXPXPXPXPXPXPXPXPXPXPXPXPXPXPXPXPXPXPXPXPXPXPXPXPXPXPXPXPXPXPXPXPXPXPXPXPXPXPXPXPXPXPXPXPXPXPXPXPXPXPX",
"PXPXPXPXPXPXPXPXPXPXPXPXPXPXPXPXPXPXPXPXPXPXPXPXPXPXPXPXPXPXPXPXPXPXPXPXPXPXPXPXPXPXPXPXPXPXPXPXPXPXPXPXPXPXPXPXPXPXPXPXPXPXPXPXPXPXPXPXPXPXPXPXPXPXPXPXPXPXPXPXPXPXPXPXPXPXPXPXPXPXPXPXPXPXPXPXPXPXPXPXPXPXPXPXPXPXPXPXPXPXPXPXPXPXPXPXPXPXPXPXPXPXPXPXPXPXPXPXPXPXPXPXPXPXPXPXPXPXPXPXPXPXPXPXPXPXPXPXPXPXPXPXPXPXPXPXPXPXPXPXPXPXPXPXPXPXPXPXPXPXPXPXPXPXPXPXPXPXPXPXPXPXPXPXPXPXPXPXPXPXPXPXPXPXPXPXPXPXPXPXPXPXPXPXPXPXPXPXPXPXPXPXPXPXPXPXPXPXPXPXPXPXPXPXPXPXPXPXPXPXPXPXPXPXPXPXPXPXPXPXPXPXPXPXPXPXPXPXPXPXPXPXPXPXPXPX",
"PXPXPXPXPXPXPXPXPXPXPXPXPXPXPXPXPXPXPXPXPXPXPXPXPXPXPXPXPXPXPXPXPXPXPXPXPXPXPXPXPXPXPXPXPXPXPXPXPXPXPXPXPXPXPXPXPXPXPXPXPXPXPXPXPXPXPXPXPXPXPXPXPXPXPXPXPXPXPXPXPXPXPXPXPXPXPXPXPXPXPXPXPXPXPXPXPXPXPXPXPXPXPXPXPXPXPXPXPXPXPXPXPXPXPXPXPXPXPX# # # $ $ $ $ $ $ $ $ $ $ $ $ $ $ $ PXPXPXPXPXPXPXPXPXPXPXPXPXPXPXPXPXPXPXPXPXPXPXPXPXPXPXPXPXPXPXPXPXPXPXPXPXPXPXPXPXPXPXPXPXPXPXPXPXPXPXPXPXPXPXPXPXPXPXPXPXPXPXPXPXPXPXPXPXPXPXPXPXPXPXPXPXPXPXPXPXPXPXPXPXPXPXPXPXPXPXPXPXPXPXPXPXPXPXPXPXPXPXPXPXPXPXPXPXPXPXPXPXPXPXPXPXPXPX",
"PXPXPXPXPXPXPXPXPXPXPXPXPXPXPXPXPXPXPXPXPXPXPXPXPXPXPXPXPXPXPXPXPXPXPXPXPXPXPXPXPXPXPXPXPXPXPXPXPXPXPXPXPXPXPXPXPXPXPXPXPXPXPXPXPXPXPXPXPXPXPXPXPXPXPXPXPXPXPXPXPXPXPXPXPXPXPXPXPXPXPXPXPXPXPXPXPXPXPXPXPXPXPXPXPXPXPXPXPXPXPXr r r 3 3 3 3 ; ; # # # # # # # # # # # # # # # # # # # # ; ; 3 3 r r PXPXPXPXPXPXPXPXPXPXPXPXPXPXPXPXPXPXPXPXPXPXPXPXPXPXPXPXPXPXPXPXPXPXPXPXPXPXPXPXPXPXPXPXPXPXPXPXPXPXPXPXPXPXPXPXPXPXPXPXPXPXPXPXPXPXPXPXPXPXPXPXPXPXPXPXPXPXPXPXPXPXPXPXPXPXPXPXPXPXPXPXPXPXPXPXPXPXPXPXPXPXPXPXPXPXPXPXPXPX",
"PXPXPXPXPXPXPXPXPXPXPXPXPXPXPXPXPXPXPXPXPXPXPXPXPXPXPXPXPXPXPXPXPXPXPXPXPXPXPXPXPXPXPXPXPXPXPXPXPXPXPXPXPXPXPXPXPXPXPXPXPXPXPXPXPXPXPXPXPXPXPXPXPXPXPXPXPXPXPXPXPXPXPXPXPXPXPXPXPXPXPXPXPXPXPXPXPXPXPXPXPXPXPXPXPX$ $ $ # # * 3 3 3 3 3 3 3 3 3 ; ; 3 3 ; ; ; ; 3 3 * * # # # # # # # # ; # * ; ; # # # $ $ @ @ PXPXPXPXPXPXPXPXPXPXPXPXPXPXPXPXPXPXPXPXPXPXPXPXPXPXPXPXPXPXPXPXPXPXPXPXPXPXPXPXPXPXPXPXPXPXPXPXPXPXPXPXPXPXPXPXPXPXPXPXPXPXPXPXPXPXPXPXPXPXPXPXPXPXPXPXPXPXPXPXPXPXPXPXPXPXPXPXPXPXPXPXPXPXPXPXPXPXPXPXPXPXPXPX",
"PXPXPXPXPXPXPXPXPXPXPXPXPXPXPXPXPXPXPXPXPXPXPXPXPXPXPXPXPXPXPXPXPXPXPXPXPXPXPXPXPXPXPXPXPXPXPXPXPXPXPXPXPXPXPXPXPXPXPXPXPXPXPXPXPXPXPXPXPXPXPXPXPXPXPXPXPXPXPXPXPXPXPXPXPXPXPXPXPXPXPXPXPXPXPXPXPXPXPXPXPXr 3 3 ; # # # # # * 3 3 3 ; 3 3 ; ; 3 ; ; # # # # # # # * * $ # # # # # # $ # # # # # # # # # # # $ $ # # # 3 PXPXPXPXPXPXPXPXPXPXPXPXPXPXPXPXPXPXPXPXPXPXPXPXPXPXPXPXPXPXPXPXPXPXPXPXPXPXPXPXPXPXPXPXPXPXPXPXPXPXPXPXPXPXPXPXPXPXPXPXPXPXPXPXPXPXPXPXPXPXPXPXPXPXPXPXPXPXPXPXPXPXPXPXPXPXPXPXPXPXPXPXPXPXPXPXPXPXPXPX",
"PXPXPXPXPXPXPXPXPXPXPXPXPXPXPXPXPXPXPXPXPXPXPXPXPXPXPXPXPXPXPXPXPXPXPXPXPXPXPXPXPXPXPXPXPXPXPXPXPXPXPXPXPXPXPXPXPXPXPXPXPXPXPXPXPXPXPXPXPXPXPXPXPXPXPXPXPXPXPXPXPXPXPXPXPXPXPXPXPXPXPXPXPXPXPXPXPX# # 3 3 3 3 3 3 3 3 3 3 3 3 3 # # # # * * * * * * * * * * * * & & 3 * 3 3 3 3 3 3 2 2 2 2 * * # # # 3 3 3 * 3 # # ; ; 3 ; $ @ PXPXPXPXPXPXPXPXPXPXPXPXPXPXPXPXPXPXPXPXPXPXPXPXPXPXPXPXPXPXPXPXPXPXPXPXPXPXPXPXPXPXPXPXPXPXPXPXPXPXPXPXPXPXPXPXPXPXPXPXPXPXPXPXPXPXPXPXPXPXPXPXPXPXPXPXPXPXPXPXPXPXPXPXPXPXPXPXPXPXPXPXPXPXPXPX",
"PXPXPXPXPXPXPXPXPXPXPXPXPXPXPXPXPXPXPXPXPXPXPXPXPXPXPXPXPXPXPXPXPXPXPXPXPXPXPXPXPXPXPXPXPXPXPXPXPXPXPXPXPXPXPXPXPXPXPXPXPXPXPXPXPXPXPXPXPXPXPXPXPXPXPXPXPXPXPXPXPXPXPXPXPXPXPXPXPXPXPXPXPXPXr r 3 ; # ; 3 3 3 3 3 3 # # * * * * $ & & & & @ O O O X . . . . . X . . . X . X O O O & & & < 3 3 3 3 3 3 3 * $ $ $ # # ; # ; $ $ $ $ $ # PXPXPXPXPXPXPXPXPXPXPXPXPXPXPXPXPXPXPXPXPXPXPXPXPXPXPXPXPXPXPXPXPXPXPXPXPXPXPXPXPXPXPXPXPXPXPXPXPXPXPXPXPXPXPXPXPXPXPXPXPXPXPXPXPXPXPXPXPXPXPXPXPXPXPXPXPXPXPXPXPXPXPXPXPXPXPXPXPXPXPXPXPX",
"PXPXPXPXPXPXPXPXPXPXPXPXPXPXPXPXPXPXPXPXPXPXPXPXPXPXPXPXPXPXPXPXPXPXPXPXPXPXPXPXPXPXPXPXPXPXPXPXPXPXPXPXPXPXPXPXPXPXPXPXPXPXPXPXPXPXPXPXPXPXPXPXPXPXPXPXPXPXPXPXPXPXPXPXPXPXPXPXPXPXPXr r r 3 3 r r r r 3 3 # # $ $ $ @ O O O X . O O   O @ O o @ $ O @ $ O @ $ $ O $ * O @ $ O O @ O   . O . X O & & < 3 3 3 3 3 3 # $ # ; # # # $ $ $ # ; PXPXPXPXPXPXPXPXPXPXPXPXPXPXPXPXPXPXPXPXPXPXPXPXPXPXPXPXPXPXPXPXPXPXPXPXPXPXPXPXPXPXPXPXPXPXPXPXPXPXPXPXPXPXPXPXPXPXPXPXPXPXPXPXPXPXPXPXPXPXPXPXPXPXPXPXPXPXPXPXPXPXPXPXPXPXPXPXPXPX",
"PXPXPXPXPXPXPXPXPXPXPXPXPXPXPXPXPXPXPXPXPXPXPXPXPXPXPXPXPXPXPXPXPXPXPXPXPXPXPXPXPXPXPXPXPXPXPXPXPXPXPXPXPXPXPXPXPXPXPXPXPXPXPXPXPXPXPXPXPXPXPXPXPXPXPXPXPXPXPXPXPXPXPXPXPXPXPXPXr 3 # $ # ; 3 3 3 3 3 ; * $ $ @ O . . .     @ @ @ * 3 @ $ r 3 $ 3 3 @ * 3 $ $ 3 2 @ * 2 $ 2 3 $ $ 3 * O $ $ O O @ O   . . . O & 3 4 3 3 3 ; $ $ $ $ $ $ $ $ @ $ # PXPXPXPXPXPXPXPXPXPXPXPXPXPXPXPXPXPXPXPXPXPXPXPXPXPXPXPXPXPXPXPXPXPXPXPXPXPXPXPXPXPXPXPXPXPXPXPXPXPXPXPXPXPXPXPXPXPXPXPXPXPXPXPXPXPXPXPXPXPXPXPXPXPXPXPXPXPXPXPXPXPXPXPXPXPXPX",
"PXPXPXPXPXPXPXPXPXPXPXPXPXPXPXPXPXPXPXPXPXPXPXPXPXPXPXPXPXPXPXPXPXPXPXPXPXPXPXPXPXPXPXPXPXPXPXPXPXPXPXPXPXPXPXPXPXPXPXPXPXPXPXPXPXPXPXPXPXPXPXPXPXPXPXPXPXPXPXPXPXPXPXPXPXPXr r r 3 3 3 3 3 3 3 $ $ $ $ O X . . O   $ 2 $ $ 3 3 $ 3 t * 2 3 3 $ 3 3 $ 2 3 * * 3 2 $ 3 3 $ 2 3 $ & 3 * @ $ * @ @ * @ O $ $   O O . . & & 3 4 3 2 $ $ $ $ $ # # # # # # PXPXPXPXPXPXPXPXPXPXPXPXPXPXPXPXPXPXPXPXPXPXPXPXPXPXPXPXPXPXPXPXPXPXPXPXPXPXPXPXPXPXPXPXPXPXPXPXPXPXPXPXPXPXPXPXPXPXPXPXPXPXPXPXPXPXPXPXPXPXPXPXPXPXPXPXPXPXPXPXPXPXPXPXPX",
"PXPXPXPXPXPXPXPXPXPXPXPXPXPXPXPXPXPXPXPXPXPXPXPXPXPXPXPXPXPXPXPXPXPXPXPXPXPXPXPXPXPXPXPXPXPXPXPXPXPXPXPXPXPXPXPXPXPXPXPXPXPXPXPXPXPXPXPXPXPXPXPXPXPXPXPXPXPXPXPXPXPXPXPX3 # 3 3 r r r 3 3 $ $ $ O X   . O O @ 3 r $ 3 t 3 * r 3 $ 3 t 2 2 3 3 * 3 3 & 3 4 2 * 3 2 & 3 3 & 3 3 & 3 3 * @ 2 * @ * 3 @ @ $ $ @ $ $ O O @     . O & 4 4 3 2 $ $ $ $ $ $ $ $ @ $ PXPXPXPXPXPXPXPXPXPXPXPXPXPXPXPXPXPXPXPXPXPXPXPXPXPXPXPXPXPXPXPXPXPXPXPXPXPXPXPXPXPXPXPXPXPXPXPXPXPXPXPXPXPXPXPXPXPXPXPXPXPXPXPXPXPXPXPXPXPXPXPXPXPXPXPXPXPXPXPXPXPX",
"PXPXPXPXPXPXPXPXPXPXPXPXPXPXPXPXPXPXPXPXPXPXPXPXPXPXPXPXPXPXPXPXPXPXPXPXPXPXPXPXPXPXPXPXPXPXPXPXPXPXPXPXPXPXPXPXPXPXPXPXPXPXPXPXPXPXPXPXPXPXPXPXPXPXPXPXPXPXPXPXPXPXr r r r r r r r 3 $ $ @ X     o o $ r r $ r y 2 3 y 3 * t 4 < 3 t 3 3 4 4 3 5 4 & 4 4 3 3 4 3 < 4 4 < 4 4 & 3 4 & & 3 & @ 2 2 @ $ 2 $ @ 2 $ O $ $ O O @ o   . & < 5 4 3 2 $ $ $ $ $ $ # ; 3 PXPXPXPXPXPXPXPXPXPXPXPXPXPXPXPXPXPXPXPXPXPXPXPXPXPXPXPXPXPXPXPXPXPXPXPXPXPXPXPXPXPXPXPXPXPXPXPXPXPXPXPXPXPXPXPXPXPXPXPXPXPXPXPXPXPXPXPXPXPXPXPXPXPXPXPXPXPXPXPX",
"PXPXPXPXPXPXPXPXPXPXPXPXPXPXPXPXPXPXPXPXPXPXPXPXPXPXPXPXPXPXPXPXPXPXPXPXPXPXPXPXPXPXPXPXPXPXPXPXPXPXPXPXPXPXPXPXPXPXPXPXPXPXPXPXPXPXPXPXPXPXPXPXPXPXPXPXPXPXPX$ $ # r r r r 3 3 $ $ $ X . . O O 3 r * $ y t * 3 u 3 3 y 4 < 5 t < 4 t 4 4 5 5 < 5 5 < 4 5 < 4 5 4 < 4 4 < 6 5 < 4 4 < < 4 & & 3 3 & & 3 $ & 2 $ @ $ $ O @ $ @ O $ O   . & < 5 4 3 $ $ $ $ $ $ $ $ + PXPXPXPXPXPXPXPXPXPXPXPXPXPXPXPXPXPXPXPXPXPXPXPXPXPXPXPXPXPXPXPXPXPXPXPXPXPXPXPXPXPXPXPXPXPXPXPXPXPXPXPXPXPXPXPXPXPXPXPXPXPXPXPXPXPXPXPXPXPXPXPXPXPXPXPXPXPX",
"PXPXPXPXPXPXPXPXPXPXPXPXPXPXPXPXPXPXPXPXPXPXPXPXPXPXPXPXPXPXPXPXPXPXPXPXPXPXPXPXPXPXPXPXPXPXPXPXPXPXPXPXPXPXPXPXPXPXPXPXPXPXPXPXPXPXPXPXPXPXPXPXPXPXPXPXPXPX3 ; ; ; 3 3 3 # $ $ O X X X O 3 y 2 3 y 3 * t t 3 4 t 5 3 t 5 < 4 5 < 5 0 5 5 0 0 5 0 w 5 6 w 6 6 w 6 6 w 6 6 w 6 6 5 5 < 1 4 < < 4 < & < < & < 3 & & 2 $ O & * O @ $ @ O @ O   . < 5 t 3 2 $ $ $ $ $ $ $ # PXPXPXPXPXPXPXPXPXPXPXPXPXPXPXPXPXPXPXPXPXPXPXPXPXPXPXPXPXPXPXPXPXPXPXPXPXPXPXPXPXPXPXPXPXPXPXPXPXPXPXPXPXPXPXPXPXPXPXPXPXPXPXPXPXPXPXPXPXPXPXPXPXPXPXPX",
"PXPXPXPXPXPXPXPXPXPXPXPXPXPXPXPXPXPXPXPXPXPXPXPXPXPXPXPXPXPXPXPXPXPXPXPXPXPXPXPXPXPXPXPXPXPXPXPXPXPXPXPXPXPXPXPXPXPXPXPXPXPXPXPXPXPXPXPXPXPXPXPXPXPXPXPX$ 3 3 ; 3 3 ; # $ @ O X   O 3 3 ; r y 3 2 t 3 3 t t 4 4 p 0 5 p 0 5 5 0 5 5 0 0 w q 0 0 0 0 w 0 0 0 0 0 0 w 0 0 8 0 w w w w 6 6 6 1 6 5 < < 5 1 < 1 1 & < 3 & & & & O & $ O @ $ @ o @ O   @ 5 0 t 3 $ $ $ $ $ $ $ @ PXPXPXPXPXPXPXPXPXPXPXPXPXPXPXPXPXPXPXPXPXPXPXPXPXPXPXPXPXPXPXPXPXPXPXPXPXPXPXPXPXPXPXPXPXPXPXPXPXPXPXPXPXPXPXPXPXPXPXPXPXPXPXPXPXPXPXPXPXPXPXPXPXPX",
"PXPXPXPXPXPXPXPXPXPXPXPXPXPXPXPXPXPXPXPXPXPXPXPXPXPXPXPXPXPXPXPXPXPXPXPXPXPXPXPXPXPXPXPXPXPXPXPXPXPXPXPXPXPXPXPXPXPXPXPXPXPXPXPXPXPXPXPXPXPXPXPXPXPXr 3 3 3 3 3 # $ $ O X     $ 2 $ t r 2 3 i t 3 t t 4 5 p 5 4 0 q w q q 0 0 q 0 0 0 0 w 0 0 8 8 7 7 7 9 , , , , , , , > 7 > 7 7 7 1 1 w 7 w w w w w 6 6 6 1 < < < & & < & & 3 & O & * O O $ @ o O O X 1 p t 3 $ $ $ $ $ $ $ # PXPXPXPXPXPXPXPXPXPXPXPXPXPXPXPXPXPXPXPXPXPXPXPXPXPXPXPXPXPXPXPXPXPXPXPXPXPXPXPXPXPXPXPXPXPXPXPXPXPXPXPXPXPXPXPXPXPXPXPXPXPXPXPXPXPXPXPXPXPXPXPX",
"PXPXPXPXPXPXPXPXPXPXPXPXPXPXPXPXPXPXPXPXPXPXPXPXPXPXPXPXPXPXPXPXPXPXPXPXPXPXPXPXPXPXPXPXPXPXPXPXPXPXPXPXPXPXPXPXPXPXPXPXPXPXPXPXPXPXPXPXPXPXPXPX3 r r r r r 3 ; $ O .   O @ $ y y * 3 t 4 3 u p 4 0 p 5 5 p 0 w q q q q q q q q q 9 9 b m G H Y T }  ...r.r.y.d.d.d.y.y.r... .} Q Y G G m b 9 9 9 9 8 8 w w 6 6 6 < = < < & < < & & < & O $ * O O $ @     X 1 p t 3 $ $ $ $ $ $ $ PXPXPXPXPXPXPXPXPXPXPXPXPXPXPXPXPXPXPXPXPXPXPXPXPXPXPXPXPXPXPXPXPXPXPXPXPXPXPXPXPXPXPXPXPXPXPXPXPXPXPXPXPXPXPXPXPXPXPXPXPXPXPXPXPXPXPXPXPXPXPX",
"PXPXPXPXPXPXPXPXPXPXPXPXPXPXPXPXPXPXPXPXPXPXPXPXPXPXPXPXPXPXPXPXPXPXPXPXPXPXPXPXPXPXPXPXPXPXPXPXPXPXPXPXPXPXPXPXPXPXPXPXPXPXPXPXPXPXPXPXPXPXr 3 # r r r r * * $ . . . $ r r 2 r u 3 3 t t 4 5 p 5 0 p 0 w q q 0 0 q q q 9 b M H T  .r.f.I.qXiXiXvXbXMXmXmXDXDXDXDXDXDXDXDXDXMXMXvXcXiXqXT.f.d...Q H M b , > : : 1 1 1 6 6 < 1 < & & < & & & & O @ $ O O @ O   X 4 p t 3 $ $ $ $ $ $ $ PXPXPXPXPXPXPXPXPXPXPXPXPXPXPXPXPXPXPXPXPXPXPXPXPXPXPXPXPXPXPXPXPXPXPXPXPXPXPXPXPXPXPXPXPXPXPXPXPXPXPXPXPXPXPXPXPXPXPXPXPXPXPXPXPXPXPXPXPX",
"PXPXPXPXPXPXPXPXPXPXPXPXPXPXPXPXPXPXPXPXPXPXPXPXPXPXPXPXPXPXPXPXPXPXPXPXPXPXPXPXPXPXPXPXPXPXPXPXPXPXPXPXPXPXPXPXPXPXPXPXPXPXPXPXPXPXPXPXPX3 3 r r r r 3 $ @ X   O 3 3 * t r 2 3 u t < t p 5 0 p q q f q q q q q b M H Q r.f.T.eXcXbXmXmXMXvXcXiXiXqX/.T.T.I.I.L.m.m.L.I.I.T.T.qXeXiXcXvXMXMXmXMXvXiXqXm.y.Q H m , > 7 7 7 7 w 1 < < < & & < & O & & O O $ O O O O X 1 p t 2 $ $ $ $ $ # $ PXPXPXPXPXPXPXPXPXPXPXPXPXPXPXPXPXPXPXPXPXPXPXPXPXPXPXPXPXPXPXPXPXPXPXPXPXPXPXPXPXPXPXPXPXPXPXPXPXPXPXPXPXPXPXPXPXPXPXPXPXPXPXPXPXPXPX",
"PXPXPXPXPXPXPXPXPXPXPXPXPXPXPXPXPXPXPXPXPXPXPXPXPXPXPXPXPXPXPXPXPXPXPXPXPXPXPXPXPXPXPXPXPXPXPXPXPXPXPXPXPXPXPXPXPXPXPXPXPXPXPXPXPXPXPX3 3 # r r r 3 * @ X . @ $ 2 t t 3 3 t 4 3 p p 5 0 p 0 w s q q e q q m G Q y.I.eXvXmXDXmXvXiXqXI.s.r. .Q Y H G M m m N b b N N b N b m m M G H Y } ..d.m.T.eXcXnXmXmXvXiXT.a.| H m , 7 7 1 1 1 < < < < & & < & O & $ O O $ O     & 6 f t $ $ $ $ $ o $ PXPXPXPXPXPXPXPXPXPXPXPXPXPXPXPXPXPXPXPXPXPXPXPXPXPXPXPXPXPXPXPXPXPXPXPXPXPXPXPXPXPXPXPXPXPXPXPXPXPXPXPXPXPXPXPXPXPXPXPXPXPXPXPXPXPX",
"PXPXPXPXPXPXPXPXPXPXPXPXPXPXPXPXPXPXPXPXPXPXPXPXPXPXPXPXPXPXPXPXPXPXPXPXPXPXPXPXPXPXPXPXPXPXPXPXPXPXPXPXPXPXPXPXPXPXPXPXPXPXPXPXPXPXr r r r r 3 * @ O . . @ y t 3 t u 4 3 t t 4 5 p 0 w s q q e q n M Y #.m.qXaXMXMXvXiX(.f.r.| Y H M m b 9 9 q q 9 q q q q q q q 9 8 8 8 q 9 9 8 9 9 9 9 N N M G T  .d.I.qXcXMXMXbXiXI.y.T M , > 1 1 1 1 < < < < & & & & O & @ O O $ O . & q f 3 $ $ $ $ $ $ # PXPXPXPXPXPXPXPXPXPXPXPXPXPXPXPXPXPXPXPXPXPXPXPXPXPXPXPXPXPXPXPXPXPXPXPXPXPXPXPXPXPXPXPXPXPXPXPXPXPXPXPXPXPXPXPXPXPXPXPXPXPXPXPX",
"PXPXPXPXPXPXPXPXPXPXPXPXPXPXPXPXPXPXPXPXPXPXPXPXPXPXPXPXPXPXPXPXPXPXPXPXPXPXPXPXPXPXPXPXPXPXPXPXPXPXPXPXPXPXPXPXPXPXPXPXPXPXPXPX3 # r r r r 3 $ O     $ r 3 t i 4 4 p p 4 5 p 0 w q q q q q 9 m Y y.T.cXmXDXMXiXI.y.| H M N b b b n e e q q q q 0 0 0 0 0 0 0 0 8 8 w w w 8 w w w w 8 8 8 9 9 8 7 > > , N M T ..m.eXNXDXDXNXqXa.Q m , > 1 1 1 < < & < & & & & O O @ @ @ O O . < f u * @ $ $ $ $ @ PXPXPXPXPXPXPXPXPXPXPXPXPXPXPXPXPXPXPXPXPXPXPXPXPXPXPXPXPXPXPXPXPXPXPXPXPXPXPXPXPXPXPXPXPXPXPXPXPXPXPXPXPXPXPXPXPXPXPXPXPXPXPX",
"PXPXPXPXPXPXPXPXPXPXPXPXPXPXPXPXPXPXPXPXPXPXPXPXPXPXPXPXPXPXPXPXPXPXPXPXPXPXPXPXPXPXPXPXPXPXPXPXPXPXPXPXPXPXPXPXPXPXPXPXPXPXPXr r r r r 3 * @ .     O r u 3 3 p t 4 p p 0 0 q q q e q q b G  .m.iXMXMXvXeXm.#.T M n q e q q q e e e q q q 0 0 0 w w w w w w w w w w w w w 6 6 6 6 6 w w w w w w w w 7 7 7 7 7 9 b G Q y.T.jXDXmXcX(.y.Y N > 7 1 1 1 1 = & < & & & & O O $ @ O . X 0 p 3 @ @ $ $ $ $ PXPXPXPXPXPXPXPXPXPXPXPXPXPXPXPXPXPXPXPXPXPXPXPXPXPXPXPXPXPXPXPXPXPXPXPXPXPXPXPXPXPXPXPXPXPXPXPXPXPXPXPXPXPXPXPXPXPXPXPXPXPX",
"PXPXPXPXPXPXPXPXPXPXPXPXPXPXPXPXPXPXPXPXPXPXPXPXPXPXPXPXPXPXPXPXPXPXPXPXPXPXPXPXPXPXPXPXPXPXPXPXPXPXPXPXPXPXPXPXPXPXPXPXPXPX3 3 r r r 3 & O     2 r $ 3 i t 3 t p 0 5 p s q e e e n M } s.qXvXMXvX/.a.| H M n n n n e e e q q q q q q q 0 w 0 w 6 6 6 6 5 5 6 5 5 5 5 5 6 5 5 6 5 6 5 6 6 1 6 6 6 6 6 6 6 w w w 8 7 , , N H ..m.iXbXmXjXI...G , 7 7 1 1 < < & & & & & & $ O O @ @ . & p p * $ $ $ $ $ + PXPXPXPXPXPXPXPXPXPXPXPXPXPXPXPXPXPXPXPXPXPXPXPXPXPXPXPXPXPXPXPXPXPXPXPXPXPXPXPXPXPXPXPXPXPXPXPXPXPXPXPXPXPXPXPXPXPXPXPX",
"PXPXPXPXPXPXPXPXPXPXPXPXPXPXPXPXPXPXPXPXPXPXPXPXPXPXPXPXPXPXPXPXPXPXPXPXPXPXPXPXPXPXPXPXPXPXPXPXPXPXPXPXPXPXPXPXPXPXPXPXr r r r r r * @ . . @ @ r y 3 2 t p 5 5 p p 0 e g e q n M  .I.aXMXMXiXf. .H m n n n e n e g q q p q q q q 0 0 0 5 5 5 5 5 6 5 5 5 5 5 5 5 4 4 4 4 4 4 4 4 4 4 4 < < < < < < < < < 1 1 6 6 w 7 7 7 > > b U r.T.cXDXbXqXy.H , > 7 1 1 < & < & & & & O O $ @ o O X 0 g 4 @ $ $ $ $ $ PXPXPXPXPXPXPXPXPXPXPXPXPXPXPXPXPXPXPXPXPXPXPXPXPXPXPXPXPXPXPXPXPXPXPXPXPXPXPXPXPXPXPXPXPXPXPXPXPXPXPXPXPXPXPXPXPXPXPX",
"PXPXPXPXPXPXPXPXPXPXPXPXPXPXPXPXPXPXPXPXPXPXPXPXPXPXPXPXPXPXPXPXPXPXPXPXPXPXPXPXPXPXPXPXPXPXPXPXPXPXPXPXPXPXPXPXPXPXPX3 3 r r r r * O     3 y 3 2 u t 4 4 p p 0 p f e n n n U r.T.vXMXaXT.r.Y M n n e n e g e e e f q q p 0 0 0 0 0 5 5 5 5 5 5 4 5 4 4 4 4 4 4 4 4 4 4 4 4 4 3 4 3 4 4 < < < < < < < < < < < < < 1 1 1 1 6 7 7 7 , m T a.eXbXnXiXm.T b > 7 1 1 < & & & & O & $ O O @ @ . < l p * $ $ $ $ @ PXPXPXPXPXPXPXPXPXPXPXPXPXPXPXPXPXPXPXPXPXPXPXPXPXPXPXPXPXPXPXPXPXPXPXPXPXPXPXPXPXPXPXPXPXPXPXPXPXPXPXPXPXPXPXPXPXPX",
"PXPXPXPXPXPXPXPXPXPXPXPXPXPXPXPXPXPXPXPXPXPXPXPXPXPXPXPXPXPXPXPXPXPXPXPXPXPXPXPXPXPXPXPXPXPXPXPXPXPXPXPXPXPXPXPXPXPX3 r r r r 3 $ .   @ * 3 u y 3 t u 5 4 0 p q q e e n K #./.vXmXaXI. .G m n e e g e e f f q q p p p p p p 0 5 p t t 5 t 4 t t 4 t 4 4 4 3 3 4 4 3 3 3 3 3 3 3 3 3 3 3 3 3 3 3 < & < & < < < < < < < < < 1 1 1 7 7 7 > 9 G ..T.NXDXjXm.Q b : 1 1 < < & = & & & O $ $ @ O O & f f 3 @ $ $ @ $ $ PXPXPXPXPXPXPXPXPXPXPXPXPXPXPXPXPXPXPXPXPXPXPXPXPXPXPXPXPXPXPXPXPXPXPXPXPXPXPXPXPXPXPXPXPXPXPXPXPXPXPXPXPXPXPXPX",
"PXPXPXPXPXPXPXPXPXPXPXPXPXPXPXPXPXPXPXPXPXPXPXPXPXPXPXPXPXPXPXPXPXPXPXPXPXPXPXPXPXPXPXPXPXPXPXPXPXPXPXPXPXPXPXPXPXr r r r 3 * @ .   $ y t 3 t a 5 4 p p 0 0 f e e n K #./.vXMXiXf.Q M n n B B g f f e q p p p p p p p p p t t t t t t t t 4 t t 3 t r 3 r r 3 r 3 3 3 3 3 3 3 3 3 3 3 3 2 2 2 2 * * & & & & < & & < & < < < < < < 1 6 w w 7 , M | I.cXmXjXm.Q b > 1 1 < = < & X & & & O @ * @ . 6 j t $ $ $ $ @ $ PXPXPXPXPXPXPXPXPXPXPXPXPXPXPXPXPXPXPXPXPXPXPXPXPXPXPXPXPXPXPXPXPXPXPXPXPXPXPXPXPXPXPXPXPXPXPXPXPXPXPXPXPXPXPX",
"PXPXPXPXPXPXPXPXPXPXPXPXPXPXPXPXPXPXPXPXPXPXPXPXPXPXPXPXPXPXPXPXPXPXPXPXPXPXPXPXPXPXPXPXPXPXPXPXPXPXPXPXPXPXPX3 3 r y r r * O   @ * 3 u i t 4 p p 5 5 f p q q q n | T.vXmXiXf.T M n n B g g g f f f f q p p p p p p t t t t t t t t t t t r r t 3 r r 3 r r r r 3 3 3 3 3 3 3 3 2 2 2 2 * 2 2 * * * * * * * & & & & & & < < < < < < < 1 1 1 7 > > N Q I.cXDXjXf.J > : 1 1 < = & & & & & * $ O O O < j p $ @ @ @ $ $ PXPXPXPXPXPXPXPXPXPXPXPXPXPXPXPXPXPXPXPXPXPXPXPXPXPXPXPXPXPXPXPXPXPXPXPXPXPXPXPXPXPXPXPXPXPXPXPXPXPXPXPXPXPX",
"PXPXPXPXPXPXPXPXPXPXPXPXPXPXPXPXPXPXPXPXPXPXPXPXPXPXPXPXPXPXPXPXPXPXPXPXPXPXPXPXPXPXPXPXPXPXPXPXPXPXPXPXPXPX3 r r y r r * X   o r y 3 3 a p 5 0 f f 0 f e e n Y m.aXMXaXm.} M C B B g g g f f f f p p p p p p t t t u u t u t t t t t r t r r r r r r r r 3 3 3 3 3 3 3 3 3 2 2 2 2 2 2 * * 2 * $ $ * * * * $ & & & & & < < < < < < < < < < 1 6 7 7 , m } I.NXnXeXr.G > 1 1 = < < & & & & O O $ @   X g f $ @ $ $ $ $ PXPXPXPXPXPXPXPXPXPXPXPXPXPXPXPXPXPXPXPXPXPXPXPXPXPXPXPXPXPXPXPXPXPXPXPXPXPXPXPXPXPXPXPXPXPXPXPXPXPXPXPXPX",
"PXPXPXPXPXPXPXPXPXPXPXPXPXPXPXPXPXPXPXPXPXPXPXPXPXPXPXPXPXPXPXPXPXPXPXPXPXPXPXPXPXPXPXPXPXPXPXPXPXPXPXPXPX3 3 r y y 3 $ . . $ $ 3 y t 3 p p p w f f e e n G y.iXMXvXI.Q M n V B g g f f f f p p p p p p i t t u u t u t t t t t t t t r r r r r r r r r r 3 3 3 3 3 3 3 3 3 2 2 2 * 2 * $ $ ; $ $ $ $ $ $ $ $ $ * $ & & & & & & & & & & < < < < 1 1 7 > > m | T.nXSXqX .N > 1 1 < & < < & O & & O O O X p j 3 @ $ $ $ $ PXPXPXPXPXPXPXPXPXPXPXPXPXPXPXPXPXPXPXPXPXPXPXPXPXPXPXPXPXPXPXPXPXPXPXPXPXPXPXPXPXPXPXPXPXPXPXPXPXPXPXPX",
"PXPXPXPXPXPXPXPXPXPXPXPXPXPXPXPXPXPXPXPXPXPXPXPXPXPXPXPXPXPXPXPXPXPXPXPXPXPXPXPXPXPXPXPXPXPXPXPXPXPXPXPX3 r r r r 3 $ .   3 y r 2 t i t 5 p f q e B n m | T.vXbX/...K n B B B g g f g f f f p p p p u u u u y u y t t t t t t t t t r r r r r r r r r r r 3 3 3 3 3 3 3 3 3 2 2 * 2 * * $ * * $ $ $ $ $ $ $ $ $ $ $ $ $ $ $ $ & & & & & & & & < < < 1 1 1 7 > M r.eXDXNXm.J , 7 1 1 < < & & < @ O $ $ @ . w k 3 @ $ $ $ $ PXPXPXPXPXPXPXPXPXPXPXPXPXPXPXPXPXPXPXPXPXPXPXPXPXPXPXPXPXPXPXPXPXPXPXPXPXPXPXPXPXPXPXPXPXPXPXPXPXPXPX",
"PXPXPXPXPXPXPXPXPXPXPXPXPXPXPXPXPXPXPXPXPXPXPXPXPXPXPXPXPXPXPXPXPXPXPXPXPXPXPXPXPXPXPXPXPXPXPXPXPXPXPX3 3 y r r 3 $ . O $ 3 y i 4 3 p p 0 q f g e n Y s.cXmXiXd.H n B B g g g g f f f f p p p p u i u u u u y y y t t t t t t t t t r r r r r r 3 r r r 3 3 3 3 3 3 3 3 3 3 2 2 $ * * * $ $ $ $ $ $ $ $ $ $ $ $ $ $ $ $ $ $ $ $ $ & & & & & & & < < < < 1 1 1 7 > G s.cXDXiXr.M 7 1 1 < & < & O @ $ @ O O X 6 Z t $ $ $ $ $ PXPXPXPXPXPXPXPXPXPXPXPXPXPXPXPXPXPXPXPXPXPXPXPXPXPXPXPXPXPXPXPXPXPXPXPXPXPXPXPXPXPXPXPXPXPXPXPXPXPX",
"PXPXPXPXPXPXPXPXPXPXPXPXPXPXPXPXPXPXPXPXPXPXPXPXPXPXPXPXPXPXPXPXPXPXPXPXPXPXPXPXPXPXPXPXPXPXPXPXPXPXr r r r r 3 O   O y r 2 t p p 4 5 p p q e e n ! /.MXbXT.| M n B B l f f f f f f p f p p i u u u u u u u y y y t t t y t t r r r r r r r r r r r 3 3 3 3 3 3 3 3 3 3 3 3 3 ; $ $ $ $ * * * $ $ $ $ $ $ $ $ $ $ $ $ $ $ $ $ $ $ $ $ & & & & & < < < < < < < 1 7 > N } /.nXnXI.H > 1 1 < < & & & & O O $ $ . 6 A t @ @ $ $ $ PXPXPXPXPXPXPXPXPXPXPXPXPXPXPXPXPXPXPXPXPXPXPXPXPXPXPXPXPXPXPXPXPXPXPXPXPXPXPXPXPXPXPXPXPXPXPXPXPX",
"PXPXPXPXPXPXPXPXPXPXPXPXPXPXPXPXPXPXPXPXPXPXPXPXPXPXPXPXPXPXPXPXPXPXPXPXPXPXPXPXPXPXPXPXPXPXPXPXPX3 r y r r 2 O   O * y t t 3 t f p w q e e e K d.iXmXiXy.U m V B g g l f f f p f f p p p i i u u u u y u y y y y t t y y y y r r t y r r r r r r r 3 3 3 3 3 3 3 3 3 3 3 3 3 ; $ $ * $ $ * $ $ $ $ $ $ $ $ $ $ $ $ $ $ $ $ $ $ $ $ $ $ $ $ & & & & < < < < < < 1 1 7 > G d.jXSXeX..b 7 1 < = < & @ O & $ $ O . < Z u @ @ @ $ $ PXPXPXPXPXPXPXPXPXPXPXPXPXPXPXPXPXPXPXPXPXPXPXPXPXPXPXPXPXPXPXPXPXPXPXPXPXPXPXPXPXPXPXPXPXPXPXPX",
"PXPXPXPXPXPXPXPXPXPXPXPXPXPXPXPXPXPXPXPXPXPXPXPXPXPXPXPXPXPXPXPXPXPXPXPXPXPXPXPXPXPXPXPXPXPXPXPXr r r r r 2 O   $ t 3 3 i p 5 4 p f q e e e Y L.MXMXT.! M V B B B g f g g p f p f p i i i i i u u u u y u y y y y y t t y y t r r t r r r r r r r r 3 3 r r 3 3 3 3 3 3 3 3 3 ; $ * $ $ * * $ $ $ $ $ $ $ $ $ $ $ $ $ $ $ $ $ $ $ $ $ $ $ $ $ $ $ $ & & & & < < < 1 1 1 > b } qXSXNXa.M : - < < & & & & @ O @ $ O < Z p @ @ @ @ @ PXPXPXPXPXPXPXPXPXPXPXPXPXPXPXPXPXPXPXPXPXPXPXPXPXPXPXPXPXPXPXPXPXPXPXPXPXPXPXPXPXPXPXPXPXPXPX",
"PXPXPXPXPXPXPXPXPXPXPXPXPXPXPXPXPXPXPXPXPXPXPXPXPXPXPXPXPXPXPXPXPXPXPXPXPXPXPXPXPXPXPXPXPXPXPX3 r y y r 2 O   o 3 y t 3 4 p p 0 0 f g e n | /.MXcXa.U C V B B g l g g f f p p p a i i i i i i u u y y y y y y y y y t y t r t r r t r r r r r r r r r 3 r 3 r 3 3 3 3 3 3 3 3 # * * $ $ $ * $ $ $ $ $ $ $ $ $ $ $ $ $ $ $ $ $ @ $ $ $ $ $ $ $ $ $ $ $ $ & & & & < < < 1 1 7 , G s.NXnXI.Y > 1 < & & < & O O $ $ O . & Z u @ @ @ $ $ PXPXPXPXPXPXPXPXPXPXPXPXPXPXPXPXPXPXPXPXPXPXPXPXPXPXPXPXPXPXPXPXPXPXPXPXPXPXPXPXPXPXPXPXPXPX",
"PXPXPXPXPXPXPXPXPXPXPXPXPXPXPXPXPXPXPXPXPXPXPXPXPXPXPXPXPXPXPXPXPXPXPXPXPXPXPXPXPXPXPXPXPXPXr r y y r 3 O   $ 3 * r u t 4 5 f p q e e K y.aXmXeX..M n B B l g g g g f f f f p i i i i i i u i y u y y y y y y y y y t y y r y t r r r r r r r r r r r 3 r 3 3 3 3 3 3 3 3 3 3 * 3 * $ $ $ $ $ $ $ $ $ $ $ $ $ $ $ $ $ @ $ $ $ @ $ $ $ $ $ $ $ $ $ $ $ $ $ & & & & & & < < 1 7 > b r.iXDXeX| , - : 1 < & & & $ O O @ O & Z i $ @ @ $ @ PXPXPXPXPXPXPXPXPXPXPXPXPXPXPXPXPXPXPXPXPXPXPXPXPXPXPXPXPXPXPXPXPXPXPXPXPXPXPXPXPXPXPXPXPX",
"PXPXPXPXPXPXPXPXPXPXPXPXPXPXPXPXPXPXPXPXPXPXPXPXPXPXPXPXPXPXPXPXPXPXPXPXPXPXPXPXPXPXPXPXPX3 r y y r 3 O   O r t r 2 t p p 5 p f g B K f.vXMXT.T n V V B g l g g f f f f p a i i i i i y u u u u u y y y y y y y y y y y y r t r r r r r r r r r r r r r r r 3 3 3 3 3 3 3 3 * # 3 * $ $ $ $ $ $ $ $ $ $ $ $ @ $ $ @ $ @ @ $ @ @ $ $ $ $ $ $ $ $ $ $ $ $ $ $ & & & & & & < < 1 7 7 , Q (.nXjXr.b : 1 1 < < & & O $ $ O   & Z i @ $ $ $ $ PXPXPXPXPXPXPXPXPXPXPXPXPXPXPXPXPXPXPXPXPXPXPXPXPXPXPXPXPXPXPXPXPXPXPXPXPXPXPXPXPXPXPXPX",
"PXPXPXPXPXPXPXPXPXPXPXPXPXPXPXPXPXPXPXPXPXPXPXPXPXPXPXPXPXPXPXPXPXPXPXPXPXPXPXPXPXPXPXPXr 3 y y r 3 O . $ 3 3 t t t 4 p p q e e n T T.MXvXs.K n n B B l g g g f f f f p a a i i u i i i y u y u u u y y y y y y y y y y y y y y t r r r r r r r r r r r r 3 3 3 r 3 3 3 3 3 * # * * * $ $ $ $ $ $ $ $ $ $ $ $ $ $ @ @ @ $ $ @ $ $ @ $ $ $ $ @ @ $ $ $ $ $ $ $ $ & & & & < < < 1 1 1 > G m.nXNXx.M 7 1 1 1 & & & & O O O O < A i @ @ @ @ @ PXPXPXPXPXPXPXPXPXPXPXPXPXPXPXPXPXPXPXPXPXPXPXPXPXPXPXPXPXPXPXPXPXPXPXPXPXPXPXPXPXPXPX",
"PXPXPXPXPXPXPXPXPXPXPXPXPXPXPXPXPXPXPXPXPXPXPXPXPXPXPXPXPXPXPXPXPXPXPXPXPXPXPXPXPXPXPXPXy y y r 3 O   @ y y 3 3 t p 5 5 p f n n T qXmXaXr.K B V B l l g g f f f p a h a i i i i i i i i y u u u u u y y y y y y y y y y y y y y r r t t r r r r r r r r r r 3 3 r 3 3 3 3 3 * # * * * $ $ $ $ $ $ $ $ $ $ $ $ $ $ $ @ @ $ $ $ $ $ $ $ @ @ $ $ $ @ @ $ $ $ $ $ $ $ $ & & & & < < < 1 1 7 M d.cXSXM.G > 7 1 = & & @ O O $ $ . < A t @ @ @ @ PXPXPXPXPXPXPXPXPXPXPXPXPXPXPXPXPXPXPXPXPXPXPXPXPXPXPXPXPXPXPXPXPXPXPXPXPXPXPXPXPXPXPX",
"PXPXPXPXPXPXPXPXPXPXPXPXPXPXPXPXPXPXPXPXPXPXPXPXPXPXPXPXPXPXPXPXPXPXPXPXPXPXPXPXPXPXPXr y y y 3 $ . O $ r i i t 4 p p q q e n | eXmXeX .F B B B B g g g f f p h a a i a i i i i u i u i i y i i i i y y y y y y y y y y y y y y r r t y r r r r r r r 3 3 3 3 3 r 3 3 3 3 3 3 * 3 * * * $ $ $ $ $ $ $ $ $ @ $ $ $ $ $ $ $ @ @ $ @ $ $ @ @ $ $ $ @ @ $ $ $ $ $ $ $ $ $ & & & & & < < 1 1 : N r.jXSXT.J > < < < & X O @ $ O O . 6 D t @ @ @ @ PXPXPXPXPXPXPXPXPXPXPXPXPXPXPXPXPXPXPXPXPXPXPXPXPXPXPXPXPXPXPXPXPXPXPXPXPXPXPXPXPXPX",
"PXPXPXPXPXPXPXPXPXPXPXPXPXPXPXPXPXPXPXPXPXPXPXPXPXPXPXPXPXPXPXPXPXPXPXPXPXPXPXPXPXPXy y y y 3 @   @ y r 2 t p p 5 0 f f e e | iXmXqX| M V B B l g g g f f f a i a a i i i i i i i i i u i y u i u u y y y y y y y y y y y y y y r y r r r r r r r r r r 3 r 3 3 3 r 3 3 3 * 3 * * * * * $ $ $ $ $ $ $ $ $ @ $ $ @ $ $ @ @ @ $ @ @ $ @ $ @ @ @ $ @ @ @ @ $ @ $ $ $ $ $ $ & & & & & < < 1 1 7 b  .eXHXqXJ - < : = & & & O O @ $ X 0 D 3 @ @ $ @ PXPXPXPXPXPXPXPXPXPXPXPXPXPXPXPXPXPXPXPXPXPXPXPXPXPXPXPXPXPXPXPXPXPXPXPXPXPXPXPXPX",
"PXPXPXPXPXPXPXPXPXPXPXPXPXPXPXPXPXPXPXPXPXPXPXPXPXPXPXPXPXPXPXPXPXPXPXPXPXPXPXPXPXy y y y r $ .   $ y y t 3 t f p q f e n ..iXMXT.T C C V B l j g f f f h a a i i i i i i i i i i i i y i i y i u i y y y y y y y y y y y y y y t y r y r r r r r r r r r r 3 3 3 3 3 3 3 * 3 * * 3 * $ * $ $ $ $ $ $ $ $ $ $ $ $ $ @ @ @ @ @ @ @ @ @ @ @ @ $ @ @ @ @ @ @ @ @ @ $ $ $ $ $ $ & & & & & < 1 7 7 , Q eXHXqXY > : : < & & & & & @ O . s D $ @ $ @ @ PXPXPXPXPXPXPXPXPXPXPXPXPXPXPXPXPXPXPXPXPXPXPXPXPXPXPXPXPXPXPXPXPXPXPXPXPXPXPXPX",
"PXPXPXPXPXPXPXPXPXPXPXPXPXPXPXPXPXPXPXPXPXPXPXPXPXPXPXPXPXPXPXPXPXPXPXPXPXPXPXPXy y y y r * .   3 3 3 t p t 5 p f g g n #.aXMXI.Y n V V B l g g f f a a h i a a i i i i i i u i i u i u i i y y i i u y i y y y y y y y y y y y y y r y r r r r r r r r r r 3 3 3 r 3 3 3 3 3 * * 3 * * $ $ $ $ $ $ $ $ $ $ $ $ $ $ @ @ @ @ @ @ @ $ @ @ $ @ $ $ @ @ @ $ @ @ @ @ $ $ $ $ $ $ $ & & & & & < 1 1 7 , T qXHXwXY - : 1 < & & & $ O @ @ X l j $ @ @ $ $ PXPXPXPXPXPXPXPXPXPXPXPXPXPXPXPXPXPXPXPXPXPXPXPXPXPXPXPXPXPXPXPXPXPXPXPXPXPXPX",
"PXPXPXPXPXPXPXPXPXPXPXPXPXPXPXPXPXPXPXPXPXPXPXPXPXPXPXPXPXPXPXPXPXPXPXPXPXPXPXy y y y y 3 O   $ y r r 3 t p p q g B M #.aXMXm.U C B B B l g g p f f a p a h i a i i i i i i i i i u i u y i i y i i i y i i y y y y y y y y y y y r r y r r r r r r r r r r r r 3 r 3 3 3 3 3 3 * 3 $ $ * $ $ $ $ $ $ $ $ $ $ $ $ @ @ @ $ $ $ @ @ @ @ @ @ @ @ @ @ @ $ @ @ @ @ @ @ @ $ $ $ $ $ $ & & & & & < < 1 1 , J T.HXwXY > 1 < < < & O $ $ @ O & Z h @ @ $ @ o PXPXPXPXPXPXPXPXPXPXPXPXPXPXPXPXPXPXPXPXPXPXPXPXPXPXPXPXPXPXPXPXPXPXPXPXPXPX",
"PXPXPXPXPXPXPXPXPXPXPXPXPXPXPXPXPXPXPXPXPXPXPXPXPXPXPXPXPXPXPXPXPXPXPXPXPXPXPXy y y y 3 @   $ 3 3 y u t 4 p f e B n #.aXMXI.U n V B g l j f f a a f h i i i i i i i i i i i i i i u y i y i i y y i i i y i y y y y y y y y y y y r r y y r r r r r r r r r r 3 3 r 3 3 3 3 3 3 3 * # $ * * * $ $ $ $ $ $ $ $ $ @ @ @ $ $ $ $ $ @ @ @ @ @ @ $ $ $ $ $ $ @ @ @ @ @ @ $ $ $ $ $ $ $ & & & & < < < 1 7 > J qXHXwXT - : 1 < & & & @ @ @ O < D t @ @ @ $ PXPXPXPXPXPXPXPXPXPXPXPXPXPXPXPXPXPXPXPXPXPXPXPXPXPXPXPXPXPXPXPXPXPXPXPXPXPX",
"PXPXPXPXPXPXPXPXPXPXPXPXPXPXPXPXPXPXPXPXPXPXPXPXPXPXPXPXPXPXPXPXPXPXPXPXPXPXr y y y r $   $ u y 3 3 i p p 0 f B n  .iXMXm.U C V B l l g f f f a a a h i i i i i i i i u u i i u i i y u y u i y y y i i y i y y y y y y y y y y y t r r r r r r r r r r r r r r 3 r 3 3 3 3 3 3 3 $ $ $ $ * * $ $ $ $ $ $ $ $ $ @ @ @ $ $ @ $ $ @ $ @ @ @ @ @ @ @ @ $ @ @ @ @ $ @ @ @ $ $ $ $ @ $ $ & & & & & < < 1 1 > J qXHXqXH 7 1 < < & & O @ $ $ O w D 3 @ $ $ $ PXPXPXPXPXPXPXPXPXPXPXPXPXPXPXPXPXPXPXPXPXPXPXPXPXPXPXPXPXPXPXPXPXPXPXPXPX",
"PXPXPXPXPXPXPXPXPXPXPXPXPXPXPXPXPXPXPXPXPXPXPXPXPXPXPXPXPXPXPXPXPXPXPXPXPXy r y y y * .   * y i u 4 4 p f f g n | iXmXI.U n V B l g g f f h f h a i h i i i i i i i i i u i i u i i i y y y i y y y i i y u i y u y y y y y y y y r r r r r r r r r r r r r r r 3 r 3 3 3 3 3 3 3 $ $ $ $ $ $ $ $ $ $ $ $ $ $ $ @ @ @ $ $ @ @ @ @ @ @ @ @ @ @ @ @ @ @ @ @ @ @ @ @ @ $ $ @ @ @ @ @ $ $ $ & & & & < < 1 7 > Y eXHX,XG : 1 < & & & & $ @ @ O g D $ @ $ $ @ PXPXPXPXPXPXPXPXPXPXPXPXPXPXPXPXPXPXPXPXPXPXPXPXPXPXPXPXPXPXPXPXPXPXPXPX",
"PXPXPXPXPXPXPXPXPXPXPXPXPXPXPXPXPXPXPXPXPXPXPXPXPXPXPXPXPXPXPXPXPXPXPXPXPXy y y y 3 X . r r 3 t p p 0 0 f g e Y qXmXT.T C V V l g g f f f a a h h i i a i i i i i i i i i y i i y i i i u y i u y y i i i y i y y u y y y y y y y y y t y y r r r r r r r r r r 3 r 3 3 3 3 3 3 3 ; # $ $ $ $ $ $ $ $ $ $ $ $ $ $ $ $ $ $ @ @ @ @ @ @ @ @ @ @ @ @ @ @ @ @ @ @ @ @ $ $ $ @ @ @ $ $ $ $ $ $ & & & < < < 1 7 , Q eXSXM.m : 1 < & & & O @ @ $ & Z f @ @ $ $ $ PXPXPXPXPXPXPXPXPXPXPXPXPXPXPXPXPXPXPXPXPXPXPXPXPXPXPXPXPXPXPXPXPXPXPX",
"PXPXPXPXPXPXPXPXPXPXPXPXPXPXPXPXPXPXPXPXPXPXPXPXPXPXPXPXPXPXPXPXPXPXPXPXr y y y 3 O   $ y y t 3 t f f f e e U T.mXqXT C V B l l g f f a h h i i h h i i i i i i i i i i i y y i i y i i i y i i y u u i i u y y y i i y y y y y y y y y y y y r r r r r r r r r 3 r r r 3 3 3 3 ; ; $ $ $ $ $ * $ $ $ $ $ $ $ $ $ $ $ $ $ $ $ @ @ @ @ @ @ @ @ @ @ @ @ @ @ @ $ @ $ $ @ $ @ @ @ @ $ $ $ $ $ $ $ & & < < < 1 7 , | jXSXa.b 1 < < & & @ $ $ $ O < L t @ @ @ $ PXPXPXPXPXPXPXPXPXPXPXPXPXPXPXPXPXPXPXPXPXPXPXPXPXPXPXPXPXPXPXPXPXPXPX",
"PXPXPXPXPXPXPXPXPXPXPXPXPXPXPXPXPXPXPXPXPXPXPXPXPXPXPXPXPXPXPXPXPXPXPXu y y y r $   O 2 3 i p t 5 0 g g g K m.MXeX| n V Z B l g f f a a a h h i i h i i i i i i i i i i i i y i i y i i i i y i y u i u i u y u y y u y y y y y y y y y r r y y r y r r r r r 3 3 r 3 3 3 3 3 3 ; ; $ $ $ 3 * * $ $ $ $ $ $ $ $ $ $ $ $ @ $ @ @ @ @ @ @ @ @ @ $ @ @ @ @ @ @ @ @ @ $ @ @ @ @ @ @ @ @ @ $ @ $ $ $ & & < < < 1 7 b r.cXNXr.> - < & & & & $ @ O X q L $ @ $ $ + PXPXPXPXPXPXPXPXPXPXPXPXPXPXPXPXPXPXPXPXPXPXPXPXPXPXPXPXPXPXPXPXPXPX",
"PXPXPXPXPXPXPXPXPXPXPXPXPXPXPXPXPXPXPXPXPXPXPXPXPXPXPXPXPXPXPXPXPXPXy y u y y 2 . O y y 3 3 p f p q e B C a.bXcX .M B B l l g g f f h a i i h a i i i i i i i i i i y u i i i y i y y i i i y u i y u i i i y u y y u y y y y y y y r y y y y r r y r r r r r 3 3 3 r 3 3 3 3 3 3 $ 2 2 * A 4 $ $ $ $ $ $ $ $ $ $ $ $ $ $ @ $ C n @ @ @ @ @ $ $ $ $ @ $ $ @ $ $ @ $ @ @ @ @ @ @ @ @ @ @ $ $ $ $ $ & < < < < w 7 b d.bXjXQ > 1 < < < & O @ $ $ O Z h @ @ $ o @ PXPXPXPXPXPXPXPXPXPXPXPXPXPXPXPXPXPXPXPXPXPXPXPXPXPXPXPXPXPXPXPXPX",
"PXPXPXPXPXPXPXPXPXPXPXPXPXPXPXPXPXPXPXPXPXPXPXPXPXPXPXPXPXPXPXPXPXPXy u u y 3 O   @ y y t 4 4 p g f e n ..cXbXd.M V B l g g f f f h a a i i i a i i i i i i i i i i i u i i i y u i u y i i i y i u y i u i i i i u i y y u y y y y y y y y y y r y r r r r r 3 3 3 r 3 3 3 3 3 3 $ R *.3 3 $ $ $ $ $ $ ; $ $ $ $ $ $ $ $ @ $ T K @ @ @ @ @ $ $ @ @ @ $ $ @ $ @ $ @ @ @ $ @ @ @ @ @ @ @ $ $ $ $ $ & & < < < 1 6 7 M m.nXqXH > 1 6 < & & & * $ O & L t @ @ $ $ PXPXPXPXPXPXPXPXPXPXPXPXPXPXPXPXPXPXPXPXPXPXPXPXPXPXPXPXPXPXPXPXPX",
"PXPXPXPXPXPXPXPXPXPXPXPXPXPXPXPXPXPXPXPXPXPXPXPXPXPXPXPXPXPXPXPXPXy y u u r $   @ 3 3 t p u 5 0 f B n ! iXmXm.K n B B l g f f f h a a i i i i i i i i i i i i i i i i u u u i i y u i i i i i u u u u i i i i u i u i y y i y y y y y y y y r y r r r r r r r r r 3 r 3 3 r 3 3 3 $ I R $ $ $ $ $ $ $ 2 2 ; ; 2 2 $ $ $ @ @ @ & @ $ $ $ @ @ @ @ @ @ $ @ @ $ $ $ @ @ @ @ @ @ @ $ @ @ @ $ $ $ $ $ $ $ & & & < < 6 6 7 H /.DXI.M 1 < < < < < $ O @ O 0 L 2 @ @ $ $ PXPXPXPXPXPXPXPXPXPXPXPXPXPXPXPXPXPXPXPXPXPXPXPXPXPXPXPXPXPXPXPX",
"PXPXPXPXPXPXPXPXPXPXPXPXPXPXPXPXPXPXPXPXPXPXPXPXPXPXPXPXPXPXPXPXPXy y u y 3 .   r t r 3 t f f q e B U T.DXqXY V B g l l j f h a a i i i i i i i i i i i i i i i i i i i u u i i u i y i i i i i u u u i i u i u u i i u y y y y y y y y y y r y r y r r r r r r r r r r 3 r 3 r r 3 2 5 A 3 $ $ @ @ 0 Y 4 $ ; K K $ @ O e 0 0 U 4 $ $ @ @ $ @ @ @ @ @ @ @ $ $ @ @ @ @ @ @ @ $ @ @ @ $ $ $ $ $ $ $ $ $ & & < < < 6 7 , Q iXnXd., 1 1 1 < & O $ $ $ O Z j @ @ $ @ PXPXPXPXPXPXPXPXPXPXPXPXPXPXPXPXPXPXPXPXPXPXPXPXPXPXPXPXPXPXPXPX",
"PXPXPXPXPXPXPXPXPXPXPXPXPXPXPXPXPXPXPXPXPXPXPXPXPXPXPXPXPXPXPXPXy u u u r @   @ r y y t 4 0 f g g G s.MXiX! n V Z l f f f f h a i i i i i i i i y i i i i i i i i i i i u u u i u i u u u i i i i u y i i u i i i i i u u u u y y y y y y y r y y y r r r r r r r r r 3 3 r 3 r r 3 I J.E.P $ $ 6 C 4 n 4 i h P P P V K 3.X.M } e 3 $ $ $ @ @ @ @ @ @ @ @ $ @ @ $ @ @ @ @ @ @ @ @ @ $ @ @ @ $ $ $ $ $ $ & & < < < 6 7 , r.NXjXQ > 1 < < & & & $ $ O < L 3 @ $ $ $ PXPXPXPXPXPXPXPXPXPXPXPXPXPXPXPXPXPXPXPXPXPXPXPXPXPXPXPXPXPXPX",
"PXPXPXPXPXPXPXPXPXPXPXPXPXPXPXPXPXPXPXPXPXPXPXPXPXPXPXPXPXPXPXy y u u y * . @ r 3 3 i p p q f g n r.bXvXr.M B B l j f f p a h h i i i i i i i i i y i i i u u i i i i i i u u u u u i u u u i i i i u u i i i i u u i u u u u u y y y y y y r y y y r r r r r r r r r 3 3 r 3 r 3 4 #.!.s.L $ @ e T Z A P ( _ k..X%.) y.N.3.X.T T  .I K B 3 @ @ @ @ @ $ $ @ @ @ @ @ @ @ @ @ $ $ $ $ @ $ $ @ $ @ $ $ $ $ $ & & < < 1 6 7 m m.DXqXH : 1 < < < & $ @ $ O f D * @ $ $ $ PXPXPXPXPXPXPXPXPXPXPXPXPXPXPXPXPXPXPXPXPXPXPXPXPXPXPXPXPXPX",
"PXPXPXPXPXPXPXPXPXPXPXPXPXPXPXPXPXPXPXPXPXPXPXPXPXPXPXPXPXPXPXy u u u r O   r i y 4 4 p f f g B T eXmXm.K V B l g j f f a i i a i i i i i i i i i i y i i i i i i i i u i u u u i u i i u u i i i i u u i i i i i y i i u u y y y y y y y y r y y y r r r r r r r r r 3 3 3 3 r 5 B U I p 2 f ~ :.b.,X,X5X,XXX+X>X,X4X4X!.P.C.3.=.A.@.I Z i r ; @ @ @ $ @ @ @ @ @ @ @ @ @ @ @ @ $ $ @ @ @ @ @ @ $ $ $ $ $ $ & & < < 6 7 7 H qXDXm., 1 6 < & @ $ $ * $ & L f @ $ $ @ PXPXPXPXPXPXPXPXPXPXPXPXPXPXPXPXPXPXPXPXPXPXPXPXPXPXPXPXPXPX",
"PXPXPXPXPXPXPXPXPXPXPXPXPXPXPXPXPXPXPXPXPXPXPXPXPXPXPXPXPXPXu y u u y *   O 3 y a p p 0 p g g K I.mXqXY B B l g g f f f h i i i i i i i i i i i i i i y i i i u i i i i u i u u u u u i i i u i i i u u u i i i i y i i u i u y i y y y y y y y y y r r r r r r r r r 3 3 3 3 Z Z t P j L k.1XhXkXuXtX!.E.U.b.+X>XE.4XuXuXuXyX4X4X4X) * 3 3 3 a i q 3 @ @ @ @ @ @ @ @ @ @ @ @ @ @ $ @ @ @ @ @ @ @ $ $ $ $ $ $ & < < < 1 7 , | cXNX .9 1 < & & & * * @ O 0 L 2 $ $ @ @ PXPXPXPXPXPXPXPXPXPXPXPXPXPXPXPXPXPXPXPXPXPXPXPXPXPXPXPXPX",
"PXPXPXPXPXPXPXPXPXPXPXPXPXPXPXPXPXPXPXPXPXPXPXPXPXPXPXPXPXPXy u u u 3 . O r 3 3 t p f f f g n r.vXaX .C V B l g f f a a h a i i i i i i i i i i i i i i u i i i i i i i i i i u u i u u u i u i i i i u u i i i i y i i i u i y i u y y y y y y y y r r r y r r r r r 3 3 t A g u f / c.wXzXrXtXtX!.W.!.R.1XxXuXkXkXkXkXkXuXuXuXtX4X3X&.P p 3 $ t ) ..q @ @ @ @ @ @ @ @ @ @ @ @ @ @ @ @ @ @ @ @ @ $ $ $ $ $ $ & & & < < 1 7 N s.nXqXH 1 1 < < < & O @ @ & A j $ $ $ $ PXPXPXPXPXPXPXPXPXPXPXPXPXPXPXPXPXPXPXPXPXPXPXPXPXPXPXPXPX",
"PXPXPXPXPXPXPXPXPXPXPXPXPXPXPXPXPXPXPXPXPXPXPXPXPXPXPXPXPXy y u y r O   * u u t 4 5 p g g B Y iXMXa.F V Z l g g f f a a i a i i i i i i i u i i i i i i i i y y i i u u i u u i u i i u i i u u i i i i u i i i i u u i i u i y i i y y y y y y y y r r r t r r r r r t f l t p Z %.2XkXzXkXtX).tX,X!.!.yX6XgX!.tXuX4X,XtXtXtX!.~.rX!.!.,Xl.I t 2 4 R @.p @ @ @ @ @ @ @ @ @ @ @ @ @ @ @ @ @ $ @ @ @ @ @ $ $ $ $ & & < < < 1 > G qXDXm.b 1 6 < & & & & * $ 6 L 4 $ $ $ $ PXPXPXPXPXPXPXPXPXPXPXPXPXPXPXPXPXPXPXPXPXPXPXPXPXPXPXPX",
"PXPXPXPXPXPXPXPXPXPXPXPXPXPXPXPXPXPXPXPXPXPXPXPXPXPXPXPXPXu u u y 2 .   $ r i a p 0 q g B K m.mXqXU B Z l l f f f h h i i i i i u i i u i i y i i i i i i u i y u u i u u i u i i u i u i i i u i i i i i i i i i i u i i u i y y i y y y y y y y y r y r y r y t ~ L j l t j P v.hXzXzXkXuXtXuXuXuX!.W.tX1X$XP.~.W.P.P.tXtXtX!.!.uXyXR.x.2X3X) p 3 $ f t @ @ @ @ @ @ @ @ @ @ @ @ @ @ @ @ @ @ @ @ @ @ @ $ $ $ $ & & & < < 1 w > | NXcXQ > 1 < & < 3 2 $ @ X V k @ @ $ @ PXPXPXPXPXPXPXPXPXPXPXPXPXPXPXPXPXPXPXPXPXPXPXPXPXPXPXPX",
"PXPXPXPXPXPXPXPXPXPXPXPXPXPXPXPXPXPXPXPXPXPXPXPXPXPXPXPXu u u u r O   3 r 3 3 t f f f g C #.vXcX..n B Z j g f f h a a a i i i i i u i i u i u y i i i i y y i i y y i i u u u i i u i i u i i u u i i i i i i i i i u i i i i u y i i y y y y y y y r y r r r f _ 4Xy.f r E x.2XzXuXkXkXuX).E.!.tXtX).).yX1X+XP.`.G.B.E.uXtXtX!.~.~.!.uXhXhX>XY.l.P f $ @ @ @ @ @ @ @ @ @ @ @ @ @ @ @ @ @ @ @ @ @ @ @ @ @ $ $ $ $ & & < < < 1 1 b m.DXT.M > 1 < < & @ $ $ $ 1 L 3 @ $ @ o PXPXPXPXPXPXPXPXPXPXPXPXPXPXPXPXPXPXPXPXPXPXPXPXPXPXPX",
"PXPXPXPXPXPXPXPXPXPXPXPXPXPXPXPXPXPXPXPXPXPXPXPXPXPXPXPXu u i y 2 . O y y t t 4 0 f B B U qXmXm.K V B l j f f h h a i i i i i i i i y i i u i i y u i i u u y i u y y i i u u u i i u u i u i i u i i i i i i i i i i u i i i u y y i y y y y y y y y y r r r y / s.E W | L.kXzXkXuXtXkXhXJ.V.A.).uXkXkXrX>Xb.S.`.H.8.P.tXQ.H.H.F.B.B.H.tXzX<Xl.,X3X/ @ @ + 0 4 @ @ @ @ @ @ @ @ @ @ @ @ @ @ @ @ @ @ @ @ @ @ @ $ $ $ & & < < < 6 7 Y eXnXr.> : 1 < & & < 2 2 O B k @ $ $ $ PXPXPXPXPXPXPXPXPXPXPXPXPXPXPXPXPXPXPXPXPXPXPXPXPXPXPX",
"PXPXPXPXPXPXPXPXPXPXPXPXPXPXPXPXPXPXPXPXPXPXPXPXPXPXPXy u i u r O   @ 3 y i p p q f B C d.MXiXT V B Z l g f f h a i i i i i i i i y y i i i y u i u i u i u u y i i y y i i u u u i i u u u i i i u i i i i i i i i i u i i i i y y i y y y y y y y r p A t r y y f I B.Q.kXzXkXuXuX!.L.J.F.Q.).kXzXuXuX!.L.c.C.D.9.3.S.).H.w.w.Z.N.W.G.D.Q.kX6Xz.5X7XR Y e K V O @ @ @ @ @ @ @ @ @ @ @ @ @ @ @ @ @ @ @ @ @ $ $ $ $ & & & < < 6 7 , r.nXeXG : 6 < < < 3 2 $ O < L t @ $ $ $ PXPXPXPXPXPXPXPXPXPXPXPXPXPXPXPXPXPXPXPXPXPXPXPXPXPX",
"PXPXPXPXPXPXPXPXPXPXPXPXPXPXPXPXPXPXPXPXPXPXPXPXPXPXPXu i i u 2 . O 3 3 2 4 i p f f B T eXMXa.C Z Z l f f f h h a i i i i i i i i i y y i i i y u i u u y u u y u i u y y i i i u u i i i u u i i i u i i i i i i i i i i i i i y y i u y y u u y u y ( z.p r y y D x.tXkXzXzXuXuXuXW.3.P.tXtX).tXtXtX!.V.z.&.@.%.) ( V.Q.D.H.D.=.o._.W.G.H.G.rXyXU.,X5Xu.X.n t 3 @ $ % + @ @ @ @ @ @ @ @ @ @ @ @ @ @ @ @ $ $ @ $ $ $ & & & < < 6 7 G T.nXa.9 w 6 6 1 < $ $ $ O l k $ @ $ $ PXPXPXPXPXPXPXPXPXPXPXPXPXPXPXPXPXPXPXPXPXPXPXPXPXPX",
"PXPXPXPXPXPXPXPXPXPXPXPXPXPXPXPXPXPXPXPXPXPXPXPXPXPXi u i i y @   3 y t 4 4 4 p f g C f.MXqXY V V Z j j f f a i a i i i i i i i i i i y y i i i u y i u u y y u u u i u y u i i i u u i u i u i i i i u i i i i i i i i i u i i y y u y y i u u u u a P P y u t f i.yXzXhXkXkXtX).).D.8.W.uX).Q.W.F.V.p.i.z.*.$.].' / V.~.G.H.N.{ 7.H.H.`._.H.D.B.8.=.R.3Xu.} & r 3 p K $ @ @ @ @ @ @ @ @ @ @ @ @ @ @ @ @ @ @ $ $ $ $ $ & & < < 1 7 >  .vXiXT 7 w 1 < & & 2 2 @ < L 3 @ $ $ + PXPXPXPXPXPXPXPXPXPXPXPXPXPXPXPXPXPXPXPXPXPXPXPXPX",
"PXPXPXPXPXPXPXPXPXPXPXPXPXPXPXPXPXPXPXPXPXPXPXPXPXPXi u i i 3 .   $ r i p p 0 p l g ! aXvX#.C V B l g f f h a i i i i i i i i i i i i i y y u u i y y u u u y y u u i i y y y u i i y u u i u u u i i i i i i i i i i i i u i i i y u u y u y y y f A a y i f y _ yXkXkXkXuXtX).Q.H.H.D.7.W.).F.p.u.u.p.=.*.E ) ' >.;.-.<.C.P.&.{ 9.w.w.w.w.w.e.8.9.P.P.uXyX%.$ $ t l R & @ @ @ @ @ @ @ @ @ @ @ @ @ @ @ @ @ @ $ $ $ $ $ & & & < < 6 > m T.DXm.b 7 1 < < < < $ O X Z j @ $ $ @ PXPXPXPXPXPXPXPXPXPXPXPXPXPXPXPXPXPXPXPXPXPXPXPXPX",
"PXPXPXPXPXPXPXPXPXPXPXPXPXPXPXPXPXPXPXPXPXPXPXPXPXu i i i y & . 2 3 3 3 t p p f g C m.mXT.K V B l l g f h h h i i i i i i u i i i i i i i y u y y u y y y u u y y u u u u u y u u i u u u u i u u i i i i i i i i i i i i i i i i y y u y u u y L R j y i j u ` xXkXrXrXkXkX!.V.W.7.A.,Xu.7.V.p.y.u.y.y.=.=.y.#.].>X4XJ.C.J.z.$.%.=.B.w.0.0.0.0.D.W.Q.!.rXkX3XI @ 3 3 @ @ @ @ @ @ @ @ @ @ @ @ @ @ @ @ @ @ @ @ $ $ $ $ $ $ & & & < 1 7 , } cXcXQ > w 6 < & @ O $ $ 5 L 3 $ $ @ $ PXPXPXPXPXPXPXPXPXPXPXPXPXPXPXPXPXPXPXPXPXPXPXPX",
"PXPXPXPXPXPXPXPXPXPXPXPXPXPXPXPXPXPXPXPXPXPXPXPXPXy i i i r X O i i u t 4 5 p f B Q aXvX#.n V Z l g f f h a i a i i i i i i y u i i i y y i i y y y y u y y u u u u u u u u u y y u u u u u u i u i i i i i i i i i i i i i i i i u y i y y y I U.i.u i k i ` xXzXtX~.E.~.tXW.Y.!.E.L.L.s.o.4.u.u.u.u.u.u.4.O. .>.XXK.Y.,XhX<.{ W 1.$.3.8.N.H.w.H.F.~.).uXkXkXn.u @ $ $ $ @ @ @ @ @ @ @ @ @ @ @ @ @ @ @ @ $ @ $ $ $ $ $ $ $ & & < < 1 7 m I.DXm.b w 1 < & & * * * O A f @ @ @ $ PXPXPXPXPXPXPXPXPXPXPXPXPXPXPXPXPXPXPXPXPXPXPXPX",
"PXPXPXPXPXPXPXPXPXPXPXPXPXPXPXPXPXPXPXPXPXPXPXPXPXu i i u *   O r i h p p p p f M f.MXT.K V B l g f f f h i i i i i i u u i i y i i i i y y u u y y y y u y y y u u u u y y u u u u u u u u u i u u i i i i i i i i i i i i i i i i y i y u j ! L.E p Z f ` xXzXuX).).).D.9.A.rXyXhX3XL.N.5.u.N.P.J.C.u.4.+.6.3.h..X:.:. X<X:.1.{ @.:.( | B.H.H.w.H.~.!.tXkXkXyX_ $ $ $ r 3 @ $ @ @ O O @ @ @ @ @ @ @ @ @ @ @ $ @ @ @ $ $ $ & & < < < 1 > | vXcXT 7 6 < < < 2 $ $ O w L $ @ $ $ PXPXPXPXPXPXPXPXPXPXPXPXPXPXPXPXPXPXPXPXPXPXPXPX",
"PXPXPXPXPXPXPXPXPXPXPXPXPXPXPXPXPXPXPXPXPXPXPXPXi u i i r O   3 r 3 4 u f g g g T iXvX#.C B B j g f h h h h i i i i i i y y u i y y y y u u y y y y y y y u y y y u u u u y y u u u u u u u u i i u i i i i i i i i i i i i i i i i y u u Z P R E ..R I c.ZXSXkXuXtX).).q.D.!.yXlXlXR.A.G.N.y.P.V.s.u.X.X.X.o.o.;.;.W _ ,.>.1.( $.{ @.$.@.o.H.Q.H.H.Q.!.tXuXzXkX,Xk o @ 3 f p $ @ p ) q @ @ @ @ @ @ @ @ @ @ @ @ @ @ $ $ $ $ $ & & < < 1 : m T.mXf.9 7 6 < < @ O @ @ & L t @ $ $ @ PXPXPXPXPXPXPXPXPXPXPXPXPXPXPXPXPXPXPXPXPXPXPX",
"PXPXPXPXPXPXPXPXPXPXPXPXPXPXPXPXPXPXPXPXPXPXPXPXi i i u 3   $ y y t 5 4 0 f g n a.MX(.K V B l l j f h h i i i i u i i i i i y y y u y y u y y y u y y y y y i u y y u u u u y y u u i u u u u i i i u i i i i i i i i i i i i i i i y p A P j D P A.V.x.yXzXkXuXuXtXtXG.H.tXtXW.rXyXW.Q.tXG.V.V.o.} } X.} T } } ! ` / / 1.%.W W W { *.XXn.1.u.Q.).H.`.).).tXkXxXzXk.$ @ $ $.K.j @ l &.g @ @ @ @ @ @ @ @ @ @ @ @ @ @ $ $ @ $ $ $ & < < 1 1 9  .vXiXU : 1 < & & & * $ $ g k @ @ $ @ PXPXPXPXPXPXPXPXPXPXPXPXPXPXPXPXPXPXPXPXPXPXPX",
"PXPXPXPXPXPXPXPXPXPXPXPXPXPXPXPXPXPXPXPXPXPXPXPXi i i y $   $ y i a p p f g g K qXbXr.n V B l g f f h h a i i i i y y i i y i i y y y y y y y y y u y y y y y u u y y u u u y y y u i i u u u u i i u i i i i i i i i i i i i i i i D x.p.l 3 r j Y E.rXuXhX5XuXrXyXU.s.tXkXrXA.B.4XQ.).kX!.x.x.X.} 3.s.| T } } ( ] ' h.,.$./ W U X.C.<.<.<.*.P.tX)._.!.b.4XkXZXZXsXL 5 2 R hX%.@ $ & @ @ @ @ @ @ @ @ @ @ @ @ @ @ @ @ @ $ $ $ $ & < < < 1 7 M T.DXr.> 1 < < < 3 2 $ @ < L 2 @ @ @ $ PXPXPXPXPXPXPXPXPXPXPXPXPXPXPXPXPXPXPXPXPXPX",
"PXPXPXPXPXPXPXPXPXPXPXPXPXPXPXPXPXPXPXPXPXPXPXi i i i 3 X   2 2 3 t f g g g B ..vXeXY V Z Z j j f h h h i i i i i i u y i i y y i y y y u y y y y y u u y y y y u u u y y u u u y y i i u u u u u i i u i i i i i i i i i i i i i i R rXV.l t j f / P.4XjXyXhXyXrX3Xl.R.x.Y.P.u.A.tXtXtXtXJ.+XM.u.N.V.s.=.#.t.g.>.' ' ,.,.,.' ( ( { { { $.K.Y.4XtXrXU.OX@XhXhXlXlXxX+Xb.) p g./ @ @ + @ @ @ @ @ @ @ @ @ @ @ @ @ @ @ @ $ @ $ $ $ $ & < < 1 w , r.nXqXM 1 6 1 < & $ @ @ O A f @ @ @ $ PXPXPXPXPXPXPXPXPXPXPXPXPXPXPXPXPXPXPXPXPXPX",
"PXPXPXPXPXPXPXPXPXPXPXPXPXPXPXPXPXPXPXPXPXPXPXu i d i 2   $ r r t 4 5 f l B K I.MXa.C B B l j h f h i i i i i i i i i i y y y y y y y y y y y y y y y u y y y y y y u u y y y u u y y u i u u i u u i i i i i i i i i i i i i i i h P | R D L k ^ sXjXjXwX1X3X2XyXU.Y.E.#.@.=.A.Q.).).tXE.z.>Xi.u.s.i.p.s.g..X.X].].].' &.:.;.;.,.1.{ { ,.[.5XkX1X.X{.oX6X7XW.uXlXj.>XzX1XL @.P o + @ @ @ @ @ @ @ @ @ @ @ @ @ @ @ @ @ @ @ $ $ $ $ & < < 1 6 > G eXbX .7 6 < < & & & 2 $ q L $ @ $ $ PXPXPXPXPXPXPXPXPXPXPXPXPXPXPXPXPXPXPXPXPXPX",
"PXPXPXPXPXPXPXPXPXPXPXPXPXPXPXPXPXPXPXPXPXPXPXi a d i $   $ y y i p p f g B | aXaX! V Z k j f f h h h a i i i i i i i i i y y y i y y y y y y y y u y y y u y y y y y y u u u u u u y y i i i i u u u i i i i i i i i i i i u i h I D f L P D ^ 6XSXjXhX2X>Xl.-.2XsXY.s.=.#.P.).tX).Q.P.,XY.p.y.#.| l.l.n._ [.VX=X[.$Xj.g.n.<.:.c._ $.1.,.' [..XoXdX8X*X6X<XE.rXzXj.$.hXv.P t.%.@ O @ @ @ @ @ @ @ @ @ @ @ @ @ @ @ @ @ @ $ $ $ $ & & < < < 6 7 b s.mXI.m 7 6 1 1 3 3 2 $ & L 3 @ $ $ $ PXPXPXPXPXPXPXPXPXPXPXPXPXPXPXPXPXPXPXPXPX",
"PXPXPXPXPXPXPXPXPXPXPXPXPXPXPXPXPXPXPXPXPXPXi i d i r X   $ 3 3 t p g g g n f.mXI.K B l l j j f h a i i a i i i i i y y u i y y y y y y y y y y y y y y y y y y u y y y y y u u u u u y u i i i i i u i i u i i i i i i u i u i Z k a L P P ^ 6XSXjXhX2X1X6Xj.v.M.1XhXx.@.E.tXtX).Q.H.F.R.x.t.>X<XoXAXAXdX^ D oXoXj.,Xx._ j.n.&.:.[.,.:.:. X].[.oXgXfX8X=X<XY.rXlX6X) XXl h R ) $ O @ @ @ @ @ @ @ @ @ @ @ @ @ @ @ @ @ @ @ @ $ $ $ $ & & < 1 6 > Q cXiXT 7 w 5 4 < & @ O . Z f @ $ $ @ PXPXPXPXPXPXPXPXPXPXPXPXPXPXPXPXPXPXPXPXPX",
"PXPXPXPXPXPXPXPXPXPXPXPXPXPXPXPXPXPXPXPXPXPXi i i i 2   $ r r 3 3 5 p l B U eXMXr.C B l g f f f h h a i i i i i i u u u u y y y y y y y y y y y y y y y y y y u y y y y u u y u u y u i u u u i i i u u i i i i i i i i i i u h x i i z a L $XGXnXjX2X1X6X8X6X+Xc.v.<X2XY.).Q.Q.Q.F.F.E.x.t.+XFXJXJXJXFX;X/ E E f 5 Y 4.u.%.&.=.*.j.[.j.:.0X<.:.OX6X=X=X=X6X+X>X1X<XL v.L a K U $ @ @ @ @ @ @ @ @ @ @ @ @ @ @ @ @ @ @ @ @ $ $ $ $ $ & & < < 6 7 m T.mXd., w 6 < & @ $ $ @ 0 D $ $ $ @ PXPXPXPXPXPXPXPXPXPXPXPXPXPXPXPXPXPXPXPXPX",
"PXPXPXPXPXPXPXPXPXPXPXPXPXPXPXPXPXPXPXPXPXPXi i i y $   r i i i p 0 p g B #.vXiXT B Z l g f h h h a a a i i u y y y y y i i u y y y y y y y y y y y y y y y y y y y u y y u y y u u u u i u u i i i i u u i i i i i i i i i d L ^ x a y x @XGXSXkXyX2X8X-X8XfX@XoX}.oXOX2X!.Q.Q.A.&.U.>Xg.n.gXZXZXZX].L y 3 Y U 0 5 & 8 T | *.o.o.&.oX>.:.K.K.-.n.=X=X8X8XfX6X2XwXb.R :._ h ! T $ @ @ @ @ @ @ @ @ @ @ @ @ @ @ @ @ @ @ @ @ @ @ @ $ $ $ & & < 1 w , r.nXqXM 7 6 < < < 2 2 $ & L 3 @ $ @ @ PXPXPXPXPXPXPXPXPXPXPXPXPXPXPXPXPXPXPXPX",
"PXPXPXPXPXPXPXPXPXPXPXPXPXPXPXPXPXPXPXPXPXi i i i r O   3 3 t i f p f g C m.MXI.K V Z j j f h a a i i i i i i i u y i u y y u i y y y y y y y y y y y y y y y y y y y y y y y y u u u y u i u u u i i u u i i i i i i i h h ` }.] }.h.x ;.SXJXnXhX2XdXCXCXdXxX6XoX=X2XJ.c.>X4XP.&.[.*X*Xj.1X7X2XJ.p.I $ $ $ $ $ $ 3 p * & < T +.O.5.c.j.:.,X4X-.l.6X8X6X6X6X7X>XhXa.4.&.v.h 3 @ @ @ @ @ @ @ @ @ @ @ @ @ @ @ @ @ @ @ @ @ @ @ @ $ $ $ $ & & < 6 w 7 U jXNXQ 7 w 5 4 3 & $ @ . B f @ $ @ $ PXPXPXPXPXPXPXPXPXPXPXPXPXPXPXPXPXPXPXPX",
"PXPXPXPXPXPXPXPXPXPXPXPXPXPXPXPXPXPXPXPXPXi i i i 3 . $ y r 4 4 5 p l g Y eXvX#.C V B l j f h h a i i u u i i i i i u u u y y y u y y y y y y y y y y y y y y y y y y y u y y y y y u u u u i u y u i i u u i i i i i z ;.~ [.&X].AXAX#XhXSXSXlXhXfXVXVXCXsX5X>X9XyXQ.H.J.j.XXc..X=XOXh.h.>X3Xu.3.N.o.W 3 # $ $ $ $ $ C X.U G X.i.d.z.x.l.+X2X>X1X6XsXdX7X7XsX>XhXi.J ` j.$ @ @ @ @ @ @ @ @ @ @ @ @ @ @ @ @ @ @ @ @ @ @ @ @ @ @ @ $ $ & & < < 6 7 N I.DXa.9 w 6 < & @ $ $ O q D $ @ @ $ PXPXPXPXPXPXPXPXPXPXPXPXPXPXPXPXPXPXPXPX",
"PXPXPXPXPXPXPXPXPXPXPXPXPXPXPXPXPXPXPXPXPXi d d u &   r i i u p p f g B ..vXeXY V Z Z j f h h a a a i i u y y y i i i u y y y y y y y y y y y y y y y y y y y y y y y y y y y y u y y y u y y i u y u i i i u u i i i x ` ^ ] ] ].KXGXSXHXHXlXxXfXVXVXCXoXc.>Xl.>X4XtX_.G.i.;..X6X+Xv.;.:.b.u.+.X.O.N.l.a $ $ $ $ $ @ n 8.X.q %.@X<XV.8.p. X>X>XwX2X1X2X2X2XhX>XwX;.k ~ j.3 @ @ @ @ @ @ @ @ @ @ @ @ @ @ @ @ @ @ @ @ @ @ @ @ @ @ @ @ $ & & & < 1 7 , ..nXqXM 7 6 < < < 3 2 * < L 3 @ @ @ PXPXPXPXPXPXPXPXPXPXPXPXPXPXPXPXPXPXPXPX",
"PXPXPXPXPXPXPXPXPXPXPXPXPXPXPXPXPXPXPXPXi i h i y O   $ r t i f f l g n m.MXf.F Z Z k j j h h i i i i i i i y y y y y y y y u y y y y y y y y y y y y y y y y y y y y y y y y u u y y y y y y u i u y u i i i y i i i i L x i x @XJXGXHXHXlXxXgXVXVXVX*Xc.:.$.<.~.tXkXtXE.b.>.h.v.c.j.:.b.V.+.+.+.O.rX].u $ @ @ $ $ $ < K P x ].*XfXU.4.&.[.c.l.Y.3XU.Y.P.F.~.4XZXh.L ~ 1X) $ @ @ @ @ @ @ @ @ @ @ @ @ @ @ @ @ @ @ @ @ @ @ @ @ @ @ @ $ $ & & < < w 9 J iXcXQ > 6 6 4 4 3 $ @ X Z i @ @ $ $ PXPXPXPXPXPXPXPXPXPXPXPXPXPXPXPXPXPXPX",
"PXPXPXPXPXPXPXPXPXPXPXPXPXPXPXPXPXPXPXPXi i h d t . O r 3 3 4 5 f l B U qXbX .n V Z j f f h h a i i i i i i i u y y y y y y y u y y y y y y y y y y r r r y y y y y y y y y y y u u y y y y y y y i u y u i i u y u y u z x ].dXfXFXGXHXZXxX7XCXVXAXCX#Xn.n.K.~.Q.tXkXrX5X#Xh.' ' :.b.b.p.O.O.X.X.E.<Xx o + q A $ $ @ @ @ z [ ] [.$Xx.=.' >.:.<.XXn.l.p.D.w.H.yXZX>.P ` 7X` 3 @ @ @ @ @ @ @ @ @ @ @ @ @ @ @ @ @ @ @ @ @ @ @ @ @ @ @ $ $ & & < < 1 8 m I.mXy., 6 6 < & @ @ @ O f j @ @ @ $ PXPXPXPXPXPXPXPXPXPXPXPXPXPXPXPXPXPXPX",
"PXPXPXPXPXPXPXPXPXPXPXPXPXPXPXPXPXPXPXPXh i h d 3   $ i i u p p f g B | vXiXY V Z Z j j f h a i i i i i i i u i i y y y y y y y y y y y y y y y y y y y r r y y y y y y y y r r y u u y y y y y y y i u u u i i u y ^ ' z ^ VXJXFXGXGXSXhXfXdX8XCXfXfXfX<X1XuX~.!.uXuX!.3XoX].].' | =.p.O.O.O.O.N.hX` o o 3 *.L.! 4 @ + o i x k g.x.s.i.' ].:.( $.) &.p.D.H.!.4X5X$.R v.<XL $ @ @ @ @ @ @ @ @ @ @ @ @ @ @ @ @ @ @ @ @ @ @ @ @ @ @ @ $ $ & & & < 1 8 , r.nXT.N 1 1 < < < 3 2 $ 5 D $ @ @ @ PXPXPXPXPXPXPXPXPXPXPXPXPXPXPXPXPXPXPX",
"PXPXPXPXPXPXPXPXPXPXPXPXPXPXPXPXPXPXPXPXh d h i 2   @ r y i p f l B V d.MX(.G V Z j j j f f h a i i i i i i i u u i y y y y y y y y y y y y y y r r r y r r r r r r y y y y y r r y y u y y y y y y u i i u i i i i |.}.i y oXKXGXGXSXxXsXfXCXCXOX<X7X8X#X4XtX4XtXhX!.U.{.|.].{.) } } X.X.X.O.S.Z._.( o * E u.A._.i.f + o ^ j.:.l.u.N.i.]. X<.$.:.&.=.u.W.~.uX5XY.s.x.gX#XI l $ @ @ @ @ @ @ @ @ @ @ @ @ @ @ @ @ @ @ @ @ @ @ @ @ @ @ @ $ $ & & < 1 7 8 T jXiXG 1 w w 4 3 * $ @ & A 3 @ @ @ PXPXPXPXPXPXPXPXPXPXPXPXPXPXPXPXPXPXPX",
"PXPXPXPXPXPXPXPXPXPXPXPXPXPXPXPXPXPXPXz i h h u &   * 3 3 4 5 p l B K I.MXa.C V B l j f f f h h a i i u u u i i i y y i i y y y y y y y y y y y y y r r r r r r y y r r y y y y r r y y y y y y y y y u u i i u y i ' ^ r ' VXGXSXHXlXsXCXdXdXdX&X{.=X[.U.tX!.!.4X!.P.M.].].].%.} T { X.X.X.V.Y.P.s.Z 2 E u.O.O.Z.tXt.3 h =XJX$X! o.3.g.].b.s.&.b.x.d.#.A.~.4XhX2XP.4XlXgXM.E @ + + @ @ @ @ @ @ @ @ @ @ @ @ @ @ @ @ @ @ @ @ @ @ @ @ @ $ $ & & < < 1 7 M qXbX| 7 0 6 < & O O @ O Z t @ @ @ @ PXPXPXPXPXPXPXPXPXPXPXPXPXPXPXPXPXPX",
"PXPXPXPXPXPXPXPXPXPXPXPXPXPXPXPXPXPXPXh d h h y O @ y y u u p p g B Y eXvX .V Z Z j f f f a a i i a i i i u y y y i u y y y y y y y y y y y y r r r r r r r y r r r y r r r r r r r r r r y y y y y u u u u u y a ' &X^ ' VXGXzXSXHXfXfXCX9X#X;X:X6X<X' &.!.).!.J.V.V.l.j.].j.X.X.T T X.X.O.s.>XsX+XD E u.o.O.=.A.qX_ 2 z dXJX6X..o.o.k.UX:.i.x.b.l.j.k.g.c.M.hXsXY.yXlXxXc.V o @ @ @ @ @ @ @ @ @ @ @ @ @ @ @ @ @ @ @ @ @ @ @ @ @ @ @ $ $ $ & & < 1 7 , f.MXa.9 8 6 < < & & $ @ f h @ @ @ @ PXPXPXPXPXPXPXPXPXPXPXPXPXPXPXPXPXPX",
"PXPXPXPXPXPXPXPXPXPXPXPXPXPXPXPXPXPXPXi d h i r . @ y u a a f f g B  .vXiXT A Z Z j j f h a i i i i i i i i i y y y y y y y y y y y y y y y y y y r r r r r r r r r r r r r r r r r r r r r r y y u y y u u y i ].VX}.' VXJXzXzXSXZXfX8X7X6X8X&X}.,XyX.X` &.J.L.Y.&.$.) :.j.&.p.u...o.=.=.=.u.J.2X6Xb.x.u.u.C.C.R._ 3 $ D CXGXY.N.o.=.[.[.;.$.s.x.m.k.j.v.XX$XxXhXj.XXfX7X_ K < U Y @ @ @ @ @ @ @ @ @ @ @ @ @ @ @ @ @ @ @ @ @ @ @ @ @ $ $ $ & < < 1 7 > ..bXT.m 0 w 5 4 3 * * @ 6 k $ @ @ $ PXPXPXPXPXPXPXPXPXPXPXPXPXPXPXPXPXPX",
"PXPXPXPXPXPXPXPXPXPXPXPXPXPXPXPXPXPXPXd d h i 2 . $ 3 3 4 t p g g n y.MXT.K A Z l j f h h h a i i i i i i i i i i y y y y y y y y y y y y y y r r y r y r r r r r r r r r r r r r r r r r r y y y y i ' ^ y y ^ VX&X] VXJXSXzXzXZXZXfX6X1XgXdX9X{.c.>X.X>.( ( &.b._ ;.&.-.&.*.z.P.N.=.i.p.p.p.J.P.s.J.x.J.C.B.4Xt.2 @ 3 ].JXZXL.x.#.g.{.h.l.z.p.y.Z.9.S.v.@X6XfXxX.X~ #X1X/ K < K K @ @ @ @ @ @ @ @ @ @ @ @ @ @ @ @ @ @ @ @ @ @ @ @ @ $ $ $ & & < < 1 > T cXiXH 8 w < & & @ @ O < A 3 @ @ $ PXPXPXPXPXPXPXPXPXPXPXPXPXPXPXPXPXPX",
"PXPXPXPXPXPXPXPXPXPXPXPXPXPXPXPXPXPXPXd d d i & . r y t t t p g g M m.MXa.F A Z j f f h h h h a i i i i i y u u i i y y y y y y y y y y y y y r r r r r r r r r r r r r r r r r r r r r r r y y y y ' CX^ y y ^ }.CXVXJXGXzXjXSXZXfX7X<X9X6X6X8XdX@X@X@X#X{.;.&.#X>.c.*.X.-.&.l.J.L.C.u.z.x.x.x.L.Y.x.z.p.S.4X).| h ` >.FXJXlX,Xv.;.h.j.g.g.p.i.L.q.H.W.>X*X=X7XhXY.~ =X_ h $ $ @ @ @ @ @ @ @ @ @ @ @ @ @ @ @ @ @ @ @ @ @ @ @ @ @ @ @ @ $ $ $ & < < 6 8 G qXvX} 7 w < & & & * $ & A t @ @ $ PXPXPXPXPXPXPXPXPXPXPXPXPXPXPXPXPXPX",
"PXPXPXPXPXPXPXPXPXPXPXPXPXPXPXPXPXPXi i d h i @ O y i i p p f g g K /.MX#.V Z Z j j h f h h a i i i i i i y y y y y y y y y y y y r y y y y y y r r r r r r r r r r r r r r r r r r r r r r r t y i ].] u y x x ] KXKXKXSXjXSXFXxX7X1X6X*X#X6XsX6X=X=X#X#XoX_ j..Xc.l.&.*.X.-.l.l.z.z.J.J.b.x.K.V.p.l.n.x.R.pXR.$.=XGXZXJXnX!.,XU.:.' ' l.x.s.=.A.)._.W.sXdX6XZXhXW.x.@Xi r @ $ @ @ @ @ @ @ @ @ @ @ @ @ @ @ @ @ @ @ @ @ @ @ @ @ @ @ @ $ $ $ & & < < 6 8 m I.MXy.9 w 6 < 3 2 2 2 O B p @ @ $ $ PXPXPXPXPXPXPXPXPXPXPXPXPXPXPXPXPX",
"PXPXPXPXPXPXPXPXPXPXPXPXPXPXPXPXPXPXi i h h y X   3 3 t t f g l g Y iXcXQ V Z Z j j f f h a i i i i i i i y y y y y y y y y y y y y y r y r r r r r r r r r r r r r r r r r r r r r r r r r r r r y i y y a ^ ] CX&X@XZXsXhXGXZXlX1XOX#X6X<X8X6X*X=X6X$XoX[.[. Xc.b.wX2Xb.-.-.O.-.&.<.l.x.U.x.x.s.i.<.i.L.R.rXrXlXKXhXlXzXW.!.!.L.J.l.' ;.p...4.H.tX!.4XlXfXsXlXyXi.v.h.; 3 @ @ @ @ @ @ @ @ @ @ @ @ @ @ @ @ @ @ @ @ @ @ @ @ @ @ @ @ @ @ $ $ $ & < < 1 7 9 d.mXm.N 7 6 < < $ $ @ . g h @ @ @ $ PXPXPXPXPXPXPXPXPXPXPXPXPXPXPXPXPX",
"PXPXPXPXPXPXPXPXPXPXPXPXPXPXPXPXPXPXi i h h t . O r t t 5 0 f B B | vXeXU V Z j j j f h h h i i i i i i i y y y y y y y y y y y y y y y y y r r r r r r r r r r r r r r r r r r 3 r r r r y r r z r ; r y ] &XFX}.z {.FXxXlXlXZXfX<X.X#X1X1X8X=X#X6X6XoX[.oX@X*Xb.wX2X3XyX3X<.-.*.@.$._ %.x.z.<.i.K.z.b.,XL.3XwXjXsX,XjXA.W.!.P.V.E.J.v.` _ *.e.H.G.W.2X7XlXZXhX!.#.$X~ ; @ + @ @ @ @ @ @ @ @ @ @ @ @ @ @ @ @ @ @ @ @ @ @ @ @ @ @ @ @ @ $ $ $ & & < 6 w ,  .bXqXM 1 < & & @ $ $ O q k @ @ $ $ PXPXPXPXPXPXPXPXPXPXPXPXPXPXPXPXPX",
"PXPXPXPXPXPXPXPXPXPXPXPXPXPXPXPXPXPXi i h h t   $ i i i p f l B n r.MX(.G V Z j j f f h a i i i i i i i y y y y y y y y y y y y y y y y y y r r r r r r r r r r r 3 r r r r r r r 3 3 r r r 3 x }.^ y i ^ ' FX-Xx ' FXGXlXzXlXCX<XOX#X7X1X6X=X&X*X6XoX[.[. X*XXXyXyX>XfXlXpX3Xz.-.*.E ( $.@.*.&.l.b.x.K.3X3XL.,XyX3X,XS.A.).P.s.Y.s.L.M.) ) i.Z.G.H.R.1X$XsXgX4XF.!.7XP r o + @ @ @ @ @ @ @ @ @ @ @ @ @ @ @ @ @ @ @ @ @ @ @ @ @ @ @ @ @ @ $ $ & & < 1 w 8 T jXiXH 1 6 6 1 3 2 3 $ 6 k $ @ @ $ PXPXPXPXPXPXPXPXPXPXPXPXPXPXPXPXPX",
"PXPXPXPXPXPXPXPXPXPXPXPXPXPXPXPXPXPXz h h h 3   @ r y i f g l B C s.mXm.M V Z j j f f h a i i i i i i i i u i y y y y y y y y y y y y y y r r r r r r r r r r r r r r r r r r r r r r r 3 r r x &X|.u ] CX].VX=X' FXJXHXZXlX7X7XOX X<XsXfX8X&X&X@XoX].oX X Xb.2XhX2X;.' FXSXpXwXK.-.-.@.:.{ E @.l.XX>Xb.U.3X2X,XY.2X3XY.rXR.V.U.L.V.L.P.J.s.p.v.M.,XgX6X6XsXsXE.A.jX5X} O   o o + + + + @ @ @ @ @ @ @ $ @ @ @ @ @ @ @ @ @ @ @ @ @ @ @ @ @ $ $ & & < < 6 7 G iXvXQ : 6 6 < < * $ @ < k $ @ @ $ PXPXPXPXPXPXPXPXPXPXPXPXPXPXPXPXPX",
"PXPXPXPXPXPXPXPXPXPXPXPXPXPXPXPXPXPXz h h h 3   $ 3 3 3 5 p l V K I.mXa.M V Z j f f h a i i i i i i i i u y y y y y y y y y y y r y y y y r r r r r r r r r r r r r 3 3 3 3 r r r r r r r r h z ] ^ ^ CXFX&XCXFXKXJXFXlXZXsX<X<Xn.+X2XsX8X&X&X].' ].oX{.[.XXwXxX2Xh.i 3 ' VX$Xm.rXU.<.-.X.{ { { *.z.XXXX<X3X>XsX,XY.,X>XwX,XY.Y.P.P.l.z.yXuX!.>X$X@X8X6XgXsXwXP.rXxXV.H o 6 C & + + + + @ @ @ @ @ @ @ @ @ @ @ @ @ @ @ @ @ @ @ @ @ @ @ @ @ @ $ & & & < 1 7 m T.bX .> 6 < & @ @ @ O & Z 2 @ @ $ PXPXPXPXPXPXPXPXPXPXPXPXPXPXPXPXPX",
"PXPXPXPXPXPXPXPXPXPXPXPXPXPXPXPXPXPXz h h i <   y i i i p f l V K /.MXr.C Z Z j j f f h h i i i i u i i i i u u y y y y y y y y y y r r r r r r r r r r r r r r r r 3 3 3 3 3 r r 3 r 3 r h x h i y }.KXoX@XFXGXFXFXfXxXlX+X.XOXXX>X2X8X*X&X}.' _ >. XoX*X7XlX2Xj.a y ; y =XoX~ i.rX>X<.-.X.{ { | =.i. XoX*X<X0X7X>XK.3X2X1X,XE.G.E.n.b.yXyX4XY.>X*X{.#XhX,XP.y.1X.XK 5 * ..W.| @ @ @ @ @ @ @ @ @ @ @ @ @ @ @ @ @ @ @ @ @ @ @ @ @ @ @ @ @ @ $ $ & < < 6 7 b m.MXy.> w 6 < < & * $ & Z 3 @ @ @ PXPXPXPXPXPXPXPXPXPXPXPXPXPXPXPXPX",
"PXPXPXPXPXPXPXPXPXPXPXPXPXPXPXPXPXz z z h i &   r y i h f g l B Y eXvX .C A Z j j f h h h a a i i i i u y u y y y y y y y y y y y y y y r r r r r r r r r r r r r r r 3 3 r 3 r r p r y ] ^ z y i ].VX@X*XFXKXKXZX9X<XlXsX XoX*X|.h.#X=X;X*XOX,.:.<.XX6XsXlX7Xj.x i 3 $ ; ].CX' L t.,XOXn.-.O.*.g.{ *. X:X&X*X<X<X*X#X$X3X2X>XU.S.L.v.@X7X,X4XyX,X8X{.XXL.Z.7.p.2X~ * u K A.!.P + @ @ @ @ @ @ @ @ @ + + + @ @ @ @ @ @ @ @ @ @ @ @ @ @ @ @ @ @ $ & & < 1 7 , a.mXf., w 6 1 3 2 * $ O l 4 O @ @ o PXPXPXPXPXPXPXPXPXPXPXPXPXPXPXPX",
"PXPXPXPXPXPXPXPXPXPXPXPXPXPXPXPXPXz h h z i &   $ * 3 4 t f l B T aXcX! C A Z j j f h h i i i i i i i i i u u y y y y y y y y y y y y y y r r r r r r r r r r r r 3 3 3 3 3 # t @.#.f ` oX] y i |.VXoX=XFXGXAXfX9XXX1XlX<XoX&XCX;X}.}.oX*X*X#X<.n.XXb.>XxXsX{.~ *.j $ $ @ r ^ D i L b.R.<Xb.-.-.*.W E $. X*X&XOX#X-X-X;X+XY.>Xv.l.l..X$X$X1XyXyX4X+X+X#.4.Z.rXyXk.3 y u 0 I P & @ @ @ @ @ + + + + + + + @ $ $ @ @ @ @ @ @ @ @ @ @ @ @ @ @ @ @ $ & & < 1 7 > r.mXI.N w 6 < & $ @ + . g t @ @ @ o PXPXPXPXPXPXPXPXPXPXPXPXPXPXPXPX",
"PXPXPXPXPXPXPXPXPXPXPXPXPXPXPXPXPXz z h h i @ O r t t t p p l B | vXiXT C V Z j j f h a i i i i u y i u i i y y y y y y y y y y y y y r r r r r r r r r r r r r r r r 3 3 3 # W P.! z h.].^ x |.FXCX8XfXAXKXZX9X X X6XxXXX&X-X-X8X8X;X&XoXc.c.n.>X3X>XjXwX[.[ / i.g # $ @ @ @ @ O 3 h.qXR.3XXX-.X.{ { { *..XOXOX*X;XCX=XoXb.Y.+Xj..X$X#X$X*XwXE.V.Y.A...} s.hX>XZ $ i 2 @ @ + @ @ @ @ @ @ @ @ + + + @ @ @ @ @ @ @ @ @ @ @ @ @ @ @ @ @ @ @ @ @ $ & & & < 7 >  .nX(.m w 1 & & & @ @ O s p O @ @ o PXPXPXPXPXPXPXPXPXPXPXPXPXPXPXPX",
"PXPXPXPXPXPXPXPXPXPXPXPXPXPXPXPXPXz h h h i O $ i i a a f g l B ..vXqXY A A Z j f f h h h i i i i i i u i y y y y y y y y y y y y y y y y r r r r r r r r 3 r 3 r r r r 3 ; f R C t j L x z }.KXFXKXFXAXFXFXAX9X<X9X1XyXXX X{.oX8X8X*X:X*X X Xn.1X>XhX2X[.[ h L p $ $ $ @ @ @ @ O o a [.sX,X>Xb.-.X.{ E { :..X@XoX*XVXfX&XoXx.3X.X}.#X#X*X=X<XJ.Y._.V.i.b.2X4XR g D 3 @ @ @ @ @ @ @ @ @ @ + + + + + + + @ @ @ @ @ @ @ @ @ @ @ @ @ @ @ @ @ @ @ @ & & & < 7 > Q bXqXG 8 w 1 < 3 * * @ p f @ @ @ o PXPXPXPXPXPXPXPXPXPXPXPXPXPXPXPX",
"PXPXPXPXPXPXPXPXPXPXPXPXPXPXPXPXPXz h h h y X O r t t u p g B B r.MX(.U A A Z j j h h h a i i i i i i i i i i i u y y y y y y y y y y y r y r r r r r r r r r r r r 3 3 $ p P p r j g r i h.FXKXVXAXZXZXAXAX9XOX8X8X>XhX#X[.>.[.*X*X[.&X8X-XOX Xb.wXsX_ z h D u y # $ $ @ @ @ @ + @ @ r ].gXU.>Xn.-.O.{ X.X. X}.].oX8X=XoXoXXXL.1X].[.=X*X*X.XU.pXyXb.XXxXsX$.3 L _ @ o @ @ @ @ @ @ @ + + + + + @ + @ @ @ @ @ @ @ @ @ @ @ @ @ @ @ @ @ @ @ @ @ $ & & < < 7 > T cXiXH 8 w < < & * @ O 0 g @ @ @ o PXPXPXPXPXPXPXPXPXPXPXPXPXPXPXPX",
"PXPXPXPXPXPXPXPXPXPXPXPXPXPXPXPXPXz h h h y X @ r t t t p g B C d.MXI.K A Z Z j f h h h a i i i i i i y y y y y y y y y y y y y y y y y y r r r r r r r r r r r r r r r u P g r j f r D oXFXFXGXAXlXZXlXCXCX7X#X8X&XOXsXXX>.].>..X}.[.@X8X8X#X#X>XjXc.D j x y y r $ $ @ @ + + + @ @ @ + 3 ~ v.U.>XK.-.O.O.{ *.,.OX#XOXoX%X-X*Xn.2X&X}.*X*X@X>XtXyX<X6X7X<X:.p &.b.L o o @ @ @ @ + + + + + + + + + + + + + + @ @ @ @ @ @ @ @ @ @ @ @ @ @ @ @ @ $ & & & < 7 > H iXiXJ w 6 < & & @ @ O w g @ @ @ o PXPXPXPXPXPXPXPXPXPXPXPXPXPXPXPX",
"PXPXPXPXPXPXPXPXPXPXPXPXPXPXPXPXPXz h h h t X 2 i a a f f g B C s.MXm.K A Z Z j f f a i i i i i i i i i i u u u i u y y y y y y y y y y r r r r r r r r r r r r r r r u P Z r f j r A J.kXkXkXzXzXzXzXfX7X<X9X;X&X&X@XsX+X>.>.j..X&X#X#X;X8X#X6X,XyX:.t.t.a y y r $ @ @ + o + + @ @ @ $ @ + / Y.J.Y.K.*.-.-.-.<.XX<X@X*X&XCX*X XU.6X}.}.@X1X,X+XXX9XfX1Xj.p p E ) q o o @ @ @ @ @ + + + + + + + $ $ @ $ @ $ $ $ @ @ @ @ @ @ @ @ @ @ @ @ @ @ @ $ & & & < w 7 H eXcXT 7 w 6 < 3 * * * 6 j @ @ @ o PXPXPXPXPXPXPXPXPXPXPXPXPXPXPXPX",
"PXPXPXPXPXPXPXPXPXPXPXPXPXPXPXPXPXz z h h t . $ y u a f g l B C m.MXf.K A A Z k j j h h a a i i i i i i i i u y u y y y y y y y y y y y r r r r r r r r r r r r r r t I Z t j f r D L._.G.Q.tXuXlXxXfX7X<X9X-X-X;X-X*X7X+X>.,.:.>.*X=X9XdX8X#X7X3XyX>XL.! r y y r $ @ + o o + @ @ @ @ @ @ + ) qXY.A.E.z.<.z.p.n.XX1X*X8X-XCXCXoXXXsX&XoX6XyX2XoX}.8XsXXXk $ $ $ e 5 o + @ @ + @ + + + + + + $ @ + + @ @ @ @ @ @ @ @ @ @ @ @ @ @ @ @ @ @ @ @ @ $ & & & < w 8 G qXvXQ 7 w 1 < < * * $ 5 j @ @ + o PXPXPXPXPXPXPXPXPXPXPXPXPXPXPXPX",
"PXPXPXPXPXPXPXPXPXPXPXPXPXPXPXPXPXz h h h 4   @ 3 r t t p l Z F I.MXa.F Z Z j j f h h h h h a i i i i y y y y y y y y y y y y y y y y y r r r r r r r r r 3 3 r r r D / k h h r D +X).`.F.G._.yX2XsX7X>X<X*X;X-X-XoXoX+X<X[.:.1.<.#X8X8XgX8X<X<X<X,XyX,XP # y y r @ o o o o @ @ @ @ $ @ t t P wX3XP.J.Y.<.OX XoX<X6X*X=X-XCXCX@X#XxX8X8XhXjXyX>X6X6X+XD 5 $ $ 0 e @ @ @ @ @ @ + + + + + + + + + + + @ @ @ @ @ @ @ @ @ @ @ @ @ @ @ @ @ @ @ @ @ @ & & & < w 7 M qXbX} 7 6 < & & O @ O < j $ @ + o PXPXPXPXPXPXPXPXPXPXPXPXPXPXPXPX",
"PXPXPXPXPXPXPXPXPXPXPXPXPXPXPXPXPXz z z h t . 3 i i a f f Z B K I.MXd.K A Z k j f f a a a i i i i i i i i i i i u y y y y y y y r r r r r r r r r r r r r 3 3 3 3 r ` g.L h 3 L $XzXuXW.P.Q.uX2X1X7X3X>X-X%X%X-X}.[.j.<.>X@X<.-.-.XX*X X<X7X<XXX>X>XyXnXk.$ y y 3 + o @ + @ @ @ @ 3 f $ ;.%._ hX3XJ.i.U.j.oXoXoX#X*X&X;X-XdX8XoX8XGXZX8XgXkX!.uXxX>XD W i.t 5 V * @ @ @ @ + @ @ + $ + + + + + $ @ + + @ @ @ @ + $ $ @ @ @ @ @ @ @ @ @ @ @ @ @ @ & & & < 6 7 m T.bX .7 w < < < & * $ < j $ @ @ o PXPXPXPXPXPXPXPXPXPXPXPXPXPXPXPX",
"PXPXPXPXPXPXPXPXPXPXPXPXPXPXPXPXPXz z z h 4 . 3 i i h f k Z Z K T.MXd.C A Z k j j h h h h a i i i i i u u u y u y y y y y y y y y y y y y r y r r r r r r r r r 3 f ~ L h 3 L 1XSXHXkXE.W.).4X3X,XE.U.2X8X&X%X%X|.].[.<.K.>XK.P.C.C.K.n.b.<X7X7X>X3X!.pXhX_ r ; $ o + @ @ @ @ @ I K 2 p P $.2XsX1Xb.l.U.[.oXoXOXOX*X=XdXCX-X8X$X1XZXZXCXxX_.).zX2XP < y.!.#.Y 4 @ @ @ @ @ + + + + + + + + @ $ $ @ @ @ @ @ @ @ @ @ @ @ @ @ @ @ @ @ @ @ @ @ @ @ @ & & < < 7 7 m T.MX..7 w 6 < < 3 2 $ < l $ @ @ o PXPXPXPXPXPXPXPXPXPXPXPXPXPXPXPX",
"PXPXPXPXPXPXPXPXPXPXPXPXPXPXPXPXPXz z z h 3   @ 3 3 t p f B V K T.MXy.C A Z Z j j h h h h i i i i i i i i u u y y y y y y y y y y y y r r r r r r r r r r r 3 * y h r r y L $XSXGXzXP.F.).pX3XY._.tXjXsX=X&X:X%X|.}.}..Xl.U.>XK.C.2.-.-.<.+X>X2X,X4X!.~.pXjXk.3 + + @ @ @ @ + 6 ..K t A P 1XwX2X2XJ.s.x.>.oX}.[.j.c.>X7XCX-X8XsX2XxXHXAX2XW.pXjXg.O 4 B i.).| @ @ @ @ @ @ @ + + + + + + o + o @ $ $ $ $ @ @ @ @ @ @ @ @ @ @ @ @ @ @ @ @ @ @ $ $ & & < < w 8 m T.MX..7 w < & & $ @ O & l $ @ @ o PXPXPXPXPXPXPXPXPXPXPXPXPXPXPXPX",
"PXPXPXPXPXPXPXPXPXPXPXPXPXPXPXPXPXz h z h 3   2 r t t p g B V K T.MXy.A A Z Z j f h h h h a i i i i i i i i u y y y y y y y y y y y y y r r r r r r r r r r 3 3 h 3 3 3 x $XSXGXGXkXtX_.tXtXP.J.W.rX1X8X*X-X&X|.].|.>.}. Xz.3Xz.p.-.<.<.-.K.3X3XyX4X!.!.~.pXNXc.f $ $ @ @ @ @ $ 0 p K *._ 1X>X3XL.P.L.j.].@XoXOX>X+XK.7XVXCXCXfX8XZXJXFX8X3XuXrX&.5 2 $ K W q @ @ @ @ @ @ @ $ + + $ + @ $ + o + + + o + + @ @ @ @ @ @ @ @ @ @ @ @ @ @ @ @ @ $ $ & & < < 7 8 m T.MXr.7 w < & & $ @ O & g $ @ @ o PXPXPXPXPXPXPXPXPXPXPXPXPXPXPXPX",
"PXPXPXPXPXPXPXPXPXPXPXPXPXPXPXPXPXz z z h 3 . r i a h j j Z V K T.MXy.K A Z Z k j h h h h h i i i i i i i i i i u u y y y y y y y y y y y r r r r r r r r 3 # j P p # t j.ZXlXGXHXpX).pXrXA.A.V.U.3X<XCXCX-X;X|.|.].h.j.,.%.x.,XJ.p.-.n.b.b.>X1X2X2X4X,X3X!.uXnXM.D $ $ $ $ @ @ 5 V =.J.+XM.U.p.C.E.U. X#X@XoX6X7X7XK.fXFXVXCXCXCXZXJXGXFXZXM.L./ 3 $ 0 5 @ @ @ @ @ @ @ + + + + + + + + @ @ @ @ + + + @ @ @ @ + @ @ @ @ @ @ @ @ @ @ @ @ @ @ @ @ @ & < < w 7 m T.mXr.9 w 6 1 < 2 2 $ < g $ @ @ o PXPXPXPXPXPXPXPXPXPXPXPXPXPXPXPX",
"PXPXPXPXPXPXPXPXPXPXPXPXPXPXPXPXPXz z h h 3   $ r y i f g j B K T.MXy.C A Z j j f f h a a i i i i i i i i i i i u u y y y y y y y y y r r r r r r r r r r r f v.4XE r ;.lXSXnXpXtX_.tXtXrXl.&.V.L.>X7X7X7XoX%X}.|.UX{. X,.>.:.J.,XK.z.<.n.n.J.>X7XsXhX2X5XhX4XyXnX1XP # $ $ $ 3 f 0 J.yX>X+Xx.S.!.>X<XsX9X X<X7X8X9X7XFXFXAXZXAXCXZXJXKXKX}.p p 2 $ 0 5 @ @ @ @ @ @ @ @ @ + $ $ + + + + $ @ @ @ + $ + $ $ @ @ @ @ @ @ @ @ @ @ @ @ @ @ @ @ @ @ @ & & < < w 8 m T.MXr.9 w 6 < < & $ @ < f $ @ + o PXPXPXPXPXPXPXPXPXPXPXPXPXPXPXPX",
"PXPXPXPXPXPXPXPXPXPXPXPXPXPXPXPXPXz z z h 3   @ 3 3 t p g l B K T.MXd.K A Z k j j h h h h h h i i i i i i u u y y y y y y y y y y y y y y r r r r r r y r r _ kXU.l ) lXSXzXtXq.8.G.).).jX1X>.g.L.R.6X>Xz. X}.|.].>.j.>.,.;.$.{ C.!.K.p.z.b.z.J.<X7X1X7X7XxXhX4X4XzXwXP ; r 3 f 2 I ,X3X+X3XE.rX3X>X@X@X[.j.n.K.1X9X8XZXJXGXZXFXAXGXJXKX-Xx o @ 2 Z 0 @ @ @ @ @ @ @ @ @ + + + + + + + + o + @ @ + @ @ @ @ @ @ @ @ @ $ @ @ @ @ @ @ @ @ @ @ @ @ $ & & < < w 8 m T.bX..9 w < < & O O O & f @ @ @ o PXPXPXPXPXPXPXPXPXPXPXPXPXPXPXPX",
"PXPXPXPXPXPXPXPXPXPXPXPXPXPXPXPXPXz z z h 3 . 3 i i h f j Z V K I.MXa.K A Z k k j h h h h h i i i i i i i u y y y y y y y y y y y y y r r r r r r r r r r r I x.) P 2XSXnX`.q.e.9.W.Z.H.).>X.Xj.j.XXj. Xz.n.OX X,.>.>.].,.$.( { { C.!.V.-.z.z.-.p.z.b.<X9XsX7XhX5XR.jXwX( x _ L 5 I U.XX+XL.qX3X+X6X*X{.{..X XC.P.2XsXZXZXHXZXFXGXJXJXCX^ o @ $ h 3 @ @ @ @ @ @ @ @ @ @ + + + + + + + + + @ @ @ @ @ @ @ @ @ @ @ @ @ @ @ @ @ @ @ @ @ @ @ @ @ @ @ O & & < 1 7 m /.bX .8 w 6 1 < $ $ @ < f @ @ @ o PXPXPXPXPXPXPXPXPXPXPXPXPXPXPXPX",
"PXPXPXPXPXPXPXPXPXPXPXPXPXPXPXPXPXz z z z t . ; y y i p g l B K I.MXa.K A Z Z k j h h h i i i i i i i i i i u u u u u y y y y y y y y y y y r r r r r r y f t E >X2XzXzX).q.6.e.F.q.q.q.F.b.XX<XoX[.&XoX>.<.<Xn.$.,.].[.,.~ r P *.-.P.C.-.p.X.X.-.-.b.6X6X6X7X7X2X3X!.kXyXl.j./ Z @.1X>XJ.4X3Xn.<X=X=X*XdX7X<XK.3X5XxXlXzXHXZXHXJXJXFX' r @ $ i r @ @ @ @ @ @ @ @ @ + + + + + + o o o o o o o + + + $ @ @ @ $ @ @ @ @ @ @ @ @ @ @ @ @ @ @ @ $ $ & & & < 1 7 M qXbX} 8 w 6 1 3 2 $ $ 1 f @ @ @ o PXPXPXPXPXPXPXPXPXPXPXPXPXPXPXPX",
"PXPXPXPXPXPXPXPXPXPXPXPXPXPXPXPXPXz z z z t . O ; 3 3 5 p l Z F m.MXf.K A A Z j j h h h h a a i i i i i y y y y y y y y y y y y y y y y y y r r r y h r / t.L } 7.).kX).D.7.6.D.9.0.w.G.F.Y.>XfX6X[.:XoX[. Xn.:.,.[.|.[.( 3 $ t t.J.C.=.u.u.=.=.K.-.z.7X6X0X<X7X1X<X3XR.kXhXc.P y.S.U.L.R.1X.X*X&X=X8X8XfX<X<X<X2XhXjXzXSXSXHXGXJXJXCX] i $ y r @ @ @ @ @ @ @ $ @ + + @ + + + + o o o o o o + + @ + @ @ @ @ + @ @ @ @ @ @ @ @ @ @ @ @ @ @ @ $ $ & & & < 1 7 G qXvXQ 8 w 1 < & $ @ O < f @ @ + o PXPXPXPXPXPXPXPXPXPXPXPXPXPXPXPX",
"PXPXPXPXPXPXPXPXPXPXPXPXPXPXPXPXPXx z z z t X $ y i i f f g B C s.MXm.K A A Z j j h h h h h a i i i i i i u u u i i i i u u y y y y y y y y y r r r r t #.) U 4.D.Q.`.D.N.8.q.Z.e.0.H.G.F.E.4X7X$X}.].[.oXoX,.,.].>.{.' ~ h D ) J.C.7.C.C.C.V.=.*.i.| l.>Xb.OX9X6X9XfX3X3X1X1Xv.L.N.l.+X1X#X=XdX-X6X6X@X>X1X<X0X1XhXzXnXDXDXGXJXJXJXFX] + ; 3 @ @ @ @ @ @ @ @ @ @ @ @ $ $ $ $ @ + + $ @ $ $ + @ + @ @ @ @ @ @ @ @ @ @ @ @ @ @ @ @ @ O @ @ @ @ @ & & & < 1 > G iXcXT 8 w 6 < < $ @ O < p @ @ + o PXPXPXPXPXPXPXPXPXPXPXPXPXPXPXPX",
"PXPXPXPXPXPXPXPXPXPXPXPXPXPXPXPXPXx z z z y X $ i i a h f l B C d.MXT.K A A Z j j h h h h h a i i i i i i u u y i u u y y y y y y y y y y y y y r r 3 r p K O.G.kX_.G.C.3.8.F.e.0.H.H.w.N.V.4XsXfX.X;.].-X].>.oX&X[.' z x i / J.7.2.8.C.B.A.C.S.-.X...*.<.c.oXoX9X<X<XfX<X.X.X$X2XM..XoX=XdX7XdX8X*XOX&..XCXfX<X>X5XkXnXmXHXJXJXJXJX:X3 @ @ @ @ @ @ @ @ $ @ @ @ + + + + $ + $ $ $ o $ @ @ @ $ $ + + + @ + @ @ @ @ @ @ @ @ @ @ @ @ @ @ @ @ @ @ @ & & & < 7 > H iXaXJ 8 w 6 5 4 3 2 $ 5 p @ @ o o PXPXPXPXPXPXPXPXPXPXPXPXPXPXPXPX",
"PXPXPXPXPXPXPXPXPXPXPXPXPXPXPXPXPXx z z z i X O 3 r r t 0 g B B r.MX(.U A A Z j j h h h h a i i i i i i i i i i i u u u u u u u u y y y y y y y r r r r A +.9._.kX).P.u.7.G.q.e.0.w.H.B.u.V.2XfXfXoX].h.[.h.}.;XoX` h $ 3 I x.N.2.8.8.B.L.C.C.B.P.o.-.*.1.c. X}.9XsX+X1X6X+XXX$X1X.X+X#X6X$X=XgX6X X,. XLXLXCXfX2X5XyXkXmXGXJXJXKXLXx o @ @ @ @ @ @ @ @ @ + + + + + + + + + + + o + o o + o o o + + + + + + + @ @ @ @ @ @ @ @ @ @ @ @ @ @ @ @ $ & & & < 7 > T cXiXG w w 6 < < * * @ 6 t @ @ @ o PXPXPXPXPXPXPXPXPXPXPXPXPXPXPXPX",
"PXPXPXPXPXPXPXPXPXPXPXPXPXPXPXPXPXPXz z z i O   3 r t u p g B B ..vXqXY A A Z j j h h h h h h i i i i i i i i i u u u u u u y u y y u y y y y y r r r r t Y D.).).Q.W.Z.D._.0.0.w.H.q.s.p.Y.sXfX@X}.;X&X' oX-X&X>.L * y P p.B.8.8.8.A.R.3X=.C.P.B.S.=.X.E E $. X*X#Xb.U.>XXX+X1X@X+X<X6X@X[.$X<XoX.XoXCXBXBXLX7XlXyX4XkXSXGXJXVX^ z $ $ @ @ @ @ @ @ @ @ @ @ @ @ + + + + $ $ $ + @ @ o o o o + + $ $ $ $ $ @ @ @ @ @ @ @ @ @ @ @ @ @ @ @ @ @ @ @ & & & 1 7 > Q vXqXM w w < & & @ O O 0 t @ @ @ o PXPXPXPXPXPXPXPXPXPXPXPXPXPXPXPX",
"PXPXPXPXPXPXPXPXPXPXPXPXPXPXPXPXPXPXz z z h & O u i a a f j B V | cXiXT A Z Z j j h h h h a i i i i i i i i i u u u u u u u y u y y y y y y y i y r r r * P hXkXG.F.W.D._.D.0.w.G.q.0.S.>X1XgX*X{.}.;X].%X-X&X[.].x r / p.N.8.8.9.F.rXZXfXl.-.C.P.C.C.X.E W E $. X@XM.L.U.b.+X.X.X>X3X+X+X1X>Xb.<X;X-XBXBX-X9XfX5X,XhXGXGXJXJX' o $ $ $ @ @ @ @ @ @ $ @ + + + + + + + + $ $ $ $ $ $ $ $ @ $ + + + + + + + + + @ @ @ @ @ @ @ @ @ @ @ @ @ @ @ @ @ & & < 1 7 >  .MXT.N w w 5 4 3 2 * @ q 4 @ @ + o PXPXPXPXPXPXPXPXPXPXPXPXPXPXPXPX",
"PXPXPXPXPXPXPXPXPXPXPXPXPXPXPXPXPXPXz z z h & O y y u t p g Z Z ! iXaX! A Z Z k j j h h h a i i i i i i i i i i i u u u u u u u y y y y y u y @.&.u y y r ;.SXzXrXyX!._._.0.0.w.H.0.q.Y.7X#XoX].|.%X].].&X[.h.&X&X' ( =.A.8.8.9.W.hX7X8X^ D p.A.A.C.2.O.{ E ) / _ j.g.u.t.l.c..X+X>XL.U.wX>X>.<XAX8X;X;X-X*X9X7X3X5XxXGXJXJX=Xi $ $ $ $ @ @ @ $ @ @ @ @ + + + @ $ $ + @ $ $ $ + $ $ $ $ $ $ $ + @ @ @ + + @ @ @ @ @ @ @ @ @ @ @ @ @ @ @ @ @ @ @ & & < 6 7 > r.mXL., w 6 1 4 3 3 3 & p 4 @ @ @ o PXPXPXPXPXPXPXPXPXPXPXPXPXPXPXPX",
"PXPXPXPXPXPXPXPXPXPXPXPXPXPXPXPXPXPXz z z h &   $ 3 3 t p f B Z Y eXvX .C A Z j j j h h a a a i i i i i i i i i u u u u u u u u u u y y y y r R / u h i i XXSXuX!.uX~.tXG.9.0.w.q.0.9.3X<X*X&X}.|.>.y.J.j.&.v.|.].6Xx.O.7.B.8.B.pXzXhX_ $ t _ R.C.B.8.2.O.@.( ) P ) %.@.@.g.v.+X+XU.L.qX3Xj.@XdXBXCX-X;X&X9X<X0X<X5XZXJXJXCXx @ $ $ $ $ @ @ @ @ @ @ @ @ @ @ @ @ $ $ $ $ + + + + $ $ $ $ $ $ $ + @ @ @ @ @ @ + @ @ @ @ @ @ @ @ @ @ @ @ @ @ @ @ @ & & < 1 7 , a.mXs., 7 < & & O @ @ O p 3 @ @ + PXPXPXPXPXPXPXPXPXPXPXPXPXPXPXPXPX",
"PXPXPXPXPXPXPXPXPXPXPXPXPXPXPXPXPXPXz z z z 3 . r i i a a f Z Z U /.MXr.C Z Z j k j h h h h h a i i i i i i u u u u u u u u u u u y y y y u y y z L ~ x L sXzX!.F.G.W.rXZ.Z.q.F.D.D.A.<XOX}.&X;X&Xh.x.M.>.&.h.^ ' gXi.-.O.O.B.F.).rXl.P f ~ U.A.8.8.8.8.C.-.*.( / @.*.( @.i.U.<X+XL.Y.3XU.#XdX;X:X;X8X:X*X8X*XOX<XxXGXJXVX^ + $ $ @ @ $ $ @ @ $ $ $ $ $ + + $ + $ $ $ $ + + + + $ $ $ + $ $ + + @ @ @ @ @ @ @ @ @ @ @ @ @ @ @ @ @ @ @ @ @ @ @ $ & & < 1 8 N I.mXr.> w 6 < & & @ @ O f 2 @ @ $ PXPXPXPXPXPXPXPXPXPXPXPXPXPXPXPXPX",
"PXPXPXPXPXPXPXPXPXPXPXPXPXPXPXPXPXPXz z z z 3 . r u i a p g Z Z K I.MXa.C A Z Z j j h h h a i i i i i i i i i i i u u u u u u u u u u y y y y u L / $.P i.kXkXF.F.D._.E.N.q.0.H.G.Q.>X.XoX].}.;X&XoX1X{.' ~ L p k._ p R p.C.B.F.).#.I ~ P M.A.2.8.2.8.A.U.U.O.1.&.#./ ~ #.V.U.>XY.R.R.b.>XsX-X;X;X:XoXOX9X9X-X<X<XlXJXVX] 3 ; $ $ $ $ $ $ @ @ $ $ $ $ $ $ $ $ $ + + $ $ + + $ + $ $ + + + + + + @ + @ @ @ @ @ @ @ @ @ @ @ @ @ @ @ @ @ @ @ @ @ $ & & < 1 8 M /.MX .: w 6 4 3 2 * * & p $ @ @ $ PXPXPXPXPXPXPXPXPXPXPXPXPXPXPXPXPX",
"PXPXPXPXPXPXPXPXPXPXPXPXPXPXPXPXPXPXz z z z 4   @ 3 3 4 t p l Z C a.mXm.F A Z Z j j j h h h a a i i i i i i i u u u u u u u u u u u y y y y y i / L L ) _._.G.7.q.0.H.A.B.q.w._.tX4X6X6X@X].%X&X}.#X$X>._ L u I P * $ * R V.B.E.p.j D ~ x.A.8.8.2.8.P.i.-.L.J.X.X.*.~ @.N.x.x.3X4X!.P.J.+X6XgXdXBX;X XXX<X9X=X9XxXSXAX>.; L }.^ $ @ $ $ $ $ @ @ $ $ $ $ $ @ @ @ @ $ $ $ + + + $ $ + + + + + + + + @ @ @ @ + @ @ @ @ @ @ @ @ @ @ @ @ @ @ @ @ @ @ & & < 1 7 H iXcXQ : 6 < & & & $ $ < p @ @ @ $ PXPXPXPXPXPXPXPXPXPXPXPXPXPXPXPXPX",
"PXPXPXPXPXPXPXPXPXPXPXPXPXPXPXPXPXPXh z z z t   O r y a f f j B n r.MXT.K A A Z j j h h h h a i i i i i i u y y u u u u u u u u u y y u u u r L U./ j #.tX_.G.8.e.0.D.A.Z.q.D._.R.v. X+X@X}.;X*X{.>X.Xv.U.P # i 3 $ $ $ $ R ..@.j * L z.P.F.8.^.^.W.g.p ) i.x.L.*.) *.C.C.=.L.,X,XU.l.b.}.|.8XfX*XoXOXb.XX7X7XhXZXlXCX=X^ -XJX&X# @ $ $ $ $ $ $ $ @ @ $ $ $ $ $ $ $ $ $ $ $ $ + + + + $ + $ $ $ @ + + @ @ @ @ @ @ @ @ @ @ @ @ @ @ O O @ O @ $ & & < < 1 > T cXiXH 7 6 < & & O O o < t @ @ $ $ PXPXPXPXPXPXPXPXPXPXPXPXPXPXPXPXPX",
"PXPXPXPXPXPXPXPXPXPXPXPXPXPXPXPXPXPXPXz z z u . $ i i a f g l Z B | vXeXY A A Z j j h h h a i a i i i i i i i i u u u u u u u u u u u u y y * ( R.P h } D.G.G.D.0.0.9.B.D.H.H.Q.!.XXj.#X#X*X;XoX}.<X+XL.s.l t 3 # $ $ $ $ 2 4 $ @ g &.P.F.^.^.F.tXb.0 k %.i.&.p.&.#.V.P.z.#.J.,XrXg.;.>X}.|.%XoX[.c.XXXXK.3XhXlXZX@X=X{.' VXCX^ @ $ $ @ @ $ $ $ $ $ @ @ @ @ $ $ $ $ @ $ $ $ $ $ $ $ @ + $ @ @ @ @ + + + @ @ @ @ @ @ @ @ @ @ @ @ @ @ @ @ @ @ O & & < 1 7 > ..bX(.M 7 w 5 3 < & $ O 4 5 @ @ @ $ PXPXPXPXPXPXPXPXPXPXPXPXPXPXPXPXPX",
"PXPXPXPXPXPXPXPXPXPXPXPXPXPXPXPXPXPXPXz z z i O O r t t 5 0 f B B Y iXcX! A A Z k j h h h h h h i i i i i i i i i u u u u u u u u y y y y y r ) M.I h } q.G.G.D.e.0.F.q.0.H.H.0._.,Xb.1X#X*X*XoX.X+XsXL.y.L Z 3 $ $ $ $ $ $ $ $ f t.C.C.A.8.D.tXM.g 5 t.v.g.i.#.=.V.R.U.,XL.u.!.E.z.l.2X1X=X*X.X Xb.n.K.0XhXzXSXfX.X>.h $ ^ ^ 3 $ $ $ $ $ $ $ $ $ $ $ $ $ @ @ @ $ $ $ $ $ @ + + + + + + $ + $ @ @ @ @ @ @ @ @ @ @ @ @ @ @ @ @ @ @ @ @ @ @ $ @ & & < 1 7 , a.MXf.b w 1 < < * * * O 6 3 @ @ $ $ PXPXPXPXPXPXPXPXPXPXPXPXPXPXPXPXPX",
"PXPXPXPXPXPXPXPXPXPXPXPXPXPXPXPXPXPXPXz z z h &   $ 3 t p f g l B K qXbXr.F A Z j j j h h h a i i i i i i i i i u u u u u u u u u u u u u y r D %.D I 7.H.~.D.0.6.8.H.H.0.0.w.w.~.,XU.3XXX@X=X#X<X6X2XJ.t._ l $ $ $ $ $ $ $ $ $ p k.S.7.8.F.tXT.L Z k.1X.Xi.V.V.V.R.3X&.U.p.R d.L.' ` c.7X@X.XOXXXn.n.K.3XhXSXfX6X{.a $ $ + h k $ $ $ $ $ $ $ $ $ $ $ $ $ $ $ $ @ @ $ $ $ $ @ + + + + + @ @ @ @ @ @ @ @ @ @ @ @ @ @ @ @ @ @ @ O @ O @ @ @ $ @ & & < 1 7 m T.MXr.9 w 1 < & O O O X 5 2 @ @ $ PXPXPXPXPXPXPXPXPXPXPXPXPXPXPXPXPXPX",
"PXPXPXPXPXPXPXPXPXPXPXPXPXPXPXPXPXPXPXz z z z 3 X r i h h f j l B K I.mXs.K A Z Z j f f h h i i i i i i i i i i i u u u u u u u u u u u u u y h / i j X.Z.rXA.q.Z.Z.D.Q.0.0.0.w.).2XXXb.+XM.*X#X7XsX>X! k.c.V @ $ $ $ $ $ $ $ ; $ h t.A.D.).qXP ( qX1XXXp.N.P.L.R.,XU.j.b.i.P ( .X'.] ]  XoX.X>Xb.XXXX3XrXlXdX` ;.L ; 3 ; # r 3 $ $ $ $ $ $ $ $ @ $ $ $ $ @ @ $ $ $ $ $ $ $ $ $ $ $ @ @ @ + @ @ + @ @ @ @ @ @ @ @ + @ + + @ @ @ @ @ O @ @ $ & & < < 1 > G iXcXQ 7 w 6 < < & $ @ O 5 $ @ + + PXPXPXPXPXPXPXPXPXPXPXPXPXPXPXPXPXPX",
"PXPXPXPXPXPXPXPXPXPXPXPXPXPXPXPXPXPXPXz z z z t X 3 i i t t 0 f B C d.MXT.U A Z Z j j h h h h i h a i i i i i i u i u u u u y y y y u u u y y h L r 3 Y d.yXA.q.9.8.D.tXw.0.e.H.Y.p.s.A.L.V.#XoX7XrXg.3 / b.U @ $ $ $ $ $ $ ; 3 ; $ h t._.rX) ;.sX,XXXU.A.E.2X2XwXb.<XdX2X!.i. X-X%X'.' oX&X>XY.3XXX<XjXzXfX' y h r 3 3 3 3 3 $ $ $ $ $ $ $ $ $ $ $ $ $ $ $ $ $ + @ $ $ $ @ + + $ $ $ $ @ + + @ @ @ @ @ @ @ @ @ @ @ @ @ @ @ @ @ @ @ @ @ @ $ & & < 1 7 > Q vXeXG 7 6 < < 3 2 * $ & 5 @ @ + $ PXPXPXPXPXPXPXPXPXPXPXPXPXPXPXPXPXPX",
"PXPXPXPXPXPXPXPXPXPXPXPXPXPXPXPXPXPXPXx z z z i O o $ 3 4 t p g B C  .vXiXE A A Z k j h h h h h h i i i i i i i i u u u u u u u u u y y u u y D @.g ; R s.rXQ.D.8.O.Z.Q.w.e.e.9.L.u.A.9.S.s.$X6XxXtXM.4 L ;.A @ $ $ $ $ $ $ 3 3 3 3 3 i %._ ~ wXwXv.>X!.!.2X2XyXU.g. X<XgX5X!.dX;X%X%XoX*XOXK.Y.,X2XjXnXZXh.r y r 3 r 3 ; 3 3 * $ $ $ $ $ $ $ $ $ $ $ $ $ $ $ $ $ $ @ @ @ $ @ @ @ @ @ @ @ @ + @ + + @ @ @ @ @ @ @ @ @ @ @ @ @ @ @ @ @ @ @ $ & & < 1 7 , y.MXI.N 1 < & & & $ $ @ 1 5 @ @ o o PXPXPXPXPXPXPXPXPXPXPXPXPXPXPXPXPXPX",
"PXPXPXPXPXPXPXPXPXPXPXPXPXPXPXPXPXPXPXPXx z z h &   3 i i p f j Z A Y eXNX#.C Z Z j j j h h h h h i i i i i i i u u u u u u u u y y u u u i y j / y r &.G.G.tX!.B.N.Z.9.O.+.O.4.V.P.B.7.s.s.>X6XxXhX,X;.h.~ 3 $ $ ; ; $ $ ; 3 3 3 r 3 $ 3 ~ sXrXb.>X,X).rX2XwXR.b. X.X>XL.yX4X3X;X;X:X:XOXK.J.Y.7XxXNXHX@Xz a r $ 3 3 r 3 # * * * $ $ $ $ $ $ $ $ @ @ @ $ $ $ $ $ $ $ $ $ + + $ $ @ @ @ @ @ @ @ @ @ @ @ @ @ @ @ + + @ @ @ @ @ @ @ @ O @ $ $ & & < 1 7 N I.mXy.> w 6 1 < & $ @ X 6 3 @ @ o o PXPXPXPXPXPXPXPXPXPXPXPXPXPXPXPXPXPX",
"PXPXPXPXPXPXPXPXPXPXPXPXPXPXPXPXPXPXPXPXz z x h 3   r i u u p f B A K I.mXs.C Z Z Z k j h h h h i i i i i i i i u u i i u u u u u u u u u u y y f i r *._.).`.!.Z.Z.u...W { u.u.p.#.o.4.P.L.U.$XsXrXE.,XJ.P $ ; g p 3 2 3 ; ; 3 3 3 ; y ' VXJX>Xz.Y.yXyX,XrXW.M..X%.j.7X<XK.5X,X>X-X;X&Xb.C.J.0X2XzXGXCXL j / h $ 3 3 3 3 3 # # 3 * $ $ $ $ $ $ $ $ $ $ $ $ $ $ $ $ @ $ $ $ @ @ $ $ @ @ @ @ + + @ @ @ @ @ @ @ @ @ @ @ @ @ @ @ @ O @ @ @ $ $ & < < 1 7 G iXbX} : w 6 4 4 3 2 $ @ 0 2 @ @ o PXPXPXPXPXPXPXPXPXPXPXPXPXPXPXPXPXPXPX",
"PXPXPXPXPXPXPXPXPXPXPXPXPXPXPXPXPXPXPXPXz z x z 4   @ 3 3 3 5 f l B C y.mX/.K A Z Z j j h h h h h h h h i i i i i i u u u u u u u u u u u u u u h f r P yXkXQ.F.7.Z.u.#.| |  .*.| o.B.Z.A.S.S.>X<X,XE.R.s.Y e p I p 3 r 3 ; 3 3 ; r ^ &XKXJXGXsX<X>XyX2X,XW.!.b.$.@.L.Y.@X*XK.2X,X<X-XOXK.V.n.>XhXSXGX8X~ +Xg.Z I 3 3 3 3 3 # $ $ * * $ $ $ $ $ $ $ $ $ $ $ $ $ $ $ @ @ $ @ $ @ @ @ @ @ @ @ @ @ @ @ @ @ @ @ @ + @ @ @ @ @ @ @ @ O @ @ @ @ & & < < 1 7 Q vXiXG : 1 < & & $ $ $ & 0 $ @ @ + PXPXPXPXPXPXPXPXPXPXPXPXPXPXPXPXPXPXPX",
"PXPXPXPXPXPXPXPXPXPXPXPXPXPXPXPXPXPXPXPXz z z z i .   r y a f f l Z V | cXiXT A A Z j j h h h h h h h i i i i i i i u i i u u u u u u u u u u u h D h L 2XkXtXP.7.G.N.7.3.| X.#...7.F.F.8.8.3.L.XX#XyXR.b.i.4.P 3 ; i u $ @ $ i ` oXFXJXJXHX,X7XZX6XXX2X_._.uX>X%.V.W.P.+X*X&Xb.,XY..Xb.J.n.XXyXSXGX=X` _ >XL t Z 3 3 3 3 3 3 $ $ $ $ $ $ $ $ $ $ $ $ $ $ $ $ $ $ $ @ $ $ $ $ @ $ $ @ @ $ @ @ @ @ @ @ @ @ @ @ @ @ @ @ O O @ @ @ @ @ @ @ $ & & < 1 1 , d.MXI.m > 6 < & & O O   < 5 @ @ @ @ PXPXPXPXPXPXPXPXPXPXPXPXPXPXPXPXPXPXPX",
"PXPXPXPXPXPXPXPXPXPXPXPXPXPXPXPXPXPXPXPXPXz z z i O O y i a a p g Z B U qXMXr.C A Z Z k j h h h h i a i i i i i i i i i u u u i i u u u u u u u y j h x Y.tXtXF.7.e.3.u.Z.8.4.3.3.8.D.7.O.3.s.x.+X@XsXhXXXXXl.E K 5 U E ~ ' oXdXKXJXJXJXnX5X1X6X<XgXOXv.R.tXyXU.L.W.F.Y.<X=X&X&Xb.Y.U.J.z.XX2XzXSX8X^ p A I r r 3 3 r r 3 * 3 3 $ $ $ $ $ $ $ $ $ $ $ $ $ $ $ $ $ $ $ $ $ @ @ @ @ @ @ @ $ @ @ @ @ @ @ @ @ @ @ @ @ @ @ @ @ @ @ @ @ @ @ @ @ & & < 1 1 M T.MXr., 7 6 1 3 3 & $ . 5 3 @ @ @ $ PXPXPXPXPXPXPXPXPXPXPXPXPXPXPXPXPXPXPX",
"PXPXPXPXPXPXPXPXPXPXPXPXPXPXPXPXPXPXPXPXPXz z z h < . r r 3 4 5 p l B F f.mXI.K A A Z k j h h h a i i i a a i i i i i i i i i u u u u u u u u u u u y h U.kXtXG.7.6.5.4.e.6.6.7.p.X.X.o.y.S.R.J.,XsX@X$Xx.l..Xv.i.i.&.b.fXAXJXJXzX,X,XlX,X2X7XXX.X<X[.].g.R.4X!._.tXW.Y.6X&X;X&X%XOX3XR.Y.,XjXZXZXb.A Z B V B 3 r 3 3 r 3 * * 3 3 $ $ $ $ $ $ $ $ $ $ $ $ $ $ $ $ $ $ $ $ $ @ @ @ @ @ @ @ $ @ @ @ @ @ @ @ @ @ @ @ @ @ @ @ @ @ @ @ @ @ @ & & & < 1 7 T iXaXY 7 1 < & & & 2 $ O 5 $ @ + @ PXPXPXPXPXPXPXPXPXPXPXPXPXPXPXPXPXPXPXPX",
"PXPXPXPXPXPXPXPXPXPXPXPXPXPXPXPXPXPXPXPXPXz z z z 3 . O 3 t p f f j B V ..vXiXT A Z Z j j h h h a a a a a i i i i i i i i i u u u u u u u u u u u u y y v.nXuXW.L.N.u.#.9.q.q.7...o.u.V.V.N.D.F.!.rXU.L.u.#.y.b.+XE.G._.,X!.tX!.G.Z.V.U.Y.R.+X+X$X1X.X{.h.$.L.).rXkXuX4X<X&X;X%X:X;X9X,XuXkXSXZX>X7.U Z p  . .r 3 r 3 3 r 3 * * 3 # $ $ $ $ $ $ $ $ $ $ $ $ $ $ $ $ $ $ $ $ $ @ $ $ @ @ @ $ @ $ @ @ @ @ @ @ @ @ @ @ @ @ @ @ @ @ @ @ @ & & & < 1 1 > r.MXT.m 7 6 < & & O O O O 5 @ @ o o PXPXPXPXPXPXPXPXPXPXPXPXPXPXPXPXPXPXPXPX",
"PXPXPXPXPXPXPXPXPXPXPXPXPXPXPXPXPXPXPXPXPXPXz z z u & $ i a a a p g B V Y eXbXr.C Z Z Z k j h h h h h h i i i i i i i i i i u u u u u u u u u u u u i y %.zXzX~.Y.U.S.#.N.F.q.8.o.p.y.u.N.7.0.G.A.G.G.L.v.s.3.3.u.L.L.E.R.R.E.L.P.A.u.y.=.7.J.>XxXlX,X+Xh./ =.W.tXuXuXrX,X6X|.:X-XfXfXsXhXZXAX}.P R Z t p A g r r r 3 3 3 r 3 3 3 * $ $ $ $ $ $ $ $ $ $ $ $ $ $ $ @ @ $ $ @ @ $ $ $ @ @ @ + + @ @ + @ @ @ @ @ @ @ @ @ @ @ @ @ @ @ @ @ & & & < 1 7 m T.MXr., w 6 4 4 3 & @   < 3 @ @ o o PXPXPXPXPXPXPXPXPXPXPXPXPXPXPXPXPXPXPXPX",
"PXPXPXPXPXPXPXPXPXPXPXPXPXPXPXPXPXPXPXPXPXPXz z z h < O y y r 4 5 p l B K m.DXI.K A Z Z j j j h h h h a a i i i i i i i i i i u u u u u u i i u u u R P / uXkX~.P.U.!.p.u.8.q.q.4.X.X.} o.A.D.F.L.!.rX+X.X@XU.s.5.7.V.R.L.E.P.y.Z.8.o.5.V.P.U.+XsXwX3Xl.:.+XA.D.Q.tX4XW.kXoX' =XCXfXlXxXZXAX=Xz p p 3 u A u y r r r 3 3 3 3 3 3 3 3 # # $ $ $ $ $ $ $ $ $ $ $ $ $ @ @ @ $ $ @ @ $ $ @ @ @ @ + + + + @ @ @ @ @ @ @ @ @ @ @ @ @ @ @ @ @ & & & < 1 > U iXaXY > 1 < < < 3 3 2 O 5 * @ + o o PXPXPXPXPXPXPXPXPXPXPXPXPXPXPXPXPXPXPXPX",
"PXPXPXPXPXPXPXPXPXPXPXPXPXPXPXPXPXPXPXPXPXPXz z x z 4 . @ 3 r u p f l Z A ..bXiXT V Z Z Z k h h h a h h a i i i i i i i i i u u u u u u u u u i u u P / L R.tX!.P.3X!.B.=.3.9.9.4.+.+.J } x.P.p.i.L.rX<X*XoX@XR.Y.L.s.L.7.9.9.4.8.q.F.W.R.Y.b.XX1X,XU.b.Y.F.Q.G.G._.Q.tX1X[.].#XfXlXjXjXlXdX^ r x r 4 L p r r r r r 3 3 3 3 3 3 3 3 $ $ $ $ $ $ $ $ $ $ $ $ $ $ $ $ $ @ @ $ $ @ @ @ $ @ @ + @ @ @ @ @ @ @ @ @ @ @ @ @ @ @ @ @ @ @ $ & & & < 1 7 , r.MXT.N 1 1 < & O @ @ @ & 5 @ @ @ o PXPXPXPXPXPXPXPXPXPXPXPXPXPXPXPXPXPXPXPXPX",
"PXPXPXPXPXPXPXPXPXPXPXPXPXPXPXPXPXPXPXPXPXPXz z x z u X O y i a f f g Z A U qXmXr.C A A Z k j h h h h a i i i a i i i i i i u u u u u i i u i u u u i k a x.tX).~.,X4XZ.o.o.8.+.+.6.+.+.J =.i.i.x.J.x.+XZXAXgXE.F.Q.).W.B.N.N.Z.A.A.A.A.A.L.+X*X$X!.!.E.q.0.H.G.G.F.~.,XXXoX$XgXxXxXpXsXgX` G U u 4 K l r r r r r r r 3 3 3 3 3 3 3 $ $ $ $ $ $ $ $ $ $ $ $ $ $ $ $ @ $ $ $ @ $ $ @ $ $ @ @ + + @ @ @ @ @ @ @ @ @ @ @ @ @ @ @ @ @ @ & & & < 1 7 M (.bXr.> 1 6 1 < & $ O O < 4 O O @ o PXPXPXPXPXPXPXPXPXPXPXPXPXPXPXPXPXPXPXPXPX",
"PXPXPXPXPXPXPXPXPXPXPXPXPXPXPXPXPXPXPXPXPXPXPXz z x h & O r y t 5 0 f Z V F a.MXT.K A Z Z Z j h h h a a h a i i i i i i i u u u i i i u u u u i i u y x h ) 4XL.U.hXsXN.3.p.p.O.} +.6.6.+...y.x.F.F.Y.+XOXfXZX!.P.F.G.Z.3.y.y.3.9.9.Z.G.!.rX2X6Xj.b.Q.0.0.0.8.F.q.Q.4X1X<X6XfXfXlXpXjXyX;.e 4.4.} Y A r r r r r r r r 3 3 3 3 3 3 3 * $ $ $ $ $ $ $ $ $ $ $ $ @ $ $ $ @ @ @ $ @ $ @ @ @ $ @ @ @ @ @ @ @ @ @ @ @ @ @ @ @ @ @ @ @ @ $ & & < 1 1 > } cXiXH 7 < < < < 2 2 $ O 5 2 O @ + @ PXPXPXPXPXPXPXPXPXPXPXPXPXPXPXPXPXPXPXPXPX",
"PXPXPXPXPXPXPXPXPXPXPXPXPXPXPXPXPXPXPXPXPXPXPXz z x z 4   @ 2 3 i f j Z A A | iXcX| A A Z Z k j h h h h h h i i h h i i i i i i i i i u u i i i u u u a L D x.@._ 2X2XA.8.i.l.u.} } 6.6.8.u.V.3XE.A.L.v..X1X3XJ.s.V.P.V.3.3.u.V.W.).rXuXuXuXzXZX[.g.Z.w.H.e.e.w.w.H.5XY.U.fXlXlXyXjXlXv.p e T 4.0.+.u r r r r r r r r r 3 3 3 3 3 3 3 # $ $ $ $ $ $ $ $ $ $ $ $ @ $ $ @ @ @ @ $ @ @ @ @ @ @ @ @ @ @ @ @ @ @ @ @ @ @ @ @ @ @ @ @ @ & & & < 1 7 b m.mXm.N 7 1 < & O O @ @ & 5 $ O o @ PXPXPXPXPXPXPXPXPXPXPXPXPXPXPXPXPXPXPXPXPXPX",
"PXPXPXPXPXPXPXPXPXPXPXPXPXPXPXPXPXPXPXPXPXPXPXPXz x z u X O r i h f f g B A K I.MXf.K A Z Z k j j h h h h a i h h i i i i i i i i u i i i i i u u u h f ! #.) x.P 3X,XA.9.3.i.l.o.} X.3.3.y.=.U.b.>X>Xb.v.$X2XR.A.s.p.x.E.~.).).tXuXyXyXrXtXuXzXXXc.V.H.G.G.H.H.w.0.F.3.N.R.2XyXiXzX1XL a y r } 6.H r r r r r 3 r r 3 3 3 3 3 3 3 * 3 3 3 $ $ $ $ $ $ $ $ $ $ $ $ @ @ $ @ @ @ @ @ @ @ @ @ @ @ @ @ @ @ @ @ @ @ @ @ @ @ @ @ @ @ @ $ & & < < 1 > U iXNXQ > 7 6 < < & O O   < 4 @ @ o $ PXPXPXPXPXPXPXPXPXPXPXPXPXPXPXPXPXPXPXPXPXPX",
"PXPXPXPXPXPXPXPXPXPXPXPXPXPXPXPXPXPXPXPXPXPXPXPXz z z h < X y i i t 5 f l A C #.vXiXT A A A Z k j h h h h h h h i i i a i i i i u i i i i i i i u u f I ! A.P l.%.$.S.6.Z.B.=.g.g.%.;.i.y.*.&.i.>X2X>X>Xv._ v.R.H.).L.b.hXrXrX4XyXrXY.>XU.W.).kX3X&.u.w.0.q.0.w.w.0.V.x.3.3.N.yXGXsX_ j i r f K g r r y r r r r 3 r 3 3 3 3 3 3 3 3 * 3 3 * $ $ $ $ $ $ $ $ $ $ @ @ @ @ $ @ @ @ @ @ @ @ @ @ @ @ @ @ @ @ @ @ @ @ @ @ @ @ @ @ @ @ $ & & < 1 7 , y.mXqXm 7 1 < < < * $ @ X 5 2 @ @ o $ PXPXPXPXPXPXPXPXPXPXPXPXPXPXPXPXPXPXPXPXPXPX",
"PXPXPXPXPXPXPXPXPXPXPXPXPXPXPXPXPXPXPXPXPXPXPXPXz z z z 5 X @ 3 3 t f j k Z V K qXnXd.F A Z Z k j j h h h h h i i h h i i i i i i i i i i i i i u i u K T ! D / b.~ ..+.+.N.p.&.;.[.oX;.g.n.c.n.,X3Xx.b.;./ c.P.`.rXL.l.hXrX4XM.b.L.s.p.x.!.)._.Q.3.@.9.e.e.e.e.w.B.XX<X>Xs.R.ZXZX%.} Y y t A p y y t r r r r r 3 3 3 3 3 3 3 3 3 3 3 * * * * $ $ $ $ $ $ $ $ $ $ @ @ @ @ $ $ @ @ @ @ @ @ @ @ @ @ @ @ @ @ @ @ @ @ @ @ @ @ @ $ $ & & < < 1 7 G qXMXr.> 1 1 = & O @ $ @ & 5 @ @ @ o PXPXPXPXPXPXPXPXPXPXPXPXPXPXPXPXPXPXPXPXPXPXPX",
"PXPXPXPXPXPXPXPXPXPXPXPXPXPXPXPXPXPXPXPXPXPXPXPXPXz z z i @   3 i h f f f l B n d.nXqXY A A Z Z j j h h h h h h h h i i i i i i i i i i i u i i i i u K 7.5.P x ;.;.I +.+.O.p.i.&..X;.~ ` g.v.XXb.x.x.i.y.#.&.u.G._.!.G.).rXrXb.g.U.L.i.l.s.H.H.Q.q. .@.8.6.6.e.N.+X6XyXW.rXxXZXh.k X.T u Z p y y r y r r r r r r 3 3 r 3 3 3 3 3 3 3 $ $ $ * $ $ $ $ $ $ $ $ $ $ $ @ @ @ @ $ $ @ @ @ @ @ @ @ @ @ @ @ @ @ @ @ @ @ @ @ @ @ @ @ & & & < < 1 > ..bXeXH > w 5 < & @ O O . < 3 @ @ @ @ PXPXPXPXPXPXPXPXPXPXPXPXPXPXPXPXPXPXPXPXPXPXPX",
"PXPXPXPXPXPXPXPXPXPXPXPXPXPXPXPXPXPXPXPXPXPXPXPXPXh z x z 3 O y i i t 5 0 g B V T iXbXy.K A A Z k k z h h h h h h i i i i i i i i i i i i i i i i i u A 3.3.D x D k.( R X.+.3.i.l.&.R P ~ _ j.OX+Xn.i.i.y.u.7.9.D.tXuXD.q.Z.Z.y.) V.Y.v.;.#.q.w.H.H.u./ #.p.7.s.XX6X1XV.7.rXfX{.x y f i u h y r y r y y r r r r r r 3 r 3 3 3 3 * 3 3 * * $ $ * $ $ $ $ $ $ $ @ $ $ $ $ @ @ @ @ @ @ @ @ @ @ @ @ @ @ @ @ @ @ @ @ @ @ @ @ $ $ $ & & < < 1 : M /.MXd., 7 < < 4 3 2 $ O X 4 $ @ + @ PXPXPXPXPXPXPXPXPXPXPXPXPXPXPXPXPXPXPXPXPXPXPXPX",
"PXPXPXPXPXPXPXPXPXPXPXPXPXPXPXPXPXPXPXPXPXPXPXPXPXz z x z i O $ r 3 t p f j B V K s.mXqXY A A Z Z k j f h h h i h h h a i i i i i i i i i i i i i i i i Z P A z h P g./ %.X.+.3.t.g.@.R ) i.n.j..X Xg.l.t...6.6.F.G.G.D.q.8.7.y./ i.R.XX%.$.8.0.H.W.Z.| #.U.XX.X#X$Xk.&.>XsX.Xx y i u i y y y y y y r y r r r r r r 3 3 r 3 r 3 # 3 3 # 2 $ $ $ $ $ $ $ $ $ $ $ @ $ $ $ @ @ @ @ @ @ @ @ @ @ @ @ @ @ @ @ @ @ @ @ @ @ @ @ @ $ & & & < < 7 >  .vXiXH > 7 < & & $ * 2 @ & 4 @ + + + PXPXPXPXPXPXPXPXPXPXPXPXPXPXPXPXPXPXPXPXPXPXPXPX",
"PXPXPXPXPXPXPXPXPXPXPXPXPXPXPXPXPXPXPXPXPXPXPXPXPXPXz z x h < . $ y i h h f g Z A Q iXnXr.C A A Z j j j h h h h h h h a h h i i i i i i i i i i i i i i i h I f h } 4.k.>..X5.+.u.:.k.@.@.=.u.i.$.' ;.;.%.} 6.4.B.6.e.9.8.8.8.4.! y.L.b.%.$.o.7.p.N.8.=.b.#XoX@X@X.X.X$XCX@X^ y y i i i y y i y t y r y y r r r r r 3 3 3 3 3 3 3 # 3 3 3 2 $ $ $ $ $ $ $ $ $ $ $ @ @ $ @ @ @ @ @ @ @ @ @ @ @ @ @ @ @ @ @ @ @ @ @ @ @ $ $ @ & & < < 1 7 M T.MXa., 7 6 1 < & @ O O X 4 2 @ + o o PXPXPXPXPXPXPXPXPXPXPXPXPXPXPXPXPXPXPXPXPXPXPXPX",
"PXPXPXPXPXPXPXPXPXPXPXPXPXPXPXPXPXPXPXPXPXPXPXPXPXPXx x x z t X $ i i u t p g Z A K s.DXqXY A A Z k k j h h h h h h h h h a i i i i i i i i i i i i i i i u j L i U } ;.oX=X$X#.+.y.k.k.@.| *.#.$./ ~ ` / +.+.E o.A.B.Z.7.7.L.y.o.3.N.p.$.$.@._ k.y.3.g.v..X#X@X{.@XfXVX&XL i z f P a i y y i y r t r y y r r r r r r 3 3 3 3 3 3 * # 3 2 2 ; $ $ $ $ $ $ $ $ $ $ $ @ @ @ @ @ @ @ @ @ @ @ @ @ @ @ @ @ @ @ @ @ @ @ @ @ $ $ & & & < < 7 ,  .vXiXY - 1 < < 3 3 & $ O & 4 @ @ + o PXPXPXPXPXPXPXPXPXPXPXPXPXPXPXPXPXPXPXPXPXPXPXPXPX",
"PXPXPXPXPXPXPXPXPXPXPXPXPXPXPXPXPXPXPXPXPXPXPXPXPXPXPXh z x d & . 3 3 3 t f j Z A A ! iXbXd.K A A Z k j j h h h h h h h h h i i h i i i i i i i i i i i i i i j k a j ^ {.-X-Xg...O.y.h.>.$.| @._ ` ^ L $.u.X.P @.x.4.4.O.o.j._ | 4.o.X.@.%.g.k.1X+X;.h.{.@X.X[.oXdXVXsXy.t r d f A i i i y i y y r r r y r r r r r r 3 3 r 3 3 3 3 $ ; # $ 2 $ $ $ $ $ $ $ $ $ $ $ $ @ @ @ @ @ @ @ @ @ @ @ @ @ @ @ @ @ @ @ @ @ @ @ $ $ $ & & < < 1 : G (.MXa., 1 1 < & & & * * O 1 2 @ + + o PXPXPXPXPXPXPXPXPXPXPXPXPXPXPXPXPXPXPXPXPXPXPXPXPX",
"PXPXPXPXPXPXPXPXPXPXPXPXPXPXPXPXPXPXPXPXPXPXPXPXPXPXPXh z z z t . O r i h h f g Z A K a.bXeXE A A A Z j j j z h h h h h h i h h d i i i i i i i i i i i i i i i x h i x ^ ].{._ g.y...*.j.h.;.XXc._ ~ / =.V.i.$.j.;.) ! @.) E u...3.u.z.c.j.g.c.<X7X.X{.{.[.{.=XVXCX$XZ.e.T y y y y y u i y y y y r r r y r r r r 3 3 3 3 3 3 3 3 3 3 $ 3 $ $ 2 $ $ $ $ $ $ $ $ @ @ $ @ @ @ @ @ @ @ @ @ @ @ @ @ @ @ @ @ @ @ @ @ @ @ $ $ & & < < 1 7 > r.bXiXH > 6 < < < & O O O @ 4 @ + + + PXPXPXPXPXPXPXPXPXPXPXPXPXPXPXPXPXPXPXPXPXPXPXPXPXPX",
"PXPXPXPXPXPXPXPXPXPXPXPXPXPXPXPXPXPXPXPXPXPXPXPXPXPXPXPXz z z i & O u a a t 5 p j A A T qXmXs.K A A Z k k j h h h h h h h h h a i i i i i i i i i i i i i i i i i h i L E D ] {.-X&X%.@.*.%.j.c..XXXh.` *.o.=.j.h.' R R / / P l..X@XoX{.:.%.y.i.>XlXOX>.j..XdXVX-X>.3.e.0.3.h y y y u y y y y y y r r r r r r 3 r r 3 r 3 r 3 3 3 3 3 $ ; 2 $ $ $ $ $ $ $ $ $ $ @ @ @ @ @ @ @ @ @ @ @ @ @ @ @ @ @ @ @ @ @ @ @ @ @ @ @ & & & < < 1 7 G qXMXd., 1 < & & 2 * $ @ . < 3 @ + + @ PXPXPXPXPXPXPXPXPXPXPXPXPXPXPXPXPXPXPXPXPXPXPXPXPXPX",
"PXPXPXPXPXPXPXPXPXPXPXPXPXPXPXPXPXPXPXPXPXPXPXPXPXPXPXPXz z x z 4 X $ r 3 4 p f j Z A A r.bXiX! A A A Z k j h h h h h h h h h i h i i i i i i i i i i i i i i i i i i h P U f ^ ].&X~ ~ g.#.o.y.&.;.j.j.:.%.$.' ` _ o.o.#.#._ h.].h.j.j.l.i.l.l.U._.x.j.XXdXCX}.^ g 4.H.L.R i y y y y y y y y y y r r r r r r r r r r r r 3 3 3 3 3 # ; $ $ $ $ $ $ $ $ $ $ $ $ @ @ @ @ @ @ @ @ @ @ @ @ @ @ @ @ @ @ @ @ @ @ @ @ @ $ @ & & & < 1 7 , y.bXeXG : 6 < & & @ $ $ @ X 4 $ @ + o PXPXPXPXPXPXPXPXPXPXPXPXPXPXPXPXPXPXPXPXPXPXPXPXPXPXPX",
"PXPXPXPXPXPXPXPXPXPXPXPXPXPXPXPXPXPXPXPXPXPXPXPXPXPXPXPXPXz z z a &   * y a h f g l Z V U T.mXI.U A A Z k k j j h z h h h h h h i i i i i i i i i i i i i i i d i i d h k P L z x ' ].` .Xl.4.6.6.y.#.&.%.;.[.{.` ( ) ` ( ( ` ` ` _ :.+X2X1X1X1X3XD.R.7X7X$X' z i i R %.@.R h i y y y y y i y y y r t r r r r r r r 3 3 r 3 3 3 3 3 3 2 2 * $ $ $ $ $ $ $ $ $ $ @ $ @ @ @ @ @ @ @ @ @ @ @ @ @ @ @ @ @ @ @ @ @ @ $ $ & & < < < 1 > T iXbX.., 1 1 < < < $ O O . < 3 @ + + o PXPXPXPXPXPXPXPXPXPXPXPXPXPXPXPXPXPXPXPXPXPXPXPXPXPXPX",
"PXPXPXPXPXPXPXPXPXPXPXPXPXPXPXPXPXPXPXPXPXPXPXPXPXPXPXPXPXh z z z t X 3 a i i t p j Z Z C  .jXvXr.C A Z Z k k j z h z z h h h h a h h a i i a i i i i i i i i i i i d i k } R L x z ^ ].@Xy.6.6.8.8.7.u.*.%.+Xv.} } E P P ~ ( ( ' '  X7XsXyX1X8XdXrXhX<Xv.) t y z z h k Y j i i y y i y y u y y y r r r r r r r r r r 3 r 3 3 3 3 3 3 3 * $ $ $ $ $ $ $ $ $ $ $ $ $ $ @ @ @ @ @ @ @ @ @ @ @ @ @ @ @ @ @ @ @ @ @ $ & & & < < 1 1 b m.DXI.M 7 1 < & & 2 * @ O X 4 $ @ @ + PXPXPXPXPXPXPXPXPXPXPXPXPXPXPXPXPXPXPXPXPXPXPXPXPXPXPXPX",
"PXPXPXPXPXPXPXPXPXPXPXPXPXPXPXPXPXPXPXPXPXPXPXPXPXPXPXPXPXPXz z z h 3 $ y r 4 p f f j B A K f.MXeXY A Z Z Z Z k j j h h h h h h h h h h i i a i a i i i h h a i i i i i i Z  .! D z j R _ o.N.U.R.L.s.i.g.l.3Xu.6.4.4.X.%.;.t.' ' ' [.@X8XfXVXVXCX$X_ L P P i z d i i i a y i i y y y i y y y y y r r r r r r r r r r 3 3 3 3 3 3 3 3 3 * $ $ $ $ $ $ $ $ $ $ @ @ $ @ $ @ @ @ @ @ @ @ @ @ @ @ @ @ @ @ @ @ @ @ $ $ & & & < < 1 >  .cXjXQ > 7 6 < & O @ $ $ . < 2 O + + @ PXPXPXPXPXPXPXPXPXPXPXPXPXPXPXPXPXPXPXPXPXPXPXPXPXPXPXPX",
"PXPXPXPXPXPXPXPXPXPXPXPXPXPXPXPXPXPXPXPXPXPXPXPXPXPXPXPXPXPXz z x z t & O r i h h p p l Z V T eXnXm.K A A Z Z k k j h h h h h h h h h a a a a a a a i a a a i i i i i i i u h I h f | #.| L I ;.hXsX$X.X.X$X2Xx.4.4.o.| k.[.j.g.#X8XCXVXVXVX-X}.' L i y i P g r y i i y i i y i i y y i y y i y y y r r r r r r r r r 3 3 3 3 3 3 3 3 3 3 $ $ $ $ $ $ $ $ $ $ $ @ @ @ @ $ @ @ @ @ @ @ @ @ @ @ @ @ @ @ @ @ @ @ $ & & & & < 1 > H qXnXs.b 7 1 < 3 3 $ @ O O @ 4 @ + o o PXPXPXPXPXPXPXPXPXPXPXPXPXPXPXPXPXPXPXPXPXPXPXPXPXPXPXPXPX",
"PXPXPXPXPXPXPXPXPXPXPXPXPXPXPXPXPXPXPXPXPXPXPXPXPXPXPXPXPXPXPXz z x h 3 O r i i 4 5 p g k B C r.vXcX#.K A A Z Z k j j h h h h h h h h a a a h h h i a a i i i i i i i i i i i i i i P #.! z i @.J.Y.v..X8XfXfX1Xp.x.x.v.@X&X{.k.8X8X;X}.' ] ^ z z a d d f Q } f u i i i i i y i i y y i y y y y y y r r r r r r r r 3 r 3 3 3 3 3 3 3 $ 3 3 $ $ $ $ $ $ $ $ $ $ $ @ @ @ @ @ @ @ @ @ @ @ @ @ @ @ @ @ @ @ @ $ $ & & & & < 1 7 b s.nXqXH 7 1 < & & * * $ O . 4 & + + o o PXPXPXPXPXPXPXPXPXPXPXPXPXPXPXPXPXPXPXPXPXPXPXPXPXPXPXPXPX",
"PXPXPXPXPXPXPXPXPXPXPXPXPXPXPXPXPXPXPXPXPXPXPXPXPXPXPXPXPXPXPXz z x x i & @ r 3 t a f f g B V K L.DXeXY C A A Z j k j j h h h h z h h h h a h h a a h i i i i i i i i i i i i i i i i x h z | B.A.y.K j L ^ ' ' ' >.h.[.|.].' ] ~ ~ x d y h P a x c d a h } X.l u i i y i i y i i y y i y y y y y y r r r r r r r 3 3 3 r 3 3 3 3 3 3 # 3 3 $ $ * $ $ $ $ $ $ $ $ @ @ @ @ @ @ @ @ @ @ @ @ @ @ @ @ @ @ @ @ @ $ & & & < < 1 > | cXcX .7 1 1 < < & O $ * O & 3 @ o + o PXPXPXPXPXPXPXPXPXPXPXPXPXPXPXPXPXPXPXPXPXPXPXPXPXPXPXPXPXPX",
"PXPXPXPXPXPXPXPXPXPXPXPXPXPXPXPXPXPXPXPXPXPXPXPXPXPXPXPXPXPXPXPXz z x z 3 . @ y i a p p f j Z A T eXDXm.K A A Z Z k k j h h h z h h h h h h h h h h a h h i i i h h i i i i i i i i i i u Z 7.D.D.o.i y y I L y u h R ~ [ [ x z k R h i y i h i P L i i i j B i i i i y i i y i i y y y y y y y y y r r r r r r r 3 3 3 3 r 3 3 3 3 3 ; * 3 * $ $ $ $ $ $ $ $ $ $ $ @ @ @ @ @ @ @ @ @ @ @ @ @ @ @ @ @ @ $ $ & & & < < 1 > H qXnXf.9 1 6 < < 3 & @ O O X 4 $ o + + @ PXPXPXPXPXPXPXPXPXPXPXPXPXPXPXPXPXPXPXPXPXPXPXPXPXPXPXPXPXPX",
"PXPXPXPXPXPXPXPXPXPXPXPXPXPXPXPXPXPXPXPXPXPXPXPXPXPXPXPXPXPXPXPXx x x x i & O y u t 4 p f j Z Z C r.NXbXy.F V A A Z k j j j z h h z h h h h h h h h h h i i i h h i i i i a i i i i a i i x R o.7.E i i i T K y u j X.R z z h i i i y y i i u i L L h i i i i i i i i u i i u i i y y y y y y y y y r r r r r r r 3 3 3 3 r r 3 3 3 3 3 * * 3 $ $ $ $ $ $ $ $ $ $ $ @ @ @ @ @ @ @ @ @ @ @ @ @ @ @ @ @ $ $ & & & < < 1 : m m.mX/.G 7 1 1 < & & * $ $ X < 3 @ + o o PXPXPXPXPXPXPXPXPXPXPXPXPXPXPXPXPXPXPXPXPXPXPXPXPXPXPXPXPXPXPX",
"PXPXPXPXPXPXPXPXPXPXPXPXPXPXPXPXPXPXPXPXPXPXPXPXPXPXPXPXPXPXPXPXPXx z x z t O @ 2 3 i f f g g Z A K s.nXiX| C A A Z k k j j h h h h h h z h h h h h h h i i h h i i i i a i i i i i i i a h a h Z h i i u p p u u i A j i i i i i u i y i i y u h @.&.j i i i i i i i i i i y y i y y i y y y y y y y r r r r r r r 3 r 3 3 r 3 3 3 * 3 # $ # $ $ $ $ $ $ $ $ $ $ $ $ $ @ @ @ @ @ @ @ @ @ @ @ @ @ @ $ $ & & & < < < 7 , r.bXiXQ > 7 1 5 < & O O @ O @ 4 @ @ + o o PXPXPXPXPXPXPXPXPXPXPXPXPXPXPXPXPXPXPXPXPXPXPXPXPXPXPXPXPXPXPX",
"PXPXPXPXPXPXPXPXPXPXPXPXPXPXPXPXPXPXPXPXPXPXPXPXPXPXPXPXPXPXPXPXPXPXz z x h 3   * i a a t 0 g Z Z A Y /.DXqXY A A Z Z Z k j z j z z h z h h h h h h h i i h h h i a i h i i a i i a i i h i h i i i i i u u i i i i u u i i i i i i i y i i i u h i.i.k i i i i i i i i i i i y y y y y y y y y y y y r r r r r r r 3 r 3 3 r 3 3 3 3 * # $ $ $ $ $ $ $ $ $ $ $ $ $ $ $ $ @ @ @ @ @ @ @ @ @ $ @ $ $ $ & & & < < < : > | jXbXr., 7 1 < < 3 2 $ @ O . 1 * @ O + + PXPXPXPXPXPXPXPXPXPXPXPXPXPXPXPXPXPXPXPXPXPXPXPXPXPXPXPXPXPXPXPX",
"PXPXPXPXPXPXPXPXPXPXPXPXPXPXPXPXPXPXPXPXPXPXPXPXPXPXPXPXPXPXPXPXPXPXz z x z u & $ u y 3 4 a j j Z A C | iXnXm.K V A A Z k k z j j h z h h h h h h h d h h h h i h i h h i h a i h i i i i i h i i i i i i i i i i i i i i u i i i i i u i i i i i f j i i i i i i i i i i i i y y y y y u y y y r y y r 3 r r r r 3 3 r r 3 3 3 3 3 3 * 3 $ # $ * $ $ $ $ $ $ $ $ $ $ $ $ $ @ @ @ @ @ @ @ @ $ $ $ $ & & & < < < 1 : Y eXnXm.m 7 1 6 < & & & 2 $ . & 3 @ @ @ @ PXPXPXPXPXPXPXPXPXPXPXPXPXPXPXPXPXPXPXPXPXPXPXPXPXPXPXPXPXPXPXPXPX",
"PXPXPXPXPXPXPXPXPXPXPXPXPXPXPXPXPXPXPXPXPXPXPXPXPXPXPXPXPXPXPXPXPXPXPXz z z h 4 X $ 3 t i h f p g Z V K r.cXbXd.K L A Z Z Z k k j z z h h z h h h h h h h h i h a h h i a h i a h i i d i i i i i i i i i i i i i i i i i u i i i i i i i i i i i y u u i i u i i i i i i i i y y i y y y y y y t y y r r r r 3 r r 3 3 r 3 3 r 3 3 3 3 3 $ * $ $ $ $ $ $ $ $ $ $ $ $ $ @ @ @ @ @ @ @ @ @ $ @ $ $ & & & < < < 1 : M T.DXqXG 7 1 < < 3 3 & O @ @ X 4 @ @ + + @ PXPXPXPXPXPXPXPXPXPXPXPXPXPXPXPXPXPXPXPXPXPXPXPXPXPXPXPXPXPXPXPXPX",
"PXPXPXPXPXPXPXPXPXPXPXPXPXPXPXPXPXPXPXPXPXPXPXPXPXPXPXPXPXPXPXPXPXPXPXz h z z h < . 3 i i i 5 p j k Z A K a.bXcX#.K A A Z Z Z k k z h h h h h h h h h h h h h h a h i i h a h h h i h i i i i i i d i i i i i i i i i i i i i i i i i i d i i i i u i i i i y i i i i i i i i i y y y y i y r y y y t r r r r r r r 3 3 r 3 3 3 3 3 3 3 3 3 * 3 $ $ * $ $ $ $ $ $ $ $ @ @ @ @ @ @ $ @ @ $ $ $ $ & & & < < 1 1 : m f.nXiXQ > w 6 < & < 3 2 $ O . < * @ + + o PXPXPXPXPXPXPXPXPXPXPXPXPXPXPXPXPXPXPXPXPXPXPXPXPXPXPXPXPXPXPXPXPXPX",
"PXPXPXPXPXPXPXPXPXPXPXPXPXPXPXPXPXPXPXPXPXPXPXPXPXPXPXPXPXPXPXPXPXPXPXPXz z x z i & @ r t 3 i h h g l Z B K I.mXiX .F A A A Z Z k j z z h h h h h h h z h h h h h h i h h h h h i h h i i i i i i a i i i i i i i i h a i i i i i i i i a i i i i i i i i i y i i i i i i i i i y i y y y y r y y r y r r r r r 3 r 3 3 3 r 3 3 3 3 3 3 3 3 $ * 2 $ $ $ $ $ $ $ $ $ $ $ @ @ @ @ @ @ $ $ $ $ $ & & & < < 1 1 7 9 y.nXcX .> : 1 6 1 < & $ 2 $ X < 2 @ + + + PXPXPXPXPXPXPXPXPXPXPXPXPXPXPXPXPXPXPXPXPXPXPXPXPXPXPXPXPXPXPXPXPXPXPX",
"PXPXPXPXPXPXPXPXPXPXPXPXPXPXPXPXPXPXPXPXPXPXPXPXPXPXPXPXPXPXPXPXPXPXPXPXPXz z x z t O O 2 y h h p 0 f j Z V T /.DXqX! C A A Z Z j k x j h h z h h h z h h h h h h i h h h h h i d h a i i i i i h i i i i i i i i d i i i i i i i i i a i i i i i i i i i i u i i i i i i i i i y i y y y y t r y r r r r 3 r r 3 r 3 3 3 r 3 3 3 3 3 3 3 3 $ $ 2 $ $ $ $ $ $ $ $ $ $ @ @ @ $ $ $ $ $ $ $ $ & & & < < 1 1 1 9 ..cXnXy.b 1 1 < < 3 3 & @ O O & 3 @ + o o o PXPXPXPXPXPXPXPXPXPXPXPXPXPXPXPXPXPXPXPXPXPXPXPXPXPXPXPXPXPXPXPXPXPXPX",
"PXPXPXPXPXPXPXPXPXPXPXPXPXPXPXPXPXPXPXPXPXPXPXPXPXPXPXPXPXPXPXPXPXPXPXPXPXz z z x h 3 X 3 a i t 4 u f g l Z V ! eXDXT.T K A A Z Z Z k j j h h h h z h h h h h h h d h h h h i i h h i i i i i i h i i i i a i i h h i i i i i i i i i h i i i i i i i i i i i i i i i i i i i i y i y y y y y r y r r y r r r r r 3 3 3 3 3 3 3 3 3 3 3 $ 3 ; $ 2 $ $ $ $ $ $ $ $ $ $ $ $ $ $ $ $ $ $ $ $ & & & < < 1 1 7 9  .jXSXs.b : 6 6 < & & 2 2 $ O X 3 $ + + o o PXPXPXPXPXPXPXPXPXPXPXPXPXPXPXPXPXPXPXPXPXPXPXPXPXPXPXPXPXPXPXPXPXPXPXPX",
"PXPXPXPXPXPXPXPXPXPXPXPXPXPXPXPXPXPXPXPXPXPXPXPXPXPXPXPXPXPXPXPXPXPXPXPXPXPXz z x z a < @ r 3 2 t h f p f B V C ..iXDXT.Y C A Z A Z j k x j h h z h h z h h h h a h h h h h i d h i i i h d i i a i i i i i i h h i i i i i i i i i i h i i i i i i i i i i i i i i i i i i u i y y y u y y y r y t r r r r 3 r r 3 3 3 3 3 3 3 3 3 3 3 ; $ 3 $ $ $ $ $ $ $ $ $ $ $ $ $ $ $ $ $ $ $ $ $ & & & < < < 1 > 9 Q jXHXm.M > 1 < < 4 < & O $ $ O < 2 @ o o o PXPXPXPXPXPXPXPXPXPXPXPXPXPXPXPXPXPXPXPXPXPXPXPXPXPXPXPXPXPXPXPXPXPXPXPXPX",
"PXPXPXPXPXPXPXPXPXPXPXPXPXPXPXPXPXPXPXPXPXPXPXPXPXPXPXPXPXPXPXPXPXPXPXPXPXPXPXz z x z u @ O $ y i i t t g l Z A K ..jXDXm.U A A Z Z Z k k j j h z h h h h h h h h h h h h i d h h i d i h i i h i i h i a i i a h i i i i i i i i i i h i i i i i i i i i i i i i i i i i i u i y y i y y y y r y t r r r r 3 3 r 3 3 3 3 3 3 r 3 3 3 3 3 $ 2 $ $ $ $ $ $ $ $ $ $ $ $ $ $ $ $ $ $ $ $ & & & & < < 1 7 9 Q iXSXT.G > w 6 < & 2 3 2 @ O X < 3 @ @ o o o PXPXPXPXPXPXPXPXPXPXPXPXPXPXPXPXPXPXPXPXPXPXPXPXPXPXPXPXPXPXPXPXPXPXPXPXPX",
"PXPXPXPXPXPXPXPXPXPXPXPXPXPXPXPXPXPXPXPXPXPXPXPXPXPXPXPXPXPXPXPXPXPXPXPXPXPXPXPXz z x z 4 . $ i i 3 4 p f g g B V C r.cXDXI.U V A A A Z k k j z z h z h z z h h z h h h h h h h i d h i h i a i i i a i a i h h i i i i i d i i i i i a i i i i i i i i i i i i i i i i i i i i i y i y y y y t y y r y r r r r r r 3 3 3 r 3 r 3 3 3 3 3 ; ; 2 $ $ ; $ $ $ $ $ $ $ $ $ $ $ $ $ $ & & & & < < < 1 > , Q iXHXT.G > 7 6 6 1 < O $ 3 $ O & 4 @ @ + o o PXPXPXPXPXPXPXPXPXPXPXPXPXPXPXPXPXPXPXPXPXPXPXPXPXPXPXPXPXPXPXPXPXPXPXPXPXPX",
"PXPXPXPXPXPXPXPXPXPXPXPXPXPXPXPXPXPXPXPXPXPXPXPXPXPXPXPXPXPXPXPXPXPXPXPXPXPXPXPXh z z z i 3 . $ 2 3 u i p 0 f j B V K r.cXDXm.U A A A A Z k k k j z z h z h h z h z h h h h h h h h h i h h h a i i i i i i h h i i i i i a i i a i i a i i i i i i i i i i i i i i i i i i i i i y i y y y y y r y r r r r r r r r 3 3 3 r 3 3 3 3 3 3 3 ; $ 3 2 $ $ $ $ $ $ $ $ $ $ $ $ $ $ $ & & & & < < < 1 7 , | eXSXT.H 7 7 w < < 4 3 & O @ $ X 4 $ @ + + + PXPXPXPXPXPXPXPXPXPXPXPXPXPXPXPXPXPXPXPXPXPXPXPXPXPXPXPXPXPXPXPXPXPXPXPXPXPXPX",
"PXPXPXPXPXPXPXPXPXPXPXPXPXPXPXPXPXPXPXPXPXPXPXPXPXPXPXPXPXPXPXPXPXPXPXPXPXPXPXPXPXz z z z i &   $ i i u t p f f l B V n r.cXDXI.Y C A A Z Z Z k k z j z h h z z h z h h h h h h h h h i h h h a i h i i i d i i i h h i i i i i a i i a i i i i i i i i i i i i i i i i i i i y i y i y y y y y r y r r r r r r r r 3 r 3 3 3 3 3 3 3 3 3 3 $ ; 2 $ $ $ $ $ $ $ $ $ $ $ $ $ & & & & < < < < 1 7 ,  .jXSXT.G : 7 6 6 < & & 3 2 $ O X 4 * @ + o o PXPXPXPXPXPXPXPXPXPXPXPXPXPXPXPXPXPXPXPXPXPXPXPXPXPXPXPXPXPXPXPXPXPXPXPXPXPXPXPX",
"PXPXPXPXPXPXPXPXPXPXPXPXPXPXPXPXPXPXPXPXPXPXPXPXPXPXPXPXPXPXPXPXPXPXPXPXPXPXPXPXPXPXz z z z y O O r t 3 u h a p p l B B K r.jXDXI.Y A A A A Z k k k k z h z z z z h h h h h h h h h a h h h a h a h i h h h h i i h h h i a i i i i a a i i i i i i i i i i i i i i i i i i i y u u i y y u y y r y r r r r r r r r 3 3 3 r 3 3 3 3 3 3 3 3 ; $ 2 2 $ $ $ $ * * * * $ $ & & & & < < < < < 1 : b ..iXSXI.G > w 6 < 6 4 3 & $ 2 $ X < 2 @ @ + o PXPXPXPXPXPXPXPXPXPXPXPXPXPXPXPXPXPXPXPXPXPXPXPXPXPXPXPXPXPXPXPXPXPXPXPXPXPXPXPXPX",
"PXPXPXPXPXPXPXPXPXPXPXPXPXPXPXPXPXPXPXPXPXPXPXPXPXPXPXPXPXPXPXPXPXPXPXPXPXPXPXPXPXPXPXz z z h t & O $ y i u t 5 p f g l V n #.jXDXqX! C L A Z Z Z Z k j j z h z z z h h h h h h h h a z a h h h h a h h i h h i h h h h a a i i i i a i i i i i i i i i i i i i i i i i y y i i u y i y y u y y r t y r y r r r r r r r r 3 r 3 3 3 3 3 3 3 3 * 2 2 * * * * * * * * * * * & & < < < < 1 1 7 m d.cXSXm.M - 1 6 6 & < 4 3 2 $ O O < 3 @ O o o @ PXPXPXPXPXPXPXPXPXPXPXPXPXPXPXPXPXPXPXPXPXPXPXPXPXPXPXPXPXPXPXPXPXPXPXPXPXPXPXPXPX",
"PXPXPXPXPXPXPXPXPXPXPXPXPXPXPXPXPXPXPXPXPXPXPXPXPXPXPXPXPXPXPXPXPXPXPXPXPXPXPXPXPXPXPXz z z z a t O @ u y r 3 i p p 0 f B V K #.iXDXqX| F A Z A Z Z j k k j z z z h h z h h h h z h h h h h h h h h h h a h d i h h h a a a i i i i a i i i i i i i i i i i i i i i i i i i i y y y i i y u y y y r y r t r r r r r r r r 3 r 3 3 3 3 3 3 3 3 * 2 * 2 * * * * $ * * * & & & < < < < 1 1 > G s.NXnXs.M > 1 < < 1 < & & 3 2 $ . & 4 @ O o     PXPXPXPXPXPXPXPXPXPXPXPXPXPXPXPXPXPXPXPXPXPXPXPXPXPXPXPXPXPXPXPXPXPXPXPXPXPXPXPXPXPX",
"PXPXPXPXPXPXPXPXPXPXPXPXPXPXPXPXPXPXPXPXPXPXPXPXPXPXPXPXPXPXPXPXPXPXPXPXPXPXPXPXPXPXPXPXz z z z h 4 O $ 3 3 y u t 4 p g l B A C | eXDXiX#.K A A A Z Z Z k k k z j h h z h h h z z h z h h h h h h h h h a h a i a h h a h a i a i i a i i i i i i i i i i i i a i i i i i i i u y y i i y u y y y r y r t t t r r r r 3 r 3 3 3 3 3 3 3 3 3 3 * 3 * * * * * * * * * & < & < < < 1 1 1 > H I.SXjXy.m > w 6 < & < < & @ $ * O < 4 @ O o o o PXPXPXPXPXPXPXPXPXPXPXPXPXPXPXPXPXPXPXPXPXPXPXPXPXPXPXPXPXPXPXPXPXPXPXPXPXPXPXPXPXPXPX",
"PXPXPXPXPXPXPXPXPXPXPXPXPXPXPXPXPXPXPXPXPXPXPXPXPXPXPXPXPXPXPXPXPXPXPXPXPXPXPXPXPXPXPXPXPXz z z z a 4 . O t y r 3 t f f p g B V C } qXDXjXd.K V A A A Z Z Z k k j h z z h h h z h h h h h h h h h h h d h h i a h h h a h i i a i i i i i i i i i i i i i i i i i i i i i u i i y y u i y y u y y r y r t r t r r r r r 3 3 3 3 3 3 3 3 3 3 3 * 3 3 * * * * * * & < & < < < < 6 1 : > T /.DXjX..N 7 w 6 6 < & @ 2 3 * O O < 4 @ @ o o o PXPXPXPXPXPXPXPXPXPXPXPXPXPXPXPXPXPXPXPXPXPXPXPXPXPXPXPXPXPXPXPXPXPXPXPXPXPXPXPXPXPXPXPX",
"PXPXPXPXPXPXPXPXPXPXPXPXPXPXPXPXPXPXPXPXPXPXPXPXPXPXPXPXPXPXPXPXPXPXPXPXPXPXPXPXPXPXPXPXPXPXz z z z i 3 . $ 3 2 t i i 5 p g l B V B Y I.bXNXm.T A L A A Z Z Z k j j j h h h z z h z h h h h h h h h h h h h h i h h h i h i i a i i a i i i i a i i i i i i i i i i i i i u i y y y y i y y u y y t y r t r r r r r r 3 3 r 3 3 3 3 3 3 3 3 3 3 * 3 * * 2 * * 3 < < < < < 6 6 w 7 b  .iXnXqXQ , 7 w w < < 4 3 & @ * * O & 4 @ O + o o PXPXPXPXPXPXPXPXPXPXPXPXPXPXPXPXPXPXPXPXPXPXPXPXPXPXPXPXPXPXPXPXPXPXPXPXPXPXPXPXPXPXPXPXPX",
"PXPXPXPXPXPXPXPXPXPXPXPXPXPXPXPXPXPXPXPXPXPXPXPXPXPXPXPXPXPXPXPXPXPXPXPXPXPXPXPXPXPXPXPXPXPXPXz z z h u < . O r i y 3 t f f p s l B B K s.cXnXqX .K A L A Z Z j k k j j j z z h z h h h h z h h h h h h h h h a h z h a h i i i i i a a i i i h i i i i i i i i i i i i i u u i y y y u y y i y y y y t t r r r r r 3 r 3 r 3 3 r 3 3 3 3 3 3 3 3 3 3 * 2 3 < < < < < 6 6 1 7 > G a.cXnXI.H > 7 1 5 6 < & 3 3 2 @ O O & 4 $ @ o o + PXPXPXPXPXPXPXPXPXPXPXPXPXPXPXPXPXPXPXPXPXPXPXPXPXPXPXPXPXPXPXPXPXPXPXPXPXPXPXPXPXPXPXPXPXPX",
"PXPXPXPXPXPXPXPXPXPXPXPXPXPXPXPXPXPXPXPXPXPXPXPXPXPXPXPXPXPXPXPXPXPXPXPXPXPXPXPXPXPXPXPXPXPXPXPXz z z h u < . 2 y 3 3 i p p 5 p g g g B F #.eXDXjXy.U L A A A Z Z k k j j z z h z h z h z z h h h h h h h h h i h h a a a i i i a i a h i i i d i i i i i i i i i i i i i i u i y y u i y y y y y y y t r r r r r r r r r r r 3 3 3 3 3 3 3 3 3 3 3 3 3 3 < < < < 6 6 w 7 7 9 T T.nXcXa.G > 7 w 6 < 4 4 & & 2 3 $ O & 4 $ O @ o o PXPXPXPXPXPXPXPXPXPXPXPXPXPXPXPXPXPXPXPXPXPXPXPXPXPXPXPXPXPXPXPXPXPXPXPXPXPXPXPXPXPXPXPXPXPXPX",
"PXPXPXPXPXPXPXPXPXPXPXPXPXPXPXPXPXPXPXPXPXPXPXPXPXPXPXPXPXPXPXPXPXPXPXPXPXPXPXPXPXPXPXPXPXPXPXPXPXh h z h u < X @ 3 y i t 3 t p p 0 f l B C Q T.DXnXI.! C A Z A A Z Z k k k j j j j h h z h h h h h h h h h h a h h a a a i i i i i a h i h i i i i i i i i i i i i a i i i u i y y y u y y y y y y t t r t r r r 3 r r r r r 3 3 3 3 3 3 3 3 3 3 3 3 4 < < 1 1 6 w w 7 > m r.iXDXeX .b 7 1 1 6 6 < < 4 3 * @ $ O < 4 @ O @ o @ PXPXPXPXPXPXPXPXPXPXPXPXPXPXPXPXPXPXPXPXPXPXPXPXPXPXPXPXPXPXPXPXPXPXPXPXPXPXPXPXPXPXPXPXPXPXPXPX",
"PXPXPXPXPXPXPXPXPXPXPXPXPXPXPXPXPXPXPXPXPXPXPXPXPXPXPXPXPXPXPXPXPXPXPXPXPXPXPXPXPXPXPXPXPXPXPXPXPXPXa h z h i 3 X $ y y 2 3 i p 5 0 g g l B V Y s.cXDXeX#.K V A A Z Z Z Z k k j j j j h z h h h h h h h h h h h h h h h a a a h i i h h i h i i i i a i i i i i i i i i i i i i y y y u y y y y y y y y r r r r r 3 r 3 r r r 3 3 3 3 3 3 3 4 4 4 4 4 4 1 6 6 6 w w 8 9 Y I.NXbXI.T 9 8 w 6 < < 4 4 & 2 3 2 @ O < 4 @ O @ o o PXPXPXPXPXPXPXPXPXPXPXPXPXPXPXPXPXPXPXPXPXPXPXPXPXPXPXPXPXPXPXPXPXPXPXPXPXPXPXPXPXPXPXPXPXPXPXPXPX",
"PXPXPXPXPXPXPXPXPXPXPXPXPXPXPXPXPXPXPXPXPXPXPXPXPXPXPXPXPXPXPXPXPXPXPXPXPXPXPXPXPXPXPXPXPXPXPXPXPXPXPXi h z z i 3 & $ * 3 u i 4 4 p p p s B B V G  .qXmXvXI.! K V A Z Z Z Z Z k k j j j j h h h h h h h z h h h h h h h i h h h i i h a i h i i i i a i i i i i i i i i i i i i u u y i y y y y y y y y t r t r r r r r r r 3 r 3 3 3 3 3 3 4 5 4 4 4 5 6 6 w w 8 9 G y.iXnXiXr.M > 8 w 6 5 < & 3 3 2 $ 2 * @ 1 4 @ + o o o PXPXPXPXPXPXPXPXPXPXPXPXPXPXPXPXPXPXPXPXPXPXPXPXPXPXPXPXPXPXPXPXPXPXPXPXPXPXPXPXPXPXPXPXPXPXPXPXPXPX",
"PXPXPXPXPXPXPXPXPXPXPXPXPXPXPXPXPXPXPXPXPXPXPXPXPXPXPXPXPXPXPXPXPXPXPXPXPXPXPXPXPXPXPXPXPXPXPXPXPXPXPXPXi z z h i 3 & O r y r 3 u p t 5 g l g B V n T f.cXmXiXr.K A A A A Z Z j k k j k j j j h h h h h z h h h h h h h h h h h i i h i i h i a i i a i i i i i i i i i i i u i i u y i u y y y y y t t r r t t r r r r r r r r 3 3 4 4 4 4 4 5 5 6 6 w w w 7 > b Q T.bXbXT.Q b 7 w w 6 < 4 4 & & 3 3 * O @ 5 4 @ @ @ o o PXPXPXPXPXPXPXPXPXPXPXPXPXPXPXPXPXPXPXPXPXPXPXPXPXPXPXPXPXPXPXPXPXPXPXPXPXPXPXPXPXPXPXPXPXPXPXPXPXPXPX",
"PXPXPXPXPXPXPXPXPXPXPXPXPXPXPXPXPXPXPXPXPXPXPXPXPXPXPXPXPXPXPXPXPXPXPXPXPXPXPXPXPXPXPXPXPXPXPXPXPXPXPXPXPXz z z h i 4 & O $ $ t y t 3 t f f 0 f B B n M  ./.nXnXT. .K A A A Z Z Z k k k j j j j j h h h h h h h h h h h h h h h i h h a h a i a a i a i i i i i i i i i i i i i i u u i y u y y y y y t t r t t t r r r 3 4 4 t 4 4 4 5 4 5 5 5 w w w 8 8 8 9 U f.jXMXeXr.M > 7 w 6 5 5 < < 3 3 $ $ 2 $ @ 6 3 @ @ @ @ o PXPXPXPXPXPXPXPXPXPXPXPXPXPXPXPXPXPXPXPXPXPXPXPXPXPXPXPXPXPXPXPXPXPXPXPXPXPXPXPXPXPXPXPXPXPXPXPXPXPXPXPX",
"PXPXPXPXPXPXPXPXPXPXPXPXPXPXPXPXPXPXPXPXPXPXPXPXPXPXPXPXPXPXPXPXPXPXPXPXPXPXPXPXPXPXPXPXPXPXPXPXPXPXPXPXPXPXi z z h i 4 & . $ y t 3 3 f p 5 0 g f f g B n U a.jXDXjXm.! F C A A A Z Z Z k k j j j f j j h j h h h h h h h h h h h h h a h a a a a a h i i i i a i i i i i i i i i i u i u u y y y y y t t t t t t t t 4 4 4 4 4 5 5 5 6 5 w w w 0 8 8 8 9 G y.eXnXcXm.Y 9 7 7 w 6 < < 5 4 & 2 3 $ O O & 5 3 @ @ @ o o PXPXPXPXPXPXPXPXPXPXPXPXPXPXPXPXPXPXPXPXPXPXPXPXPXPXPXPXPXPXPXPXPXPXPXPXPXPXPXPXPXPXPXPXPXPXPXPXPXPXPXPXPX",
"PXPXPXPXPXPXPXPXPXPXPXPXPXPXPXPXPXPXPXPXPXPXPXPXPXPXPXPXPXPXPXPXPXPXPXPXPXPXPXPXPXPXPXPXPXPXPXPXPXPXPXPXPXPXPXz h h d i t < O $ 2 3 i i 5 4 f f 0 0 g g B B M Q I.vXDXiXs.T K A A A A Z Z Z j j k j k k j j j j j h h h h h h h h h h a h a a h a a h a a a i a h h i i i i i i i i u i u u y u y y y t t t t t t 5 4 5 5 5 5 5 5 6 w w w w 0 0 q 9 b G r.qXbXbXT.Q N 7 8 w 1 6 5 < < 3 3 & $ 2 & X < 5 * @ @ @ @ @ PXPXPXPXPXPXPXPXPXPXPXPXPXPXPXPXPXPXPXPXPXPXPXPXPXPXPXPXPXPXPXPXPXPXPXPXPXPXPXPXPXPXPXPXPXPXPXPXPXPXPXPXPXPX",
"PXPXPXPXPXPXPXPXPXPXPXPXPXPXPXPXPXPXPXPXPXPXPXPXPXPXPXPXPXPXPXPXPXPXPXPXPXPXPXPXPXPXPXPXPXPXPXPXPXPXPXPXPXPXPXPXi i i d i y 3 & . 3 i t 3 u h u 4 p f p f g B n K #./.bXDXeXa.T K V A A A Z Z Z j j Z k k k j j j j h h h h h h h h h h h h h h a h h a a a a h h a i i a a i a a u u i u u u u u u u t t t t t t 5 5 5 5 5 6 w w w w 0 0 0 q q 9 G r.(.bXmXqXr.M > 7 w 6 w < < 4 3 & & 3 3 $ O @ 5 5 $ @ @ @ o @ PXPXPXPXPXPXPXPXPXPXPXPXPXPXPXPXPXPXPXPXPXPXPXPXPXPXPXPXPXPXPXPXPXPXPXPXPXPXPXPXPXPXPXPXPXPXPXPXPXPXPXPXPXPXPX",
"PXPXPXPXPXPXPXPXPXPXPXPXPXPXPXPXPXPXPXPXPXPXPXPXPXPXPXPXPXPXPXPXPXPXPXPXPXPXPXPXPXPXPXPXPXPXPXPXPXPXPXPXPXPXPXPXPXi i d d i i 4 & & 2 2 t i u 3 5 f p 5 f g g B B n U r./.bXnXeXa.E K A A Z Z Z Z Z Z Z Z Z j j k j j j h h j h f h h h h h h h h h h a h a h h h a a a a a a a a p u p u u p t u t p t p t p p 0 0 0 0 0 w w 0 0 0 8 8 q q n U r.qXbXMXeXy.H , 8 7 w 6 < 6 1 & 3 4 3 @ 2 3 $ & w 4 @ O @ @ @ o PXPXPXPXPXPXPXPXPXPXPXPXPXPXPXPXPXPXPXPXPXPXPXPXPXPXPXPXPXPXPXPXPXPXPXPXPXPXPXPXPXPXPXPXPXPXPXPXPXPXPXPXPXPXPXPX",
"PXPXPXPXPXPXPXPXPXPXPXPXPXPXPXPXPXPXPXPXPXPXPXPXPXPXPXPXPXPXPXPXPXPXPXPXPXPXPXPXPXPXPXPXPXPXPXPXPXPXPXPXPXPXPXPXPXPXi i i i d i t < @ @ y i 3 2 i p 4 5 f f q g B g n n U y.qXbXDXjXs.! K V V A Z A A Z A Z Z Z Z j j j j j j j f f f f f h f f f f f f f f f f h h h f f f p a a p p p p p p p p p p 0 0 0 0 q q q 0 0 q q 0 0 q 8 8 8 b T d.eXbXMXeXd.H , 7 8 w 6 w 6 & < 4 < & 3 2 & O @ 5 0 3 @ @ @ o o @ PXPXPXPXPXPXPXPXPXPXPXPXPXPXPXPXPXPXPXPXPXPXPXPXPXPXPXPXPXPXPXPXPXPXPXPXPXPXPXPXPXPXPXPXPXPXPXPXPXPXPXPXPXPXPXPXPX",
"PXPXPXPXPXPXPXPXPXPXPXPXPXPXPXPXPXPXPXPXPXPXPXPXPXPXPXPXPXPXPXPXPXPXPXPXPXPXPXPXPXPXPXPXPXPXPXPXPXPXPXPXPXPXPXPXPXPXPXPXi i h h i y 3 < & 2 $ r u t 3 p p 0 0 g f q g B B C U r.T.vXmXiXI.#.U K C A A A A A Z Z Z Z j j j j j j j j j f f j f f f f f f f f f f f f f f f f p p f p p p p p p p p p p q q q q q q q q q q q q 9 9 b G | m.iXbXvXqXr.H b 9 8 w w w < 1 5 < & 3 3 $ $ 2 $ & w 0 $ @ @ @ @ @ PXPXPXPXPXPXPXPXPXPXPXPXPXPXPXPXPXPXPXPXPXPXPXPXPXPXPXPXPXPXPXPXPXPXPXPXPXPXPXPXPXPXPXPXPXPXPXPXPXPXPXPXPXPXPXPXPXPXPX",
"PXPXPXPXPXPXPXPXPXPXPXPXPXPXPXPXPXPXPXPXPXPXPXPXPXPXPXPXPXPXPXPXPXPXPXPXPXPXPXPXPXPXPXPXPXPXPXPXPXPXPXPXPXPXPXPXPXPXPXPXPXh i i h h i t < X O r t 3 t a t 4 f f 0 q g g g B e n G  .I.iXmXbXeXf. .U K C A V V A A Z B B Z Z Z j j j j j g j f j j j g j g g f f f f f f g f p g g f p p p p f f p p s s q q q q q q q q q 9 n M Q a.qXvXMXaXI. .M , 8 8 8 8 w 6 5 < < 4 3 & & 2 $ O O < q 4 $ @ @ @ o @ PXPXPXPXPXPXPXPXPXPXPXPXPXPXPXPXPXPXPXPXPXPXPXPXPXPXPXPXPXPXPXPXPXPXPXPXPXPXPXPXPXPXPXPXPXPXPXPXPXPXPXPXPXPXPXPXPXPXPXPX",
"PXPXPXPXPXPXPXPXPXPXPXPXPXPXPXPXPXPXPXPXPXPXPXPXPXPXPXPXPXPXPXPXPXPXPXPXPXPXPXPXPXPXPXPXPXPXPXPXPXPXPXPXPXPXPXPXPXPXPXPXPXPXy i h h h i y 4 & O @ 3 i i 3 t f p 5 p g q q g g g g n G Q s.eXnXDXvXqXa.| U F C V A V V A Z Z Z Z B Z Z l l Z l j l j l l l g g g l g g g g g g g g g f f f s f g e f g g e e e n q q 9 n G T y.T.aXMXvXeXf.Q m , 7 8 8 w w w 5 < 4 4 & 3 3 * @ $ O & w 0 2 @ @ $ @ + o PXPXPXPXPXPXPXPXPXPXPXPXPXPXPXPXPXPXPXPXPXPXPXPXPXPXPXPXPXPXPXPXPXPXPXPXPXPXPXPXPXPXPXPXPXPXPXPXPXPXPXPXPXPXPXPXPXPXPXPXPX",
"PXPXPXPXPXPXPXPXPXPXPXPXPXPXPXPXPXPXPXPXPXPXPXPXPXPXPXPXPXPXPXPXPXPXPXPXPXPXPXPXPXPXPXPXPXPXPXPXPXPXPXPXPXPXPXPXPXPXPXPXPXPXPXPXh h h d i y 4 < & $ 3 r 3 i p 4 4 f p 5 0 f q q g g e b m U #.I.iXmXDXNXqXm.#.T K F C C V A A V V Z Z S Z Z B Z Z B Z Z l l l g l l g l g B l l B B g g B g g g e e e n n n n m M Y  .s.qXcXmXMXiXI...H , > 7 8 w 6 w 5 < 5 5 & & 3 2 & 3 * @ O < 0 4 $ @ @ @ @ @ PXPXPXPXPXPXPXPXPXPXPXPXPXPXPXPXPXPXPXPXPXPXPXPXPXPXPXPXPXPXPXPXPXPXPXPXPXPXPXPXPXPXPXPXPXPXPXPXPXPXPXPXPXPXPXPXPXPXPXPXPXPXPX",
"PXPXPXPXPXPXPXPXPXPXPXPXPXPXPXPXPXPXPXPXPXPXPXPXPXPXPXPXPXPXPXPXPXPXPXPXPXPXPXPXPXPXPXPXPXPXPXPXPXPXPXPXPXPXPXPXPXPXPXPXPXPXPXPXPXy i i i i i t 4 < & O 3 a t 3 i a 4 4 p p 5 p g p q g B B C K T y.T.iXnXDXbXiXT.d. .Y H F C C B V V V V V V A V V Z V B B V B B B B B B B B B V B B B B n n n b b n m M U | y.I.iXvXMXbXiXT.y.T M 9 8 8 w 6 w w < 6 5 & < 4 3 & 3 3 & @ O < 0 0 * @ @ @ @ o o PXPXPXPXPXPXPXPXPXPXPXPXPXPXPXPXPXPXPXPXPXPXPXPXPXPXPXPXPXPXPXPXPXPXPXPXPXPXPXPXPXPXPXPXPXPXPXPXPXPXPXPXPXPXPXPXPXPXPXPXPXPXPXPX",
"PXPXPXPXPXPXPXPXPXPXPXPXPXPXPXPXPXPXPXPXPXPXPXPXPXPXPXPXPXPXPXPXPXPXPXPXPXPXPXPXPXPXPXPXPXPXPXPXPXPXPXPXPXPXPXPXPXPXPXPXPXPXPXPXPXPXi i i a a i i t 5 < & 3 2 3 i t 2 t p 4 4 p p 5 p g g g B B n n M U  .m.qXcXMXmXbXiXqXm.y. .T U K F F F F F C C C V V V V B V B B B B B B C C C n n M M G H Y | r.f.T.iXNXmXMXcXqXf. .H m 9 9 9 8 w w w 1 1 5 < < 4 3 & 3 3 & * 2 $ & 0 p 4 @ @ @ @ o @ @ PXPXPXPXPXPXPXPXPXPXPXPXPXPXPXPXPXPXPXPXPXPXPXPXPXPXPXPXPXPXPXPXPXPXPXPXPXPXPXPXPXPXPXPXPXPXPXPXPXPXPXPXPXPXPXPXPXPXPXPXPXPXPXPXPX",
"PXPXPXPXPXPXPXPXPXPXPXPXPXPXPXPXPXPXPXPXPXPXPXPXPXPXPXPXPXPXPXPXPXPXPXPXPXPXPXPXPXPXPXPXPXPXPXPXPXPXPXPXPXPXPXPXPXPXPXPXPXPXPXPXPXPXPXPXi y i a a i u t 5 < O 2 y 3 2 u t 2 4 p t 5 g g 0 s f q q q e n n M U ! y.I.eXcXmXDXmXvXiXqXT.f.d.r. .} T Y U U K G G M M M M M G G H U T Q | ..d.f.I.qXiXvXMXmXMXvXeXI.y.Q G b 9 8 8 8 w 0 w 6 6 w < < 4 3 & 3 3 & * 3 * O & 5 s 5 * @ @ @ o o o PXPXPXPXPXPXPXPXPXPXPXPXPXPXPXPXPXPXPXPXPXPXPXPXPXPXPXPXPXPXPXPXPXPXPXPXPXPXPXPXPXPXPXPXPXPXPXPXPXPXPXPXPXPXPXPXPXPXPXPXPXPXPXPXPXPXPX",
"PXPXPXPXPXPXPXPXPXPXPXPXPXPXPXPXPXPXPXPXPXPXPXPXPXPXPXPXPXPXPXPXPXPXPXPXPXPXPXPXPXPXPXPXPXPXPXPXPXPXPXPXPXPXPXPXPXPXPXPXPXPXPXPXPXPXPXPXPXPXi a i i a i t 4 4 & & O r y 3 * t u 4 p p p 0 p p 0 p s q f g g n n m M H T ..a.I.qXiXvXmXmXmXMXbXcXiXiXrXqX/.T.T.T.T.T.T.T./.qXqXiXiXcXNXMXmXmXMXvXiXqXI.a...T H m N 9 9 q 9 w w w 6 5 w 6 < 5 4 & 3 3 & * 3 * @ & & 6 q 5 * $ @ @ @ @ @ PXPXPXPXPXPXPXPXPXPXPXPXPXPXPXPXPXPXPXPXPXPXPXPXPXPXPXPXPXPXPXPXPXPXPXPXPXPXPXPXPXPXPXPXPXPXPXPXPXPXPXPXPXPXPXPXPXPXPXPXPXPXPXPXPXPXPXPXPX",
"PXPXPXPXPXPXPXPXPXPXPXPXPXPXPXPXPXPXPXPXPXPXPXPXPXPXPXPXPXPXPXPXPXPXPXPXPXPXPXPXPXPXPXPXPXPXPXPXPXPXPXPXPXPXPXPXPXPXPXPXPXPXPXPXPXPXPXPXPXPXPXi i i i i i y t 4 1 & & 2 $ r i t 3 p p 4 5 p 0 5 p p w p f s g g e q q 9 b n M G T  .r.s.I.T.eXiXjXcXbXbXMXmXmXmXmXmXmXMXMXMXbXvXjXiXeXT.I.a.r.| Y G m , , 7 8 8 9 q 8 8 8 6 5 5 < < 5 4 < 4 4 & & 3 * @ * @ & 6 s p 3 $ $ $ $ @ o @ PXPXPXPXPXPXPXPXPXPXPXPXPXPXPXPXPXPXPXPXPXPXPXPXPXPXPXPXPXPXPXPXPXPXPXPXPXPXPXPXPXPXPXPXPXPXPXPXPXPXPXPXPXPXPXPXPXPXPXPXPXPXPXPXPXPXPXPXPXPX",
"PXPXPXPXPXPXPXPXPXPXPXPXPXPXPXPXPXPXPXPXPXPXPXPXPXPXPXPXPXPXPXPXPXPXPXPXPXPXPXPXPXPXPXPXPXPXPXPXPXPXPXPXPXPXPXPXPXPXPXPXPXPXPXPXPXPXPXPXPXPXPXPXPXh i i i i y y t 4 < & O 3 y 3 4 a y 3 t i 4 5 p 5 5 p p 0 p s q s q q q e e n n n m m M G G H U T Q |  . ............. .| } T J H G M m b b b 9 q q 0 8 0 0 w 0 0 w w w 1 < 5 4 & 4 4 & 3 4 * & 3 * O & 6 q 0 3 $ @ $ $ $ $ $ PXPXPXPXPXPXPXPXPXPXPXPXPXPXPXPXPXPXPXPXPXPXPXPXPXPXPXPXPXPXPXPXPXPXPXPXPXPXPXPXPXPXPXPXPXPXPXPXPXPXPXPXPXPXPXPXPXPXPXPXPXPXPXPXPXPXPXPXPXPXPXPX",
"PXPXPXPXPXPXPXPXPXPXPXPXPXPXPXPXPXPXPXPXPXPXPXPXPXPXPXPXPXPXPXPXPXPXPXPXPXPXPXPXPXPXPXPXPXPXPXPXPXPXPXPXPXPXPXPXPXPXPXPXPXPXPXPXPXPXPXPXPXPXPXPXPXPXi i y u u i u y r 4 5 4 & O r y 3 3 i t 3 t u 4 5 p 0 5 p p 5 0 p w q s 0 q e e e n n e q 9 9 9 9 9 9 9 9 9 b 9 9 9 9 9 9 8 8 8 9 9 9 q q q q 8 0 0 w w w 1 6 w 1 < 6 4 < 4 4 & 2 3 * & 3 2 O & & w s 0 3 @ @ @ @ + + $ PXPXPXPXPXPXPXPXPXPXPXPXPXPXPXPXPXPXPXPXPXPXPXPXPXPXPXPXPXPXPXPXPXPXPXPXPXPXPXPXPXPXPXPXPXPXPXPXPXPXPXPXPXPXPXPXPXPXPXPXPXPXPXPXPXPXPXPXPXPXPXPXPXPX",
"PXPXPXPXPXPXPXPXPXPXPXPXPXPXPXPXPXPXPXPXPXPXPXPXPXPXPXPXPXPXPXPXPXPXPXPXPXPXPXPXPXPXPXPXPXPXPXPXPXPXPXPXPXPXPXPXPXPXPXPXPXPXPXPXPXPXPXPXPXPXPXPXPXPXPXPXy i y u u i y y t 4 5 1 < & $ 3 y 3 3 y t 3 t i 4 4 p 5 4 p p 5 0 p w 0 e 0 0 e q 0 q q q q q q q q q e e e e q q q q 0 0 0 8 w 0 0 w 0 0 w w w 1 6 6 < < 4 4 < 4 4 & 3 3 * $ 3 3 @ $ & < q s 0 3 $ @ @ @ $ @ o + PXPXPXPXPXPXPXPXPXPXPXPXPXPXPXPXPXPXPXPXPXPXPXPXPXPXPXPXPXPXPXPXPXPXPXPXPXPXPXPXPXPXPXPXPXPXPXPXPXPXPXPXPXPXPXPXPXPXPXPXPXPXPXPXPXPXPXPXPXPXPXPXPXPXPX",
"PXPXPXPXPXPXPXPXPXPXPXPXPXPXPXPXPXPXPXPXPXPXPXPXPXPXPXPXPXPXPXPXPXPXPXPXPXPXPXPXPXPXPXPXPXPXPXPXPXPXPXPXPXPXPXPXPXPXPXPXPXPXPXPXPXPXPXPXPXPXPXPXPXPXPXPXPXPXi u y y u u u y t 4 5 w < & & @ 3 y r 3 y u 3 t i 3 3 t 5 4 p p 6 0 p w 0 q w 6 q 0 w 0 0 w 0 q 0 q e 0 q q 8 0 0 w 6 w w 1 w w 6 w 0 6 5 5 < < 5 < < 4 3 < 3 3 & 2 3 3 @ $ O & 5 s s 5 2 $ @ $ @ @ @ @ $ PXPXPXPXPXPXPXPXPXPXPXPXPXPXPXPXPXPXPXPXPXPXPXPXPXPXPXPXPXPXPXPXPXPXPXPXPXPXPXPXPXPXPXPXPXPXPXPXPXPXPXPXPXPXPXPXPXPXPXPXPXPXPXPXPXPXPXPXPXPXPXPXPXPXPXPXPX",
"PXPXPXPXPXPXPXPXPXPXPXPXPXPXPXPXPXPXPXPXPXPXPXPXPXPXPXPXPXPXPXPXPXPXPXPXPXPXPXPXPXPXPXPXPXPXPXPXPXPXPXPXPXPXPXPXPXPXPXPXPXPXPXPXPXPXPXPXPXPXPXPXPXPXPXPXPXPXPXPXy y u u u u y y t 4 4 5 6 < < 2 * 3 y t 2 t t 2 4 t 3 4 p t < p p 4 5 p 4 4 p 5 1 0 0 6 0 q w 0 p w 0 q 6 6 0 5 < 0 5 < 5 0 < 5 0 4 4 5 4 < 4 3 & 3 3 & 2 3 2 $ * & & < 0 p p 3 $ $ $ $ $ $ + o o PXPXPXPXPXPXPXPXPXPXPXPXPXPXPXPXPXPXPXPXPXPXPXPXPXPXPXPXPXPXPXPXPXPXPXPXPXPXPXPXPXPXPXPXPXPXPXPXPXPXPXPXPXPXPXPXPXPXPXPXPXPXPXPXPXPXPXPXPXPXPXPXPXPXPXPXPXPXPX",
"PXPXPXPXPXPXPXPXPXPXPXPXPXPXPXPXPXPXPXPXPXPXPXPXPXPXPXPXPXPXPXPXPXPXPXPXPXPXPXPXPXPXPXPXPXPXPXPXPXPXPXPXPXPXPXPXPXPXPXPXPXPXPXPXPXPXPXPXPXPXPXPXPXPXPXPXPXPXPXPXPXPXi u u y y y y y y r 4 4 5 w 6 < 3 * * r 3 * t t 2 3 i 4 3 u t 3 t u 3 4 p 4 3 5 5 < 0 0 5 0 p 5 0 q 5 1 5 4 < 5 5 & 4 5 & 4 t 4 3 4 3 & 3 3 & 2 3 * $ * & & 6 q s p 4 * $ @ $ $ $ $ $ $ $ PXPXPXPXPXPXPXPXPXPXPXPXPXPXPXPXPXPXPXPXPXPXPXPXPXPXPXPXPXPXPXPXPXPXPXPXPXPXPXPXPXPXPXPXPXPXPXPXPXPXPXPXPXPXPXPXPXPXPXPXPXPXPXPXPXPXPXPXPXPXPXPXPXPXPXPXPXPXPXPXPX",
"PXPXPXPXPXPXPXPXPXPXPXPXPXPXPXPXPXPXPXPXPXPXPXPXPXPXPXPXPXPXPXPXPXPXPXPXPXPXPXPXPXPXPXPXPXPXPXPXPXPXPXPXPXPXPXPXPXPXPXPXPXPXPXPXPXPXPXPXPXPXPXPXPXPXPXPXPXPXPXPXPXPXPXPXy 3 r r y y y y y y r 4 5 0 w 1 < & & @ 3 3 * t i 3 3 i 3 2 t t 3 4 t 3 2 t 4 3 5 5 3 5 t 4 5 p 4 3 5 3 & 4 4 & 3 t * 3 t 3 2 t 3 * 3 3 @ @ $ & < w q f p 4 2 $ $ $ $ $ $ $ + + PXPXPXPXPXPXPXPXPXPXPXPXPXPXPXPXPXPXPXPXPXPXPXPXPXPXPXPXPXPXPXPXPXPXPXPXPXPXPXPXPXPXPXPXPXPXPXPXPXPXPXPXPXPXPXPXPXPXPXPXPXPXPXPXPXPXPXPXPXPXPXPXPXPXPXPXPXPXPXPXPXPXPXPX",
"PXPXPXPXPXPXPXPXPXPXPXPXPXPXPXPXPXPXPXPXPXPXPXPXPXPXPXPXPXPXPXPXPXPXPXPXPXPXPXPXPXPXPXPXPXPXPXPXPXPXPXPXPXPXPXPXPXPXPXPXPXPXPXPXPXPXPXPXPXPXPXPXPXPXPXPXPXPXPXPXPXPXPXPXPXPXPXy y y y y y y y y r r 3 4 5 w w 6 < & & 3 3 * 3 y 3 2 t r * t y 2 2 t 3 2 t 4 2 4 t 3 4 t 3 2 t 3 * r 3 & 3 t 2 * t 3 & 3 2 $ & < 1 6 q f p t 3 2 $ $ $ $ $ $ $ $ $ $ PXPXPXPXPXPXPXPXPXPXPXPXPXPXPXPXPXPXPXPXPXPXPXPXPXPXPXPXPXPXPXPXPXPXPXPXPXPXPXPXPXPXPXPXPXPXPXPXPXPXPXPXPXPXPXPXPXPXPXPXPXPXPXPXPXPXPXPXPXPXPXPXPXPXPXPXPXPXPXPXPXPXPXPXPXPX",
"PXPXPXPXPXPXPXPXPXPXPXPXPXPXPXPXPXPXPXPXPXPXPXPXPXPXPXPXPXPXPXPXPXPXPXPXPXPXPXPXPXPXPXPXPXPXPXPXPXPXPXPXPXPXPXPXPXPXPXPXPXPXPXPXPXPXPXPXPXPXPXPXPXPXPXPXPXPXPXPXPXPXPXPXPXPXPXPXPXt r 3 r r r y y y r r r 3 3 4 5 0 0 w 6 < < < O @ 3 2 @ r r * 3 r 3 2 r r * r t 2 3 t 3 2 r r $ 3 3 $ $ 2 @ O & & & 6 w q f f f t 3 3 $ $ $ $ $ $ $ $ $ + + $ PXPXPXPXPXPXPXPXPXPXPXPXPXPXPXPXPXPXPXPXPXPXPXPXPXPXPXPXPXPXPXPXPXPXPXPXPXPXPXPXPXPXPXPXPXPXPXPXPXPXPXPXPXPXPXPXPXPXPXPXPXPXPXPXPXPXPXPXPXPXPXPXPXPXPXPXPXPXPXPXPXPXPXPXPXPXPXPX",
"PXPXPXPXPXPXPXPXPXPXPXPXPXPXPXPXPXPXPXPXPXPXPXPXPXPXPXPXPXPXPXPXPXPXPXPXPXPXPXPXPXPXPXPXPXPXPXPXPXPXPXPXPXPXPXPXPXPXPXPXPXPXPXPXPXPXPXPXPXPXPXPXPXPXPXPXPXPXPXPXPXPXPXPXPXPXPXPXPXPXPXPXy y y r r r r r r r r r 3 3 3 5 5 0 0 w w 5 5 < & < < & $ & $ @ & & @ * 2 $ $ 2 $ @ & & & & < & < 5 w w 0 p f f p t 3 2 $ $ $ $ $ $ $ $ $ $ $ $ $ PXPXPXPXPXPXPXPXPXPXPXPXPXPXPXPXPXPXPXPXPXPXPXPXPXPXPXPXPXPXPXPXPXPXPXPXPXPXPXPXPXPXPXPXPXPXPXPXPXPXPXPXPXPXPXPXPXPXPXPXPXPXPXPXPXPXPXPXPXPXPXPXPXPXPXPXPXPXPXPXPXPXPXPXPXPXPXPXPXPXPX",
"PXPXPXPXPXPXPXPXPXPXPXPXPXPXPXPXPXPXPXPXPXPXPXPXPXPXPXPXPXPXPXPXPXPXPXPXPXPXPXPXPXPXPXPXPXPXPXPXPXPXPXPXPXPXPXPXPXPXPXPXPXPXPXPXPXPXPXPXPXPXPXPXPXPXPXPXPXPXPXPXPXPXPXPXPXPXPXPXPXPXPXPXPXPXPXy r r 3 3 r r r r r r r r 3 3 3 3 4 4 5 0 0 q q q q q q q q w w w w w w 0 0 q s f f f f f p p p 5 3 3 $ $ $ $ $ $ $ $ $ $ $ @ @ @ $ # PXPXPXPXPXPXPXPXPXPXPXPXPXPXPXPXPXPXPXPXPXPXPXPXPXPXPXPXPXPXPXPXPXPXPXPXPXPXPXPXPXPXPXPXPXPXPXPXPXPXPXPXPXPXPXPXPXPXPXPXPXPXPXPXPXPXPXPXPXPXPXPXPXPXPXPXPXPXPXPXPXPXPXPXPXPXPXPXPXPXPXPXPXPX",
"PXPXPXPXPXPXPXPXPXPXPXPXPXPXPXPXPXPXPXPXPXPXPXPXPXPXPXPXPXPXPXPXPXPXPXPXPXPXPXPXPXPXPXPXPXPXPXPXPXPXPXPXPXPXPXPXPXPXPXPXPXPXPXPXPXPXPXPXPXPXPXPXPXPXPXPXPXPXPXPXPXPXPXPXPXPXPXPXPXPXPXPXPXPXPXPXPXPXPXr r r r r r r r r r r 3 r 3 3 3 3 3 3 3 3 3 3 4 4 5 5 t 5 t t t 5 4 4 4 3 3 3 2 2 $ $ $ $ $ $ $ $ $ $ $ $ $ $ $ $ $ + PXPXPXPXPXPXPXPXPXPXPXPXPXPXPXPXPXPXPXPXPXPXPXPXPXPXPXPXPXPXPXPXPXPXPXPXPXPXPXPXPXPXPXPXPXPXPXPXPXPXPXPXPXPXPXPXPXPXPXPXPXPXPXPXPXPXPXPXPXPXPXPXPXPXPXPXPXPXPXPXPXPXPXPXPXPXPXPXPXPXPXPXPXPXPXPXPXPX",
"PXPXPXPXPXPXPXPXPXPXPXPXPXPXPXPXPXPXPXPXPXPXPXPXPXPXPXPXPXPXPXPXPXPXPXPXPXPXPXPXPXPXPXPXPXPXPXPXPXPXPXPXPXPXPXPXPXPXPXPXPXPXPXPXPXPXPXPXPXPXPXPXPXPXPXPXPXPXPXPXPXPXPXPXPXPXPXPXPXPXPXPXPXPXPXPXPXPXPXPXPXPXPXr r r r 3 3 3 3 3 3 r 3 3 3 3 3 3 3 3 2 ; $ $ $ $ $ $ $ $ $ $ $ $ $ $ $ $ $ $ $ $ $ $ $ $ $ $ $ $ $ $ PXPXPXPXPXPXPXPXPXPXPXPXPXPXPXPXPXPXPXPXPXPXPXPXPXPXPXPXPXPXPXPXPXPXPXPXPXPXPXPXPXPXPXPXPXPXPXPXPXPXPXPXPXPXPXPXPXPXPXPXPXPXPXPXPXPXPXPXPXPXPXPXPXPXPXPXPXPXPXPXPXPXPXPXPXPXPXPXPXPXPXPXPXPXPXPXPXPXPXPXPXPX",
"PXPXPXPXPXPXPXPXPXPXPXPXPXPXPXPXPXPXPXPXPXPXPXPXPXPXPXPXPXPXPXPXPXPXPXPXPXPXPXPXPXPXPXPXPXPXPXPXPXPXPXPXPXPXPXPXPXPXPXPXPXPXPXPXPXPXPXPXPXPXPXPXPXPXPXPXPXPXPXPXPXPXPXPXPXPXPXPXPXPXPXPXPXPXPXPXPXPXPXPXPXPXPXPXPXPXPXPX$ $ ; 3 3 3 r r r r r 3 3 3 3 3 3 3 ; ; 3 ; ; ; # # # # # # # # $ $ $ $ $ $ @ o o PXPXPXPXPXPXPXPXPXPXPXPXPXPXPXPXPXPXPXPXPXPXPXPXPXPXPXPXPXPXPXPXPXPXPXPXPXPXPXPXPXPXPXPXPXPXPXPXPXPXPXPXPXPXPXPXPXPXPXPXPXPXPXPXPXPXPXPXPXPXPXPXPXPXPXPXPXPXPXPXPXPXPXPXPXPXPXPXPXPXPXPXPXPXPXPXPXPXPXPXPXPXPXPXPXPXPX",
"PXPXPXPXPXPXPXPXPXPXPXPXPXPXPXPXPXPXPXPXPXPXPXPXPXPXPXPXPXPXPXPXPXPXPXPXPXPXPXPXPXPXPXPXPXPXPXPXPXPXPXPXPXPXPXPXPXPXPXPXPXPXPXPXPXPXPXPXPXPXPXPXPXPXPXPXPXPXPXPXPXPXPXPXPXPXPXPXPXPXPXPXPXPXPXPXPXPXPXPXPXPXPXPXPXPXPXPXPXPXPXPXPXPXr r r r # ; ; ; # # # # # # # # $ # # # # # # # # # # $ PXPXPXPXPXPXPXPXPXPXPXPXPXPXPXPXPXPXPXPXPXPXPXPXPXPXPXPXPXPXPXPXPXPXPXPXPXPXPXPXPXPXPXPXPXPXPXPXPXPXPXPXPXPXPXPXPXPXPXPXPXPXPXPXPXPXPXPXPXPXPXPXPXPXPXPXPXPXPXPXPXPXPXPXPXPXPXPXPXPXPXPXPXPXPXPXPXPXPXPXPXPXPXPXPXPXPXPXPXPXPXPXPXPX",
"PXPXPXPXPXPXPXPXPXPXPXPXPXPXPXPXPXPXPXPXPXPXPXPXPXPXPXPXPXPXPXPXPXPXPXPXPXPXPXPXPXPXPXPXPXPXPXPXPXPXPXPXPXPXPXPXPXPXPXPXPXPXPXPXPXPXPXPXPXPXPXPXPXPXPXPXPXPXPXPXPXPXPXPXPXPXPXPXPXPXPXPXPXPXPXPXPXPXPXPXPXPXPXPXPXPXPXPXPXPXPXPXPXPXPXPXPXPXPXPXPXPXPXPXPXPXPXPXPXPXPXPXPXPXPXPXPXPXPXPXPXPXPXPXPXPXPXPXPXPXPXPXPXPXPXPXPXPXPXPXPXPXPXPXPXPXPXPXPXPXPXPXPXPXPXPXPXPXPXPXPXPXPXPXPXPXPXPXPXPXPXPXPXPXPXPXPXPXPXPXPXPXPXPXPXPXPXPXPXPXPXPXPXPXPXPXPXPXPXPXPXPXPXPXPXPXPXPXPXPXPXPXPXPXPXPXPXPXPXPXPXPXPXPXPXPXPXPXPXPXPXPXPXPXPXPX",
"PXPXPXPXPXPXPXPXPXPXPXPXPXPXPXPXPXPXPXPXPXPXPXPXPXPXPXPXPXPXPXPXPXPXPXPXPXPXPXPXPXPXPXPXPXPXPXPXPXPXPXPXPXPXPXPXPXPXPXPXPXPXPXPXPXPXPXPXPXPXPXPXPXPXPXPXPXPXPXPXPXPXPXPXPXPXPXPXPXPXPXPXPXPXPXPXPXPXPXPXPXPXPXPXPXPXPXPXPXPXPXPXPXPXPXPXPXPXPXPXPXPXPXPXPXPXPXPXPXPXPXPXPXPXPXPXPXPXPXPXPXPXPXPXPXPXPXPXPXPXPXPXPXPXPXPXPXPXPXPXPXPXPXPXPXPXPXPXPXPXPXPXPXPXPXPXPXPXPXPXPXPXPXPXPXPXPXPXPXPXPXPXPXPXPXPXPXPXPXPXPXPXPXPXPXPXPXPXPXPXPXPXPXPXPXPXPXPXPXPXPXPXPXPXPXPXPXPXPXPXPXPXPXPXPXPXPXPXPXPXPXPXPXPXPXPXPXPXPXPXPXPXPXPXPXPX",
"PXPXPXPXPXPXPXPXPXPXPXPXPXPXPXPXPXPXPXPXPXPXPXPXPXPXPXPXPXPXPXPXPXPXPXPXPXPXPXPXPXPXPXPXPXPXPXPXPXPXPXPXPXPXPXPXPXPXPXPXPXPXPXPXPXPXPXPXPXPXPXPXPXPXPXPXPXPXPXPXPXPXPXPXPXPXPXPXPXPXPXPXPXPXPXPXPXPXPXPXPXPXPXPXPXPXPXPXPXPXPXPXPXPXPXPXPXPXPXPXPXPXPXPXPXPXPXPXPXPXPXPXPXPXPXPXPXPXPXPXPXPXPXPXPXPXPXPXPXPXPXPXPXPXPXPXPXPXPXPXPXPXPXPXPXPXPXPXPXPXPXPXPXPXPXPXPXPXPXPXPXPXPXPXPXPXPXPXPXPXPXPXPXPXPXPXPXPXPXPXPXPXPXPXPXPXPXPXPXPXPXPXPXPXPXPXPXPXPXPXPXPXPXPXPXPXPXPXPXPXPXPXPXPXPXPXPXPXPXPXPXPXPXPXPXPXPXPXPXPXPXPXPXPXPXPX",
"PXPXPXPXPXPXPXPXPXPXPXPXPXPXPXPXPXPXPXPXPXPXPXPXPXPXPXPXPXPXPXPXPXPXPXPXPXPXPXPXPXPXPXPXPXPXPXPXPXPXPXPXPXPXPXPXPXPXPXPXPXPXPXPXPXPXPXPXPXPXPXPXPXPXPXPXPXPXPXPXPXPXPXPXPXPXPXPXPXPXPXPXPXPXPXPXPXPXPXPXPXPXPXPXPXPXPXPXPXPXPXPXPXPXPXPXPXPXPXPXPXPXPXPXPXPXPXPXPXPXPXPXPXPXPXPXPXPXPXPXPXPXPXPXPXPXPXPXPXPXPXPXPXPXPXPXPXPXPXPXPXPXPXPXPXPXPXPXPXPXPXPXPXPXPXPXPXPXPXPXPXPXPXPXPXPXPXPXPXPXPXPXPXPXPXPXPXPXPXPXPXPXPXPXPXPXPXPXPXPXPXPXPXPXPXPXPXPXPXPXPXPXPXPXPXPXPXPXPXPXPXPXPXPXPXPXPXPXPXPXPXPXPXPXPXPXPXPXPXPXPXPXPXPXPXPX",
"PXPXPXPXPXPXPXPXPXPXPXPXPXPXPXPXPXPXPXPXPXPXPXPXPXPXPXPXPXPXPXPXPXPXPXPXPXPXPXPXPXPXPXPXPXPXPXPXPXPXPXPXPXPXPXPXPXPXPXPXPXPXPXPXPXPXPXPXPXPXPXPXPXPXPXPXPXPXPXPXPXPXPXPXPXPXPXPXPXPXPXPXPXPXPXPXPXPXPXPXPXPXPXPXPXPXPXPXPXPXPXPXPXPXPXPXPXPXPXPXPXPXPXPXPXPXPXPXPXPXPXPXPXPXPXPXPXPXPXPXPXPXPXPXPXPXPXPXPXPXPXPXPXPXPXPXPXPXPXPXPXPXPXPXPXPXPXPXPXPXPXPXPXPXPXPXPXPXPXPXPXPXPXPXPXPXPXPXPXPXPXPXPXPXPXPXPXPXPXPXPXPXPXPXPXPXPXPXPXPXPXPXPXPXPXPXPXPXPXPXPXPXPXPXPXPXPXPXPXPXPXPXPXPXPXPXPXPXPXPXPXPXPXPXPXPXPXPXPXPXPXPXPXPXPXPX",
"PXPXPXPXPXPXPXPXPXPXPXPXPXPXPXPXPXPXPXPXPXPXPXPXPXPXPXPXPXPXPXPXPXPXPXPXPXPXPXPXPXPXPXPXPXPXPXPXPXPXPXPXPXPXPXPXPXPXPXPXPXPXPXPXPXPXPXPXPXPXPXPXPXPXPXPXPXPXPXPXPXPXPXPXPXPXPXPXPXPXPXPXPXPXPXPXPXPXPXPXPXPXPXPXPXPXPXPXPXPXPXPXPXPXPXPXPXPXPXPXPXPXPXPXPXPXPXPXPXPXPXPXPXPXPXPXPXPXPXPXPXPXPXPXPXPXPXPXPXPXPXPXPXPXPXPXPXPXPXPXPXPXPXPXPXPXPXPXPXPXPXPXPXPXPXPXPXPXPXPXPXPXPXPXPXPXPXPXPXPXPXPXPXPXPXPXPXPXPXPXPXPXPXPXPXPXPXPXPXPXPXPXPXPXPXPXPXPXPXPXPXPXPXPXPXPXPXPXPXPXPXPXPXPXPXPXPXPXPXPXPXPXPXPXPXPXPXPXPXPXPXPXPXPXPXPX",
"PXPXPXPXPXPXPXPXPXPXPXPXPXPXPXPXPXPXPXPXPXPXPXPXPXPXPXPXPXPXPXPXPXPXPXPXPXPXPXPXPXPXPXPXPXPXPXPXPXPXPXPXPXPXPXPXPXPXPXPXPXPXPXPXPXPXPXPXPXPXPXPXPXPXPXPXPXPXPXPXPXPXPXPXPXPXPXPXPXPXPXPXPXPXPXPXPXPXPXPXPXPXPXPXPXPXPXPXPXPXPXPXPXPXPXPXPXPXPXPXPXPXPXPXPXPXPXPXPXPXPXPXPXPXPXPXPXPXPXPXPXPXPXPXPXPXPXPXPXPXPXPXPXPXPXPXPXPXPXPXPXPXPXPXPXPXPXPXPXPXPXPXPXPXPXPXPXPXPXPXPXPXPXPXPXPXPXPXPXPXPXPXPXPXPXPXPXPXPXPXPXPXPXPXPXPXPXPXPXPXPXPXPXPXPXPXPXPXPXPXPXPXPXPXPXPXPXPXPXPXPXPXPXPXPXPXPXPXPXPXPXPXPXPXPXPXPXPXPXPXPXPXPXPXPXPX",
"PXPXPXPXPXPXPXPXPXPXPXPXPXPXPXPXPXPXPXPXPXPXPXPXPXPXPXPXPXPXPXPXPXPXPXPXPXPXPXPXPXPXPXPXPXPXPXPXPXPXPXPXPXPXPXPXPXPXPXPXPXPXPXPXPXPXPXPXPXPXPXPXPXPXPXPXPXPXPXPXPXPXPXPXPXPXPXPXPXPXPXPXPXPXPXPXPXPXPXPXPXPXPXPXPXPXPXPXPXPXPXPXPXPXPXPXPXPXPXPXPXPXPXPXPXPXPXPXPXPXPXPXPXPXPXPXPXPXPXPXPXPXPXPXPXPXPXPXPXPXPXPXPXPXPXPXPXPXPXPXPXPXPXPXPXPXPXPXPXPXPXPXPXPXPXPXPXPXPXPXPXPXPXPXPXPXPXPXPXPXPXPXPXPXPXPXPXPXPXPXPXPXPXPXPXPXPXPXPXPXPXPXPXPXPXPXPXPXPXPXPXPXPXPXPXPXPXPXPXPXPXPXPXPXPXPXPXPXPXPXPXPXPXPXPXPXPXPXPXPXPXPXPXPXPXPX",
"PXPXPXPXPXPXPXPXPXPXPXPXPXPXPXPXPXPXPXPXPXPXPXPXPXPXPXPXPXPXPXPXPXPXPXPXPXPXPXPXPXPXPXPXPXPXPXPXPXPXPXPXPXPXPXPXPXPXPXPXPXPXPXPXPXPXPXPXPXPXPXPXPXPXPXPXPXPXPXPXPXPXPXPXPXPXPXPXPXPXPXPXPXPXPXPXPXPXPXPXPXPXPXPXPXPXPXPXPXPXPXPXPXPXPXPXPXPXPXPXPXPXPXPXPXPXPXPXPXPXPXPXPXPXPXPXPXPXPXPXPXPXPXPXPXPXPXPXPXPXPXPXPXPXPXPXPXPXPXPXPXPXPXPXPXPXPXPXPXPXPXPXPXPXPXPXPXPXPXPXPXPXPXPXPXPXPXPXPXPXPXPXPXPXPXPXPXPXPXPXPXPXPXPXPXPXPXPXPXPXPXPXPXPXPXPXPXPXPXPXPXPXPXPXPXPXPXPXPXPXPXPXPXPXPXPXPXPXPXPXPXPXPXPXPXPXPXPXPXPXPXPXPXPXPXPX",
"PXPXPXPXPXPXPXPXPXPXPXPXPXPXPXPXPXPXPXPXPXPXPXPXPXPXPXPXPXPXPXPXPXPXPXPXPXPXPXPXPXPXPXPXPXPXPXPXPXPXPXPXPXPXPXPXPXPXPXPXPXPXPXPXPXPXPXPXPXPXPXPXPXPXPXPXPXPXPXPXPXPXPXPXPXPXPXPXPXPXPXPXPXPXPXPXPXPXPXPXPXPXPXPXPXPXPXPXPXPXPXPXPXPXPXPXPXPXPXPXPXPXPXPXPXPXPXPXPXPXPXPXPXPXPXPXPXPXPXPXPXPXPXPXPXPXPXPXPXPXPXPXPXPXPXPXPXPXPXPXPXPXPXPXPXPXPXPXPXPXPXPXPXPXPXPXPXPXPXPXPXPXPXPXPXPXPXPXPXPXPXPXPXPXPXPXPXPXPXPXPXPXPXPXPXPXPXPXPXPXPXPXPXPXPXPXPXPXPXPXPXPXPXPXPXPXPXPXPXPXPXPXPXPXPXPXPXPXPXPXPXPXPXPXPXPXPXPXPXPXPXPXPXPXPXPX",
"PXPXPXPXPXPXPXPXPXPXPXPXPXPXPXPXPXPXPXPXPXPXPXPXPXPXPXPXPXPXPXPXPXPXPXPXPXPXPXPXPXPXPXPXPXPXPXPXPXPXPXPXPXPXPXPXPXPXPXPXPXPXPXPXPXPXPXPXPXPXPXPXPXPXPXPXPXPXPXPXPXPXPXPXPXPXPXPXPXPXPXPXPXPXPXPXPXPXPXPXPXPXPXPXPXPXPXPXPXPXPXPXPXPXPXPXPXPXPXPXPXPXPXPXPXPXPXPXPXPXPXPXPXPXPXPXPXPXPXPXPXPXPXPXPXPXPXPXPXPXPXPXPXPXPXPXPXPXPXPXPXPXPXPXPXPXPXPXPXPXPXPXPXPXPXPXPXPXPXPXPXPXPXPXPXPXPXPXPXPXPXPXPXPXPXPXPXPXPXPXPXPXPXPXPXPXPXPXPXPXPXPXPXPXPXPXPXPXPXPXPXPXPXPXPXPXPXPXPXPXPXPXPXPXPXPXPXPXPXPXPXPXPXPXPXPXPXPXPXPXPXPXPXPXPXPX",
"PXPXPXPXPXPXPXPXPXPXPXPXPXPXPXPXPXPXPXPXPXPXPXPXPXPXPXPXPXPXPXPXPXPXPXPXPXPXPXPXPXPXPXPXPXPXPXPXPXPXPXPXPXPXPXPXPXPXPXPXPXPXPXPXPXPXPXPXPXPXPXPXPXPXPXPXPXPXPXPXPXPXPXPXPXPXPXPXPXPXPXPXPXPXPXPXPXPXPXPXPXPXPXPXPXPXPXPXPXPXPXPXPXPXPXPXPXPXPXPXPXPXPXPXPXPXPXPXPXPXPXPXPXPXPXPXPXPXPXPXPXPXPXPXPXPXPXPXPXPXPXPXPXPXPXPXPXPXPXPXPXPXPXPXPXPXPXPXPXPXPXPXPXPXPXPXPXPXPXPXPXPXPXPXPXPXPXPXPXPXPXPXPXPXPXPXPXPXPXPXPXPXPXPXPXPXPXPXPXPXPXPXPXPXPXPXPXPXPXPXPXPXPXPXPXPXPXPXPXPXPXPXPXPXPXPXPXPXPXPXPXPXPXPXPXPXPXPXPXPXPXPXPXPXPXPX",
"PXPXPXPXPXPXPXPXPXPXPXPXPXPXPXPXPXPXPXPXPXPXPXPXPXPXPXPXPXPXPXPXPXPXPXPXPXPXPXPXPXPXPXPXPXPXPXPXPXPXPXPXPXPXPXPXPXPXPXPXPXPXPXPXPXPXPXPXPXPXPXPXPXPXPXPXPXPXPXPXPXPXPXPXPXPXPXPXPXPXPXPXPXPXPXPXPXPXPXPXPXPXPXPXPXPXPXPXPXPXPXPXPXPXPXPXPXPXPXPXPXPXPXPXPXPXPXPXPXPXPXPXPXPXPXPXPXPXPXPXPXPXPXPXPXPXPXPXPXPXPXPXPXPXPXPXPXPXPXPXPXPXPXPXPXPXPXPXPXPXPXPXPXPXPXPXPXPXPXPXPXPXPXPXPXPXPXPXPXPXPXPXPXPXPXPXPXPXPXPXPXPXPXPXPXPXPXPXPXPXPXPXPXPXPXPXPXPXPXPXPXPXPXPXPXPXPXPXPXPXPXPXPXPXPXPXPXPXPXPXPXPXPXPXPXPXPXPXPXPXPXPXPXPXPXPX",
"PXPXPXPXPXPXPXPXPXPXPXPXPXPXPXPXPXPXPXPXPXPXPXPXPXPXPXPXPXPXPXPXPXPXPXPXPXPXPXPXPXPXPXPXPXPXPXPXPXPXPXPXPXPXPXPXPXPXPXPXPXPXPXPXPXPXPXPXPXPXPXPXPXPXPXPXPXPXPXPXPXPXPXPXPXPXPXPXPXPXPXPXPXPXPXPXPXPXPXPXPXPXPXPXPXPXPXPXPXPXPXPXPXPXPXPXPXPXPXPXPXPXPXPXPXPXPXPXPXPXPXPXPXPXPXPXPXPXPXPXPXPXPXPXPXPXPXPXPXPXPXPXPXPXPXPXPXPXPXPXPXPXPXPXPXPXPXPXPXPXPXPXPXPXPXPXPXPXPXPXPXPXPXPXPXPXPXPXPXPXPXPXPXPXPXPXPXPXPXPXPXPXPXPXPXPXPXPXPXPXPXPXPXPXPXPXPXPXPXPXPXPXPXPXPXPXPXPXPXPXPXPXPXPXPXPXPXPXPXPXPXPXPXPXPXPXPXPXPXPXPXPXPXPXPXPX",
"PXPXPXPXPXPXPXPXPXPXPXPXPXPXPXPXPXPXPXPXPXPXPXPXPXPXPXPXPXPXPXPXPXPXPXPXPXPXPXPXPXPXPXPXPXPXPXPXPXPXPXPXPXPXPXPXPXPXPXPXPXPXPXPXPXPXPXPXPXPXPXPXPXPXPXPXPXPXPXPXPXPXPXPXPXPXPXPXPXPXPXPXPXPXPXPXPXPXPXPXPXPXPXPXPXPXPXPXPXPXPXPXPXPXPXPXPXPXPXPXPXPXPXPXPXPXPXPXPXPXPXPXPXPXPXPXPXPXPXPXPXPXPXPXPXPXPXPXPXPXPXPXPXPXPXPXPXPXPXPXPXPXPXPXPXPXPXPXPXPXPXPXPXPXPXPXPXPXPXPXPXPXPXPXPXPXPXPXPXPXPXPXPXPXPXPXPXPXPXPXPXPXPXPXPXPXPXPXPXPXPXPXPXPXPXPXPXPXPXPXPXPXPXPXPXPXPXPXPXPXPXPXPXPXPXPXPXPXPXPXPXPXPXPXPXPXPXPXPXPXPXPXPXPXPXPX",
"PXPXPXPXPXPXPXPXPXPXPXPXPXPXPXPXPXPXPXPXPXPXPXPXPXPXPXPXPXPXPXPXPXPXPXPXPXPXPXPXPXPXPXPXPXPXPXPXPXPXPXPXPXPXPXPXPXPXPXPXPXPXPXPXPXPXPXPXPXPXPXPXPXPXPXPXPXPXPXPXPXPXPXPXPXPXPXPXPXPXPXPXPXPXPXPXPXPXPXPXPXPXPXPXPXPXPXPXPXPXPXPXPXPXPXPXPXPXPXPXPXPXPXPXPXPXPXPXPXPXPXPXPXPXPXPXPXPXPXPXPXPXPXPXPXPXPXPXPXPXPXPXPXPXPXPXPXPXPXPXPXPXPXPXPXPXPXPXPXPXPXPXPXPXPXPXPXPXPXPXPXPXPXPXPXPXPXPXPXPXPXPXPXPXPXPXPXPXPXPXPXPXPXPXPXPXPXPXPXPXPXPXPXPXPXPXPXPXPXPXPXPXPXPXPXPXPXPXPXPXPXPXPXPXPXPXPXPXPXPXPXPXPXPXPXPXPXPXPXPXPXPXPXPXPXPX",
"PXPXPXPXPXPXPXPXPXPXPXPXPXPXPXPXPXPXPXPXPXPXPXPXPXPXPXPXPXPXPXPXPXPXPXPXPXPXPXPXPXPXPXPXPXPXPXPXPXPXPXPXPXPXPXPXPXPXPXPXPXPXPXPXPXPXPXPXPXPXPXPXPXPXPXPXPXPXPXPXPXPXPXPXPXPXPXPXPXPXPXPXPXPXPXPXPXPXPXPXPXPXPXPXPXPXPXPXPXPXPXPXPXPXPXPXPXPXPXPXPXPXPXPXPXPXPXPXPXPXPXPXPXPXPXPXPXPXPXPXPXPXPXPXPXPXPXPXPXPXPXPXPXPXPXPXPXPXPXPXPXPXPXPXPXPXPXPXPXPXPXPXPXPXPXPXPXPXPXPXPXPXPXPXPXPXPXPXPXPXPXPXPXPXPXPXPXPXPXPXPXPXPXPXPXPXPXPXPXPXPXPXPXPXPXPXPXPXPXPXPXPXPXPXPXPXPXPXPXPXPXPXPXPXPXPXPXPXPXPXPXPXPXPXPXPXPXPXPXPXPXPXPXPXPXPX"
};
