/* XPM */
static const char *ordexcoin32[] = {
/* columns rows colors chars-per-pixel */
"32 32 155 2 ",
"   c #181716",
".  c #1B1A16",
"X  c #1D1D19",
"o  c #221E17",
"O  c #211F19",
"+  c #242016",
"@  c #23211C",
"#  c #2A261B",
"$  c #2C281F",
"%  c #332C1D",
"&  c #37301F",
"*  c #38311F",
"=  c #262522",
"-  c #282722",
";  c #2A2925",
":  c #2D2C29",
">  c #322D23",
",  c #312F29",
"<  c #363125",
"1  c #3A3323",
"2  c #3F3824",
"3  c #33312C",
"4  c #39352B",
"5  c #3D382C",
"6  c #363530",
"7  c #453C26",
"8  c #483F26",
"9  c #443D2B",
"0  c #433C30",
"q  c #47402E",
"w  c #4C4229",
"e  c #51472C",
"r  c #554A2E",
"t  c #5A4E2F",
"y  c #4A4233",
"u  c #554B33",
"i  c #584D34",
"p  c #514B3E",
"a  c #5D5233",
"s  c #5D533B",
"d  c #625635",
"f  c #665936",
"g  c #685A37",
"h  c #625539",
"j  c #655A3C",
"k  c #695C3B",
"l  c #6C603F",
"z  c #71633F",
"x  c #4D4D4B",
"c  c #534F46",
"v  c #54514A",
"b  c #635641",
"n  c #655841",
"m  c #6A5D41",
"M  c #605749",
"N  c #635B4C",
"B  c #605E59",
"V  c #6E6142",
"C  c #716543",
"Z  c #796343",
"A  c #766847",
"S  c #77674F",
"D  c #7E6A49",
"F  c #736652",
"G  c #7E6B56",
"H  c #797166",
"J  c #8A6E4D",
"K  c #85724E",
"L  c #88724F",
"P  c #9C7C46",
"I  c #8B6D53",
"U  c #8B7451",
"Y  c #82735C",
"T  c #967A51",
"R  c #957E5C",
"E  c #AA7E51",
"W  c #8C7D62",
"Q  c #8E7768",
"!  c #9D8056",
"~  c #AC884F",
"^  c #AB844B",
"/  c #B28B4F",
"(  c #AB8257",
")  c #B48952",
"_  c #B18A5E",
"`  c #BA895B",
"'  c #B4905D",
"]  c #BB935A",
"[  c #918169",
"{  c #988469",
"}  c #8E897E",
"|  c #9B8B7B",
" . c #A68165",
".. c #A38A64",
"X. c #AC8B60",
"o. c #A48969",
"O. c #AF8E6E",
"+. c #AF9063",
"@. c #AD926C",
"#. c #B39367",
"$. c #BA996A",
"%. c #AF8C70",
"&. c #A59272",
"*. c #B39477",
"=. c #B29870",
"-. c #BB9C71",
";. c #B69F78",
":. c #BE9F79",
">. c #B6A07D",
",. c #BDA17A",
"<. c #C89747",
"1. c #C1944C",
"2. c #CF9B54",
"3. c #C09C5F",
"4. c #DFA746",
"5. c #D4A558",
"6. c #E7B155",
"7. c #CBA36A",
"8. c #D5AA64",
"9. c #D2AB6E",
"0. c #DEB26E",
"q. c #C0A071",
"w. c #CAA773",
"e. c #CCA976",
"r. c #C3A47C",
"t. c #CBAC7E",
"y. c #D1AA71",
"u. c #D2AF79",
"i. c #D6B07B",
"p. c #928881",
"a. c #AC958A",
"s. c #AC998D",
"d. c #B59F8C",
"f. c #BE9F8A",
"g. c #BEA98C",
"h. c #B5A59B",
"j. c #B8AB9A",
"k. c #B0A8A1",
"l. c #BFAFA6",
"z. c #BBB1A4",
"x. c #C3A783",
"c. c #CDAE81",
"v. c #C4AB8F",
"b. c #CAAE89",
"n. c #C1AA95",
"m. c #CDB69E",
"M. c #D1B491",
"N. c #C9B7A1",
"B. c #CBB8A6",
"V. c #C5B4AA",
"C. c #C7BBAC",
"Z. c #CDBDAE",
"A. c #E2CFBB",
"S. c None",
"D. c black",
/* pixels */
"S.S.S.S.S.S.S.S.S.S.S.S.S.S.S.S.S.S.S.S.S.S.S.S.S.S.S.S.S.S.S.S.",
"S.S.S.S.S.S.S.S.S.S.S.S.S.S.S.S.S.S.S.S.S.S.S.S.S.S.S.S.S.S.S.S.",
"S.S.S.S.S.S.S.S.S.S.S.S.X X X X X X X X S.S.S.S.S.S.S.S.S.S.S.S.",
"S.S.S.S.S.S.S.S.S.S.X O # > 2 7 7 2 % + . X S.S.S.S.S.S.S.S.S.S.",
"S.S.S.S.S.S.S.S.O @ > u k k d i r t d d e % o X S.S.S.S.S.S.S.S.",
"S.S.S.S.S.S.S.@ $ u z i 2 ; - @ @ O o # 7 d e # O S.S.S.S.S.S.S.",
"S.S.S.S.S.S.@ > k j 4 : ; ; = = @ X X X . + w d % o S.S.S.S.S.S.",
"S.S.S.S.S.@ > l i , : : ; ; = = @ X X   . . . * h % O S.S.S.S.S.",
"S.S.S.S.= $ k i , : : ; ; ; - = @ ; > < @   . . * d # @ S.S.S.S.",
"S.S.S.S.@ u j , : : ; : : ; ; ; y ..q.7.T 1     . 7 r @ S.S.S.S.",
"S.S.S.= > C 5 : ; ; ; ; : : 3 b e.0.] _ 2.' 4 X   o d < @ S.S.S.",
"S.S.S.# u s : ; ; ; ; ; : 3 N g.i.y.R G  .M.G @     2 i @ S.S.S.",
"S.S.S.- l 0 : ; ; - - ; ; B C.m.:.X.Z h o.r.Y X     + h # O S.S.",
"S.S.; < V 4 : ; - = = - x z.Z.d.O.( #.;.#.t.Y X     X t < @ S.S.",
"S.S.; 5 V , ; ; = = - c k.V.h.| M I %.v.x.,.u .       w 7 X S.S.",
"S.S.; q m , ; ; = = p r.B.a.f.{ @ n *.l.N.S O         8 w X S.S.",
"S.S.; q m 3 : ; = 0 3.0.s.Q ` r.[ &.n.A.} @           8 w X S.S.",
"S.S.; 9 V 4 : ; ; D 6.w.p.J ) E @.g.V.j.3             w 7 X S.S.",
"S.S.: < C 4 : ; : P 4.r.Y > U $.-.d.d.v X . .       . t * X S.S.",
"S.S.S.; V y : ; ; L <.1.@.K >.c.b.n.F @ X X .       + d # . S.S.",
"S.S.S.; i j 3 : ; n / ^ q.8.9.5.u.W < @ X X .       2 r . S.S.S.",
"S.S.S.: < A 0 3 : 4 V R ! ~ +.=.W 4 = @ @ X .     o d %   S.S.S.",
"S.S.S.S.; i m 4 3 : 6 n U F H N 5 ; = @ @ X .   . 7 r . S.S.S.S.",
"S.S.S.S.: : V s 4 3 : 3 4 3 : , : ; = @ @ X X . * d #   S.S.S.S.",
"S.S.S.S.S.; < C s 4 3 3 : : : : : ; = @ @ X X < j % . S.S.S.S.S.",
"S.S.S.S.S.S.- < m m 0 4 3 , : : : ; = = @ # w d % . S.S.S.S.S.S.",
"S.S.S.S.S.S.S.- ; i C s 0 4 3 , : : ; < w f r # X S.S.S.S.S.S.S.",
"S.S.S.S.S.S.S.S.; - < i V V k h h h g g r % o X S.S.S.S.S.S.S.S.",
"S.S.S.S.S.S.S.S.S.S.- # $ < 7 w w 7 & # O O S.S.S.S.S.S.S.S.S.S.",
"S.S.S.S.S.S.S.S.S.S.S.S.S.@ @ @ @ @ O O S.S.S.S.S.S.S.S.S.S.S.S.",
"S.S.S.S.S.S.S.S.S.S.S.S.S.S.S.S.S.S.S.S.S.S.S.S.S.S.S.S.S.S.S.S.",
"S.S.S.S.S.S.S.S.S.S.S.S.S.S.S.S.S.S.S.S.S.S.S.S.S.S.S.S.S.S.S.S."
};
