/* XPM */
static const char *ordexcoin64[] = {
/* columns rows colors chars-per-pixel */
"64 64 223 2 ",
"   c #171714",
".  c #1B1A16",
"X  c #1D1D19",
"o  c #171815",
"O  c #221D14",
"+  c #211F1A",
"@  c #1F201B",
"#  c #252015",
"$  c #2C2415",
"%  c #24221C",
"&  c #2A261D",
"*  c #2E291E",
"=  c #342B1B",
"-  c #392E1A",
";  c #312816",
":  c #3C321C",
">  c #262522",
",  c #282722",
"<  c #2A2925",
"1  c #2D2C29",
"2  c #272824",
"3  c #322D23",
"4  c #302F2A",
"5  c #382F21",
"6  c #363126",
"7  c #3B3324",
"8  c #33312C",
"9  c #3A352C",
"0  c #3F392B",
"q  c #343432",
"w  c #3F3C33",
"e  c #3E3E3C",
"r  c #43361E",
"t  c #413724",
"y  c #443924",
"u  c #4A3D24",
"i  c #443B2A",
"p  c #493E2C",
"a  c #433C31",
"s  c #4D4126",
"d  c #4C422C",
"f  c #52452C",
"g  c #56492D",
"h  c #594C2E",
"j  c #504327",
"k  c #4B4436",
"l  c #444138",
"z  c #524631",
"x  c #554932",
"c  c #5C4E33",
"v  c #584E3B",
"b  c #5E513B",
"n  c #5E5233",
"m  c #625534",
"M  c #665835",
"N  c #625439",
"B  c #65583A",
"V  c #6B5D3B",
"C  c #6B5935",
"Z  c #6E613D",
"A  c #72643D",
"S  c #786039",
"D  c #4A4943",
"F  c #5C5242",
"G  c #5F584B",
"H  c #5A5854",
"J  c #645B4B",
"K  c #675944",
"L  c #645E51",
"P  c #736442",
"I  c #7A6441",
"U  c #776942",
"Y  c #7B6C43",
"T  c #7C6B4C",
"R  c #75654D",
"E  c #7F7248",
"W  c #766C5E",
"Q  c #776B58",
"!  c #656059",
"~  c #6B6B68",
"^  c #7B7467",
"/  c #7A7874",
"(  c #9E783C",
")  c #A87C3B",
"_  c #A97622",
"`  c #88684B",
"'  c #9B6B48",
"]  c #83754A",
"[  c #8C724B",
"{  c #8A7A4E",
"}  c #85764A",
"|  c #9C7C4D",
" . c #997349",
".. c #896B5A",
"X. c #8C7C52",
"o. c #8A7859",
"O. c #937B51",
"+. c #967A57",
"@. c #A57D4A",
"#. c #A77C59",
"$. c #877A66",
"%. c #947962",
"&. c #807370",
"*. c #A27A62",
"=. c #B8883C",
"-. c #CB9538",
";. c #D9A037",
":. c #E3A539",
">. c #938454",
",. c #998956",
"<. c #948559",
"1. c #9B855B",
"2. c #97895A",
"3. c #9C8C5C",
"4. c #908051",
"5. c #AD8547",
"6. c #B88647",
"7. c #AB8954",
"8. c #A7875B",
"9. c #B78F5C",
"0. c #A0905D",
"q. c #BA9459",
"w. c #8D806B",
"e. c #9A8568",
"r. c #8B8477",
"t. c #988B76",
"y. c #A98664",
"u. c #A48963",
"i. c #A88967",
"p. c #B78A67",
"a. c #A29362",
"s. c #AD926A",
"d. c #B3956A",
"f. c #B99468",
"g. c #A48A79",
"h. c #AD9472",
"j. c #AB967D",
"k. c #AE9A79",
"l. c #B79977",
"z. c #BFA57C",
"x. c #C79849",
"c. c #C99D55",
"v. c #D29749",
"b. c #D9A447",
"n. c #D7A658",
"m. c #C7A05F",
"M. c #E5AA43",
"N. c #E7AE49",
"B. c #ECB452",
"V. c #C69966",
"C. c #C5A26D",
"Z. c #D6AB6C",
"A. c #D5A968",
"S. c #DAB06A",
"D. c #C2A174",
"F. c #CCAB7B",
"G. c #C8A778",
"H. c #D1AE7D",
"J. c #D8AC71",
"K. c #DBB373",
"L. c #D6B27C",
"P. c #E6B56A",
"I. c #E9BB77",
"U. c #F2B862",
"Y. c #F0C177",
"T. c #998986",
"R. c #9C9288",
"E. c #9B9592",
"W. c #8D8A84",
"Q. c #A69489",
"!. c #B99988",
"~. c #A59B94",
"^. c #A99C98",
"/. c #B29C92",
"(. c #B6A182",
"). c #BDA283",
"_. c #BBA48D",
"`. c #BCA98D",
"'. c #B1A08D",
"]. c #BBAA94",
"[. c #B2A49B",
"{. c #BDAC9C",
"}. c #B7A697",
"|. c #ADA19A",
" X c #ACA6A7",
".X c #B5ABA4",
"XX c #BBACA0",
"oX c #B7AEAB",
"OX c #B9B6AE",
"+X c #C3A68B",
"@X c #C4AB8E",
"#X c #C8AA84",
"$X c #D3AC87",
"%X c #CBB18B",
"&X c #D4B385",
"*X c #DCB985",
"=X c #C4AB93",
"-X c #C6AB9A",
";X c #CCB293",
":X c #C7B49A",
">X c #D4BA93",
",X c #D8B99B",
"<X c #E0B680",
"1X c #CBB5A4",
"2X c #C4B5A9",
"3X c #D6BAA5",
"4X c #C5B0AA",
"5X c #DCC399",
"6X c #ECC389",
"7X c #E2C396",
"8X c #F1C98F",
"9X c #D8C4A5",
"0X c #CBC4BB",
"qX c #DDCDBD",
"wX c #D9CAB9",
"eX c #DCD2BD",
"rX c #E8C9A8",
"tX c #E6D2B9",
"yX c #DBCDC4",
"uX c #E7DBCE",
"iX c #FAF1D5",
"pX c None",
"aX c black",
/* pixels */
"pXpXpXpXpXpXpXpXpXpXpXpXpXpXpXpXpXpXpXpXpXpXpXpXpXpXpXpXpXpXpXpXpXpXpXpXpXpXpXpXpXpXpXpXpXpXpXpXpXpXpXpXpXpXpXpXpXpXpXpXpXpXpXpX",
"pXpXpXpXpXpXpXpXpXpXpXpXpXpXpXpXpXpXpXpXpXpXpXpXpXpXpXpXpXpXpXpXpXpXpXpXpXpXpXpXpXpXpXpXpXpXpXpXpXpXpXpXpXpXpXpXpXpXpXpXpXpXpXpX",
"pXpXpXpXpXpXpXpXpXpXpXpXpXpXpXpXpXpXpXpXpXpXpXpXpXpXpXpXpXpXpXpXpXpXpXpXpXpXpXpXpXpXpXpXpXpXpXpXpXpXpXpXpXpXpXpXpXpXpXpXpXpXpXpX",
"pXpXpXpXpXpXpXpXpXpXpXpXpXpXpXpXpXpXpXpXpXpXpXpXpXpXpXpXpXpXpXpXpXpXpXpXpXpXpXpXpXpXpXpXpXpXpXpXpXpXpXpXpXpXpXpXpXpXpXpXpXpXpXpX",
"pXpXpXpXpXpXpXpXpXpXpXpXpXpXpXpXpXpXpXpXpXpXpXpXpXpXpX% % % X X X X X % % pXpXpXpXpXpXpXpXpXpXpXpXpXpXpXpXpXpXpXpXpXpXpXpXpXpXpX",
"pXpXpXpXpXpXpXpXpXpXpXpXpXpXpXpXpXpXpXpXpXpXpX% % X X X X X X X X X X X X X + X X pXpXpXpXpXpXpXpXpXpXpXpXpXpXpXpXpXpXpXpXpXpXpX",
"pXpXpXpXpXpXpXpXpXpXpXpXpXpXpXpXpXpXpXpXpX% X X X + % % % % % % # # O O X X X X X + X X pXpXpXpXpXpXpXpXpXpXpXpXpXpXpXpXpXpXpXpX",
"pXpXpXpXpXpXpXpXpXpXpXpXpXpXpXpXpXpXpX% X X % % & & = - t d h n n h d t - $ O O . . X % X X pXpXpXpXpXpXpXpXpXpXpXpXpXpXpXpXpXpX",
"pXpXpXpXpXpXpXpXpXpXpXpXpXpXpXpXpX% + + % % & = s V { ,.,.>.{ } } } { >.<.{ A s $ O . . O % X pXpXpXpXpXpXpXpXpXpXpXpXpXpXpXpXpX",
"pXpXpXpXpXpXpXpXpXpXpXpXpXpXpXpX% X + & * 7 M >.3.} m u : = = $ $ $ $ ; : j A X.>.A : O . X + + X pXpXpXpXpXpXpXpXpXpXpXpXpXpXpX",
"pXpXpXpXpXpXpXpXpXpXpXpXpXpX> % + % & 5 V 3.>.m t - 3 < < , & % % % % % O O O $ y A <.U : O . + % X pXpXpXpXpXpXpXpXpXpXpXpXpXpX",
"pXpXpXpXpXpXpXpXpXpXpXpXpX> % + , = f >.>.c 7 3 3 < < , > > > % % % % X X X X O O O - Z <.M $ O O % X pXpXpXpXpXpXpXpXpXpXpXpXpX",
"pXpXpXpXpXpXpXpXpXpXpXpX> + % , - Z a.A 7 3 3 1 < < < 2 > > > % % % + X X X X X X X O O r { } - . O % X pXpXpXpXpXpXpXpXpXpXpXpX",
"pXpXpXpXpXpXpXpXpXpXpX> % % , 7 ] 2.f 7 6 4 1 < < < < 2 > > > % % % X X X X X . X X X X O $ V <.u O . % X pXpXpXpXpXpXpXpXpXpXpX",
"pXpXpXpXpXpXpXpXpXpX2 % + , 7 X.X.i 6 4 1 1 1 < < < < 2 > > > % % % + X X X . . . . . . X O O h 3.s O O % X pXpXpXpXpXpXpXpXpXpX",
"pXpXpXpXpXpXpXpXpXpX> + , 7 X.} t 6 4 1 1 1 1 < < < < < 2 > > > % % + X X X . . . . . . . X O O s 2.u O + % . pXpXpXpXpXpXpXpXpX",
"pXpXpXpXpXpXpXpXpX> X , 5 ] X.t 6 4 1 1 1 1 1 1 < < < < 2 > > > % % % % X X o X X . . . X . X O O g <.: . % % pXpXpXpXpXpXpXpXpX",
"pXpXpXpXpXpXpXpX< % % < Z 2.i 6 4 1 1 1 1 1 1 1 1 1 < < < 2 > > % % 9 5 & 6 7 r $ . o o . . X X X O M X.$ X & X pXpXpXpXpXpXpXpX",
"pXpXpXpXpXpXpXpX> % < d a.x 6 4 1 1 1 1 1 1 1 1 1 1 1 < < 2 > > > % b o.s.k.G.A.O.6 & X . . o . X O $ ] Z O % & . pXpXpXpXpXpXpX",
"pXpXpXpXpXpXpX< + % 7 >.P 7 4 1 1 1 1 1 1 1 1 1 1 1 1 1 < < < < x T %X6X8X*XP.Y.I.d.b % o o o . . X O : <.t O & % pXpXpXpXpXpXpX",
"pXpXpXpXpXpXpX> % < B 2.i 6 1 1 1 < < < 1 1 1 1 1 1 1 1 < < 6 9 e.8XI.P.J.8.8.n.b.U.V.I % . o o o . X O m } $ % & X pXpXpXpXpXpX",
"pXpXpXpXpXpX1 % , 7 2.N 6 4 1 1 < < < < < 1 1 1 1 1 1 1 1 i N w.6XI.K.c.6.( e.*.' b.U.&Xa % % . o o X O ; >.s O & % pXpXpXpXpXpX",
"pXpXpXpXpXpX< % < n <.0 8 1 1 < < < < < < < 1 1 1 1 1 1 k x u.7XL.Z.I.C.5.O.$...` f.*X7Xg.K < . o . . X O m E O % % pXpXpXpXpXpX",
"pXpXpXpXpXpX> % 3 X.Z 6 4 1 1 < < < < < < < 1 1 1 1 1 q l $.9X:X).Z.S.#X_.W R [ %.g.XX:Xk.N % o . o . X O - <.: O & X pXpXpXpXpX",
"pXpXpXpXpX1 % , i 3.d 6 1 1 < < < 2 2 2 < < < 1 1 1 4 H .XqXwX=X&Xl.j.f.| < $ C s.l.@X>Xe.a o o . o . . X O E M O & + pXpXpXpXpX",
"pXpXpXpXpX1 % < B >.9 8 1 1 < < < 2 2 2 2 2 2 < < 1 l W.uXwX2X$X<Xt. .5.[ C c L u.e.8.K.l.J o o o o o . X O h } $ % % pXpXpXpXpX",
"pXpXpXpXpX< % < E Y 6 4 1 < < < < 2 > > > > > > q e E.eXqX2X'.h.y.+.@.9.f.q.o.].u.u.f.=X@XJ # o o o o o . O : >.- O % . pXpXpXpX",
"pXpXpXpXpX, % 6 >.N 6 4 1 < < < < > > > > > > < e ~ OXtX1X2X[.Q.).f.#.y.f.&X>X*Xd.7.K.9Xh., o o o o o o o X $ >.u O & X pXpXpXpX",
"pXpXpXpXq , % t 3.z 6 1 1 < < < 2 > > > > > 1 q / 0XyX1X{.|.Q.].W t.y.' y.=X;XH.C.F.@X&X+.p + o o o o o o . O ] h O % X pXpXpXpX",
"pXpXpXpXq > , p 0.d 6 1 1 < < 2 2 > > > % 3 k / 0XyX1X[. X/.).W < > F s.' g..X_.'.;XG.s.a & . o o o o o o . O A M O % X pXpXpXpX",
"pXpXpXpXq > , z 3.i 6 1 1 1 < 2 2 > > > 3 9 T 7XtX2X[.g./.4X).a .   . R V.y.[.oXXX:X_.F * o o o o o o o o . O V A O % X pXpXpXpX",
"pXpXpXpXq % < x 3.i 8 1 1 1 < 2 2 > > > 6 ^ 7XI.>X XR.l.p.+X*Xo.% . i e.D.Q.{.0XqX5XR f . o o o o o o o o . O M U O % X pXpXpXpX",
"pXpXpXpXq % , x 3.i 8 1 1 1 < < 2 > > k o.*XY.G.+X^.W.%.9.f.$X,Xe.9 T F.+X/.3XuXuX^ * + o o o o o o o o o . O M U O % X pXpXpXpX",
"pXpXpXpXq > , z 3.p 8 4 1 1 < < 2 > < S S.b.:.H.~.T.&.K 6.6.9.=X,Xk.h.:XXX-XrXiXOX> o o o o o o o o o o o . O V A O % . pXpXpXpX",
"pXpXpXpXq , , p 0.d 8 4 1 1 1 < 2 1 < 1.I.M.M.@X~.E.W ) A.9.6...j.!.`.{..X2XrX0XD o o o o o o o o o o o o . O A M O % . pXpXpXpX",
"pXpXpXpXpX< > i 3.x 8 4 1 1 1 1 2 4 v D.P.N.Z.^.Q.W R 6.1.@.x. .` d.F.{.oX4XwX~ X . o o . . . . o o o o o . O } h O % . pXpXpXpX",
"pXpXpXpXpX< % 7 <.B 6 4 1 1 1 1 2 9 I b.:.N.F.[.(.b X 6 I n.+.8.9.f.k.[.!.3XR.H > . . . . . . . o o o o o . $ 4.u O O . pXpXpXpX",
"pXpXpXpXpX8 % 3 ] T 6 8 1 1 1 1 < 4 c n.b.;.c.#Xz.v X . d s.z.H.).).E.!.,Xr.4 X X X . . . . . o o o o o o . : >.; O X pXpXpXpXpX",
"pXpXpXpXpX8 % < B <.9 8 1 1 1 1 1 < k S.x.) =.m.%XT 0 D r.1X;XL.D.=X_.#X:XF % % X X X . . . . o o o o o o O h } # O X pXpXpXpXpX",
"pXpXpXpXpXq , , p a.z 8 4 1 1 1 1 1 w F.c.-.=.c.F.d.q.H.Z.#X`.D.I.[.1X:XJ 0 % % X X X . . . . . o o o o . O Y m O O o pXpXpXpXpX",
"pXpXpXpXpXpX1 % 6 4.P 9 8 1 1 1 1 1 8 8.Z.6._ 6.G.%XA.c.n.&XG.M.P.:X9X] u > > % + X X X . . o o o o o o O - >.: O O o pXpXpXpXpX",
"pXpXpXpXpXpX8 % 3 N 2.i 8 8 1 1 1 1 9 I | 5.O.u.l.f.S.K.G.K.c.:.n.&Xw.t 7 > % % % X X X . o o o o o o . O M E O X X pXpXpXpXpXpX",
"pXpXpXpXpXpXq , , 0 3.V 9 8 8 1 1 1 8 k K 8.O.+.%.) b.x.7.7.q.h.].w.9 < 2 > > % % X X X X o o o o o . X ; >.u O X o pXpXpXpXpXpX",
"pXpXpXpXpXpXpX8 % 3 V 3.p 9 8 8 1 1 1 1 w W %.+.o.[ [ [ 1.i.(.~.k.m < < 2 > > % % X X X X o o o o o X O M ] $ X X o pXpXpXpXpXpX",
"pXpXpXpXpXpXpXq , , 0 <.Y 9 8 8 8 1 1 1 1 l G | 9.i. .$.R.{.t.J a 0 < < 2 > > % % X X X X . . . . . O : <.y O X o pXpXpXpXpXpXpX",
"pXpXpXpXpXpXpXpX8 % < x a.c 9 8 8 8 8 1 1 1 8 C ] J R ! H D w i 1 1 < < 2 > > % % + X X X . . . . O $ ] V O X .   pXpXpXpXpXpXpX",
"pXpXpXpXpXpXpXpXq < > 3 P e.d 9 8 8 8 8 4 1 1 8 6 1 4 1 1 1 a 1 1 1 < < 2 > > % % + X X X . . X X O M { $ X X o pXpXpXpXpXpXpXpX",
"pXpXpXpXpXpXpXpXpXq , , 7 { <.p 9 8 8 8 8 8 1 1 1 1 1 1 1 1 1 1 1 1 < < > > % % % + X X X . X O O g <.: O X o pXpXpXpXpXpXpXpXpX",
"pXpXpXpXpXpXpXpXpXpX8 % , i <.X.i 9 8 8 8 8 1 1 1 1 1 1 1 1 1 1 1 1 < < > > % % % % X X X X O O f 3.u O X X   pXpXpXpXpXpXpXpXpX",
"pXpXpXpXpXpXpXpXpXpXpX< % < t <.X.p 0 8 8 8 8 8 8 4 4 1 1 1 1 1 1 1 < < > > > % % % + X + O # c <.u # O . o pXpXpXpXpXpXpXpXpXpX",
"pXpXpXpXpXpXpXpXpXpXpXq < % < t X.3.x 0 9 q 8 8 8 8 8 4 1 1 1 1 1 1 < < 2 > > % % % % + O $ Z >.y O O X o pXpXpXpXpXpXpXpXpXpXpX",
"pXpXpXpXpXpXpXpXpXpXpXpX8 , % , 7 U a.P i 9 9 8 8 8 8 4 1 1 1 1 1 1 < < < > > > % % % $ u X.] - # O X o pXpXpXpXpXpXpXpXpXpXpXpX",
"pXpXpXpXpXpXpXpXpXpXpXpXpX8 < % , 5 x <.<.b i 9 9 8 8 8 8 4 4 1 1 1 < < < , , & & $ r U <.m $ # O O o pXpXpXpXpXpXpXpXpXpXpXpXpX",
"pXpXpXpXpXpXpXpXpXpXpXpXpXpX1 < % & < 7 V 3.>.B p 9 9 6 6 6 6 8 8 4 3 3 3 * = - s Y ,.A : # % % X o pXpXpXpXpXpXpXpXpXpXpXpXpXpX",
"pXpXpXpXpXpXpXpXpXpXpXpXpXpXpXpX1 & % , 3 0 V <.3.X.V x p t 0 7 7 7 7 t u c U >.>.V : $ % % O X o pXpXpXpXpXpXpXpXpXpXpXpXpXpXpX",
"pXpXpXpXpXpXpXpXpXpXpXpXpXpXpXpXpX1 < & % & < 5 s Z { ,.3.,.>.X.{ O.>.,.>.{ A s = $ # % % + o pXpXpXpXpXpXpXpXpXpXpXpXpXpXpXpXpX",
"pXpXpXpXpXpXpXpXpXpXpXpXpXpXpXpXpXpXpX< , & & & & & = : u f h m m h f u - $ $ % % % % % X pXpXpXpXpXpXpXpXpXpXpXpXpXpXpXpXpXpXpX",
"pXpXpXpXpXpXpXpXpXpXpXpXpXpXpXpXpXpXpXpXpX< , % & % % & & & & & $ & % % & & % % % % X pXpXpXpXpXpXpXpXpXpXpXpXpXpXpXpXpXpXpXpXpX",
"pXpXpXpXpXpXpXpXpXpXpXpXpXpXpXpXpXpXpXpXpXpXpX2 > > % % % % % & % & & % % % % X X pXpXpXpXpXpXpXpXpXpXpXpXpXpXpXpXpXpXpXpXpXpXpX",
"pXpXpXpXpXpXpXpXpXpXpXpXpXpXpXpXpXpXpXpXpXpXpXpXpXpXpXpX> % % % % + X X pXpXpXpXpXpXpXpXpXpXpXpXpXpXpXpXpXpXpXpXpXpXpXpXpXpXpXpX",
"pXpXpXpXpXpXpXpXpXpXpXpXpXpXpXpXpXpXpXpXpXpXpXpXpXpXpXpXpXpXpXpXpXpXpXpXpXpXpXpXpXpXpXpXpXpXpXpXpXpXpXpXpXpXpXpXpXpXpXpXpXpXpXpX",
"pXpXpXpXpXpXpXpXpXpXpXpXpXpXpXpXpXpXpXpXpXpXpXpXpXpXpXpXpXpXpXpXpXpXpXpXpXpXpXpXpXpXpXpXpXpXpXpXpXpXpXpXpXpXpXpXpXpXpXpXpXpXpXpX",
"pXpXpXpXpXpXpXpXpXpXpXpXpXpXpXpXpXpXpXpXpXpXpXpXpXpXpXpXpXpXpXpXpXpXpXpXpXpXpXpXpXpXpXpXpXpXpXpXpXpXpXpXpXpXpXpXpXpXpXpXpXpXpXpX",
"pXpXpXpXpXpXpXpXpXpXpXpXpXpXpXpXpXpXpXpXpXpXpXpXpXpXpXpXpXpXpXpXpXpXpXpXpXpXpXpXpXpXpXpXpXpXpXpXpXpXpXpXpXpXpXpXpXpXpXpXpXpXpXpX"
};
